%
(HEQJ-P023)
(T1 D=0.25 CR=0. - ZMIN=-0.3 - FLAT END MILL)
N10 G90 G94 G17 G91.1
N15 G20
(WHEN USING FUSION FOR PERSONAL USE, THE FEEDRATE OF RAPID)
(MOVES IS REDUCED TO MATCH THE FEEDRATE OF CUTTING MOVES,)
(WHICH CAN INCREASE MACHINING TIME. UNRESTRICTED RAPID MOVES)
(ARE AVAILABLE WITH A FUSION SUBSCRIPTION.)
N20 G53 G0 Z0.
(ADAPTIVE1)
N25 T1 M6
N30 S5000 M3
N35 G17 G90 G94
N40 G54
N45 G64 P0.004 Q0.004
N50 M8
N55 G0 X7.5358 Y0.1914
N60 G43 Z0.6 H1
N65 G1 Z0.6 F15.
N70 Z-0.25
N75 Z-0.275
N80 X7.536 Y0.1912 Z-0.2789
N85 X7.5368 Y0.1908 Z-0.2827
N90 X7.5382 Y0.1901 Z-0.2863
N95 X7.5399 Y0.1891 Z-0.2897
N100 X7.5422 Y0.1878 Z-0.2927
N105 X7.5448 Y0.1863 Z-0.2952
N110 X7.5477 Y0.1847 Z-0.2973
N115 X7.5508 Y0.1829 Z-0.2988
N120 X7.5542 Y0.1811 Z-0.2997
N125 X7.5576 Y0.1791 Z-0.3
N130 G3 X7.684 Y0.125 I0.313 J0.5562
N135 G1 X7.7021 Y0.1202
N140 X7.7267 Y0.1126
N145 X7.7349 Y0.1092
N150 X7.7432 Y0.1054
N155 X7.7925 Y0.0824
N160 X7.807 Y0.075
N165 X7.8172 Y0.0697
N170 X7.8378 Y0.0612
N175 X7.8655 Y0.0522
N180 X7.9007 Y0.0439
N185 X7.9364 Y0.0381
N190 X7.9724 Y0.0341
N195 X8.0085 Y0.0313
N200 X8.0446 Y0.0293
N205 X8.0807 Y0.0279
N210 X8.1169 Y0.0269
N215 X8.1531 Y0.0262
N220 X8.1893 Y0.0257
N225 X8.2254 Y0.0254
N230 X8.2616 Y0.0251
N235 X8.2978 Y0.0249
N240 X8.3702 Y0.0247
N245 X8.4787 Y0.0245
N250 X8.7501 Y0.0243
N255 X8.7678 Y0.0207
N260 X8.7999 Y0.0041
N265 X8.8246 Y-0.0224
N270 X8.8429 Y-0.0536
N275 X8.8563 Y-0.0872
N280 X8.866 Y-0.1221
N285 X8.873 Y-0.1576
N290 X8.8779 Y-0.1934
N295 X8.8815 Y-0.2294
N300 X8.884 Y-0.2655
N305 X8.8858 Y-0.3017
N310 X8.887 Y-0.3378
N315 X8.8879 Y-0.374
N320 X8.8885 Y-0.4102
N325 X8.889 Y-0.4464
N330 X8.8893 Y-0.4825
N335 X8.8895 Y-0.5187
N340 X8.8897 Y-0.5549
N345 X8.8898 Y-0.6273
N350 X8.89 Y-0.7358
N355 Y-0.9529
N360 Y-1.8846
N365 X8.8886 Y-1.8935
N370 X8.883 Y-1.9108
N375 X8.8632 Y-1.941
N380 X8.8352 Y-1.964
N385 X8.8033 Y-1.981
N390 X8.7693 Y-1.9933
N395 X8.7342 Y-2.0023
N400 X8.6986 Y-2.0087
N405 X8.6627 Y-2.0133
N410 X8.6267 Y-2.0166
N415 X8.5906 Y-2.0189
N420 X8.5544 Y-2.0206
N425 X8.5183 Y-2.0217
N430 X8.4821 Y-2.0226
N435 X8.4459 Y-2.0231
N440 X8.4097 Y-2.0236
N445 X8.3736 Y-2.0239
N450 X8.3374 Y-2.0241
N455 X8.3012 Y-2.0242
N460 X8.2288 Y-2.0244
N465 X8.1203 Y-2.0246
N470 X7.9032 Y-2.0247
N475 X7.7792 Y-2.0248
N480 X7.7678 Y-2.0259
N485 X7.7569 Y-2.0292
N490 X7.7468 Y-2.0346
N495 X7.738 Y-2.0418
N500 X7.7308 Y-2.0506
N505 X7.7254 Y-2.0607
N510 G3 X7.7328 Y-2.0887 I0.0234 J-0.0088
N515 G1 X7.7358 Y-2.0912 Z-0.2997
N520 X7.7387 Y-2.0936 Z-0.2988
N525 X7.7415 Y-2.096 Z-0.2973
N530 X7.7441 Y-2.0981 Z-0.2952
N535 X7.7464 Y-2.1 Z-0.2927
N540 X7.7483 Y-2.1016 Z-0.2897
N545 X7.7499 Y-2.1029 Z-0.2863
N550 X7.751 Y-2.1039 Z-0.2827
N555 X7.7517 Y-2.1045 Z-0.2789
N560 X7.752 Y-2.1047 Z-0.275
N565 Z0.6
N570 X7.7734 Y0.1192
N575 Z-0.25
N580 Z-0.275
N585 X7.7736 Y0.1189 Z-0.2789
N590 X7.774 Y0.1181 Z-0.2827
N595 X7.7748 Y0.1168 Z-0.2863
N600 X7.7758 Y0.115 Z-0.2897
N605 X7.777 Y0.1128 Z-0.2927
N610 X7.7785 Y0.1102 Z-0.2952
N615 X7.7801 Y0.1073 Z-0.2973
N620 X7.7819 Y0.1041 Z-0.2988
N625 X7.7837 Y0.1008 Z-0.2997
N630 X7.7857 Y0.0974 Z-0.3
N635 G3 X7.807 Y0.075 I0.0544 J0.0305
N640 G1 X7.9633 Y-0.0153
N645 X7.987 Y-0.0274
N650 X8.0093 Y-0.0366
N655 X8.0389 Y-0.0462
N660 X8.0741 Y-0.0546
N665 X8.1098 Y-0.0605
N670 X8.1457 Y-0.0647
N675 X8.1818 Y-0.0678
N680 X8.2179 Y-0.0699
N685 X8.254 Y-0.0715
N690 X8.2902 Y-0.0726
N695 X8.3264 Y-0.0734
N700 X8.3626 Y-0.074
N705 X8.3987 Y-0.0745
N710 X8.4349 Y-0.0748
N715 X8.4711 Y-0.075
N720 X8.5073 Y-0.0752
N725 X8.5796 Y-0.0754
N730 X8.6158 Y-0.0755
N735 X8.6337 Y-0.078
N740 X8.668 Y-0.0897
N745 X8.6968 Y-0.1116
N750 X8.7197 Y-0.1395
N755 X8.7375 Y-0.171
N760 X8.7511 Y-0.2046
N765 X8.7613 Y-0.2393
N770 X8.7689 Y-0.2747
N775 X8.7746 Y-0.3104
N780 X8.7787 Y-0.3463
N785 X8.7818 Y-0.3824
N790 X8.784 Y-0.4185
N795 X8.7857 Y-0.4547
N800 X8.7869 Y-0.4908
N805 X8.7877 Y-0.527
N810 X8.7879 Y-0.5394
N815 X8.789 Y-0.5496
N820 X8.7919 Y-0.5595
N825 X8.7964 Y-0.5686
N830 X8.8091 Y-0.5897
N835 X8.8217 Y-0.6143
N840 X8.8255 Y-0.6225
N845 X8.8329 Y-0.6389
N850 X8.8363 Y-0.6471
N855 X8.8444 Y-0.6675
N860 X8.8526 Y-0.6937
N865 X8.8608 Y-0.7244
N870 X8.862 Y-0.7292
N875 X8.8654 Y-0.7456
N880 X8.8691 Y-0.7702
N885 X8.8701 Y-0.7784
N890 X8.872 Y-0.7949
N895 X8.8726 Y-0.8031
N900 X8.8734 Y-0.8195
N905 X8.8738 Y-0.8277
N910 X8.8742 Y-0.8441
N915 X8.8744 Y-0.8523
N920 Y-1.0903
N925 X8.874 Y-1.0985
N930 X8.8723 Y-1.1149
N935 X8.8707 Y-1.1231
N940 X8.8663 Y-1.1395
N945 X8.8634 Y-1.1477
N950 X8.8594 Y-1.1559
N955 X8.8554 Y-1.1641
N960 X8.8526 Y-1.1687
N965 X8.8503 Y-1.1723
N970 X8.8443 Y-1.1817
N975 X8.8363 Y-1.1969
N980 X8.8278 Y-1.2166
N985 X8.819 Y-1.2429
N990 X8.8102 Y-1.278
N995 X8.8041 Y-1.3136
N1000 X8.7999 Y-1.3496
N1005 X8.7969 Y-1.3856
N1010 X8.7949 Y-1.4218
N1015 X8.7934 Y-1.4579
N1020 X8.7924 Y-1.4941
N1025 X8.7917 Y-1.5303
N1030 X8.7912 Y-1.5664
N1035 X8.7908 Y-1.6026
N1040 X8.7906 Y-1.6388
N1045 X8.7904 Y-1.675
N1050 X8.7902 Y-1.7473
N1055 X8.7883 Y-1.7653
N1060 X8.7775 Y-1.7999
N1065 X8.7562 Y-1.8291
N1070 X8.7286 Y-1.8525
N1075 X8.6973 Y-1.8707
N1080 X8.6639 Y-1.8845
N1085 X8.6293 Y-1.895
N1090 X8.5939 Y-1.9028
N1095 X8.5582 Y-1.9086
N1100 X8.5223 Y-1.9129
N1105 X8.4862 Y-1.916
N1110 X8.4501 Y-1.9184
N1115 X8.414 Y-1.9201
N1120 X8.3778 Y-1.9213
N1125 X8.3417 Y-1.9222
N1130 X8.3055 Y-1.9229
N1135 X8.2693 Y-1.9234
N1140 X8.2331 Y-1.9237
N1145 X8.1969 Y-1.924
N1150 X8.1608 Y-1.9242
N1155 X8.0884 Y-1.9244
N1160 X7.9799 Y-1.9246
N1165 X7.8713 Y-1.9247
N1170 X7.8351 Y-1.9255
N1175 X7.8107 Y-1.928
N1180 X7.7907 Y-1.9317
N1185 X7.7819 Y-1.934
N1190 X7.7696 Y-1.9389
N1195 X7.7587 Y-1.9464
N1200 X7.7498 Y-1.9561
N1205 X7.7433 Y-1.9676
N1210 X7.7396 Y-1.9803
N1215 X7.7388 Y-1.9935
N1220 G3 X7.7576 Y-2.0155 I0.0249 J0.0022
N1225 G1 X7.7614 Y-2.0165 Z-0.2997
N1230 X7.7651 Y-2.0174 Z-0.2988
N1235 X7.7686 Y-2.0183 Z-0.2973
N1240 X7.7718 Y-2.0191 Z-0.2952
N1245 X7.7747 Y-2.0198 Z-0.2927
N1250 X7.7772 Y-2.0204 Z-0.2897
N1255 X7.7792 Y-2.0209 Z-0.2863
N1260 X7.7806 Y-2.0213 Z-0.2827
N1265 X7.7815 Y-2.0215 Z-0.2789
N1270 X7.7818 Y-2.0216 Z-0.275
N1275 Z0.6
N1280 X8.8976 Y-1.1433
N1285 Z-0.25
N1290 Z-0.275
N1295 X8.8973 Y-1.1434 Z-0.2789
N1300 X8.8965 Y-1.1438 Z-0.2827
N1305 X8.8951 Y-1.1444 Z-0.2863
N1310 X8.8932 Y-1.1452 Z-0.2897
N1315 X8.8909 Y-1.1462 Z-0.2927
N1320 X8.8881 Y-1.1474 Z-0.2952
N1325 X8.8851 Y-1.1488 Z-0.2973
N1330 X8.8817 Y-1.1502 Z-0.2988
N1335 X8.8782 Y-1.1517 Z-0.2997
N1340 X8.8747 Y-1.1533 Z-0.3
N1345 G3 X8.8503 Y-1.1723 I0.0249 J-0.0571
N1350 G1 X8.8444 Y-1.1805
N1355 X8.8377 Y-1.1887
N1360 X8.8279 Y-1.1988
N1365 X8.8197 Y-1.2057
N1370 X8.8115 Y-1.2118
N1375 X8.8033 Y-1.2167
N1380 X8.7954 Y-1.2219
N1385 X8.7881 Y-1.2276
N1390 X8.7806 Y-1.2345
N1395 X8.7724 Y-1.2433
N1400 X8.7637 Y-1.2544
N1405 X8.7546 Y-1.268
N1410 X8.745 Y-1.2853
N1415 X8.7351 Y-1.3072
N1420 X8.725 Y-1.3353
N1425 X8.7155 Y-1.3702
N1430 X8.7086 Y-1.4057
N1435 X8.7036 Y-1.4416
N1440 X8.6999 Y-1.4776
N1445 X8.6972 Y-1.5136
N1450 X8.6952 Y-1.5498
N1455 X8.6938 Y-1.5859
N1460 X8.6928 Y-1.6221
N1465 X8.6916 Y-1.6583
N1470 X8.6792 Y-1.6923
N1475 X8.6579 Y-1.7215
N1480 X8.6306 Y-1.7453
N1485 X8.5998 Y-1.7643
N1490 X8.5668 Y-1.779
N1495 X8.5324 Y-1.7903
N1500 X8.4973 Y-1.7989
N1505 X8.4617 Y-1.8054
N1510 X8.4258 Y-1.8103
N1515 X8.3898 Y-1.814
N1520 X8.3537 Y-1.8168
N1525 X8.3176 Y-1.8188
N1530 X8.2815 Y-1.8203
N1535 X8.2453 Y-1.8215
N1540 X8.2091 Y-1.8223
N1545 X8.173 Y-1.8229
N1550 X8.1368 Y-1.8234
N1555 X8.1006 Y-1.8237
N1560 X8.0644 Y-1.824
N1565 X8.0282 Y-1.8242
N1570 X7.9559 Y-1.8245
N1575 X7.9197 Y-1.8248
N1580 X7.8835 Y-1.826
N1585 X7.8475 Y-1.8288
N1590 X7.8219 Y-1.8328
N1595 X7.8007 Y-1.8379
N1600 X7.784 Y-1.8434
N1605 X7.7679 Y-1.8501
N1610 X7.7549 Y-1.8568
N1615 X7.7469 Y-1.8618
N1620 X7.7378 Y-1.8688
N1625 X7.7302 Y-1.8775
N1630 X7.7245 Y-1.8876
N1635 X7.7209 Y-1.8985
N1640 X7.7195 Y-1.91
N1645 X7.7203 Y-1.9215
N1650 X7.7235 Y-1.9326
N1655 X7.7278 Y-1.9437
N1660 X7.7307 Y-1.9519
N1665 X7.733 Y-1.9601
N1670 G3 X7.7561 Y-1.9775 I0.0238 J0.0076
N1675 G1 X7.7601 Y-1.9776 Z-0.2997
N1680 X7.7639 Y-1.9777 Z-0.2988
N1685 X7.7675 Y-1.9778 Z-0.2973
N1690 X7.7708 Y-1.9779 Z-0.2952
N1695 X7.7738 Y-1.978 Z-0.2927
N1700 X7.7764 Y-1.9781 Z-0.2897
N1705 X7.7784 Z-0.2863
N1710 X7.7799 Y-1.9782 Z-0.2827
N1715 X7.7808 Z-0.2789
N1720 X7.7811 Z-0.275
N1725 Z0.6
N1730 X8.8583 Y-1.2092
N1735 Z-0.25
N1740 Z-0.275
N1745 X8.858 Z-0.2789
N1750 X8.8571 Z-0.2827
N1755 X8.8556 Z-0.2863
N1760 X8.8535 Z-0.2897
N1765 X8.851 Z-0.2927
N1770 X8.848 Z-0.2952
N1775 X8.8446 Z-0.2973
N1780 X8.841 Y-1.2091 Z-0.2988
N1785 X8.8372 Z-0.2997
N1790 X8.8333 Z-0.3
N1795 G3 X8.8033 Y-1.2167 I-0.0002 J-0.0623
N1800 G1 X8.795 Y-1.2216
N1805 X8.7869 Y-1.2251
N1810 X8.7704 Y-1.2314
N1815 X8.7622 Y-1.2336
N1820 X8.754 Y-1.2353
N1825 X8.7481 Y-1.2364
N1830 X8.7414 Y-1.2386
N1835 X8.7345 Y-1.2414
N1840 X8.7266 Y-1.2454
N1845 X8.718 Y-1.2507
N1850 X8.7093 Y-1.2571
N1855 X8.6994 Y-1.2656
N1860 X8.6894 Y-1.2757
N1865 X8.679 Y-1.2881
N1870 X8.668 Y-1.3034
N1875 X8.6568 Y-1.3223
N1880 X8.6455 Y-1.3452
N1885 X8.6338 Y-1.3746
N1890 X8.6232 Y-1.4092
N1895 X8.6151 Y-1.4445
N1900 X8.609 Y-1.4801
N1905 X8.6043 Y-1.516
N1910 X8.6004 Y-1.552
N1915 X8.5874 Y-1.5857
N1920 X8.5663 Y-1.6151
N1925 X8.5395 Y-1.6394
N1930 X8.509 Y-1.659
N1935 X8.4763 Y-1.6744
N1940 X8.4422 Y-1.6864
N1945 X8.4072 Y-1.6957
N1950 X8.3717 Y-1.7028
N1955 X8.3359 Y-1.7082
N1960 X8.3 Y-1.7123
N1965 X8.264 Y-1.7154
N1970 X8.2278 Y-1.7177
N1975 X8.1917 Y-1.7195
N1980 X8.1555 Y-1.7208
N1985 X8.1194 Y-1.7218
N1990 X8.0832 Y-1.7225
N1995 X8.047 Y-1.7231
N2000 X8.0108 Y-1.7236
N2005 X7.9747 Y-1.7242
N2010 X7.9385 Y-1.7254
N2015 X7.9024 Y-1.7274
N2020 X7.8664 Y-1.731
N2025 X7.8307 Y-1.7368
N2030 X7.7999 Y-1.7443
N2035 X7.7755 Y-1.7524
N2040 X7.7568 Y-1.7603
N2045 X7.7403 Y-1.7689
N2050 X7.7262 Y-1.7777
N2055 X7.7141 Y-1.7867
N2060 X7.7126 Y-1.788
N2065 X7.7041 Y-1.7974
N2070 X7.6978 Y-1.8083
N2075 X7.6939 Y-1.8204
N2080 X7.6928 Y-1.833
N2085 X7.6944 Y-1.8455
N2090 X7.6983 Y-1.8616
N2095 X7.7006 Y-1.8698
N2100 X7.7085 Y-1.8945
N2105 X7.7235 Y-1.9326
N2110 G3 X7.7483 Y-1.9476 I0.0229 J0.0099
N2115 G1 X7.7522 Y-1.9473 Z-0.2997
N2120 X7.756 Y-1.947 Z-0.2988
N2125 X7.7596 Y-1.9467 Z-0.2973
N2130 X7.7629 Y-1.9465 Z-0.2952
N2135 X7.7659 Y-1.9463 Z-0.2927
N2140 X7.7685 Y-1.9461 Z-0.2897
N2145 X7.7705 Y-1.9459 Z-0.2863
N2150 X7.772 Y-1.9458 Z-0.2827
N2155 X7.7729 Y-1.9457 Z-0.2789
N2160 X7.7732 Z-0.275
N2165 Z0.6
N2170 X8.8077 Y-1.2491
N2175 Z-0.25
N2180 Z-0.275
N2185 X8.8074 Y-1.249 Z-0.2789
N2190 X8.8066 Y-1.2487 Z-0.2827
N2195 X8.8052 Y-1.2481 Z-0.2863
N2200 X8.8033 Y-1.2473 Z-0.2897
N2205 X8.8009 Y-1.2463 Z-0.2927
N2210 X8.7982 Y-1.2452 Z-0.2952
N2215 X8.7951 Y-1.2439 Z-0.2973
N2220 X8.7917 Y-1.2425 Z-0.2988
N2225 X8.7882 Y-1.2411 Z-0.2997
N2230 X8.7846 Y-1.2396 Z-0.3
N2235 G3 X8.754 Y-1.2353 I-0.0238 J-0.0576
N2240 G1 X8.7458 Y-1.2365
N2245 X8.7211 Y-1.2375
N2250 X8.6965
N2255 X8.6905 Y-1.2378
N2260 X8.6835 Y-1.2389
N2265 X8.6757 Y-1.2407
N2270 X8.6671 Y-1.2435
N2275 X8.6581 Y-1.2473
N2280 X8.6479 Y-1.2525
N2285 X8.6379 Y-1.2587
N2290 X8.6264 Y-1.2672
N2295 X8.6151 Y-1.277
N2300 X8.6028 Y-1.2896
N2305 X8.5903 Y-1.3045
N2310 X8.5773 Y-1.323
N2315 X8.5645 Y-1.3446
N2320 X8.5513 Y-1.3718
N2325 X8.5381 Y-1.4055
N2330 X8.5276 Y-1.4401
N2335 X8.5137 Y-1.4735
N2340 X8.4932 Y-1.5033
N2345 X8.4674 Y-1.5287
N2350 X8.4379 Y-1.5496
N2355 X8.4059 Y-1.5664
N2360 X8.3722 Y-1.5798
N2365 X8.3376 Y-1.5902
N2370 X8.3023 Y-1.5983
N2375 X8.2667 Y-1.6046
N2380 X8.2308 Y-1.6094
N2385 X8.1948 Y-1.6131
N2390 X8.1588 Y-1.6159
N2395 X8.1227 Y-1.6181
N2400 X8.0865 Y-1.6197
N2405 X8.0142 Y-1.6225
N2410 X7.9781 Y-1.6241
N2415 X7.9419 Y-1.6263
N2420 X7.9059 Y-1.6295
N2425 X7.87 Y-1.6341
N2430 X7.8344 Y-1.6404
N2435 X7.7992 Y-1.6488
N2440 X7.7679 Y-1.6588
N2445 X7.7417 Y-1.6696
N2450 X7.7212 Y-1.68
N2455 X7.7117 Y-1.6858
N2460 X7.7026 Y-1.6927
N2465 X7.6951 Y-1.7012
N2470 X7.6893 Y-1.711
N2475 X7.6856 Y-1.7217
N2480 X7.6839 Y-1.7329
N2485 X7.6833 Y-1.7467
N2490 X7.6834 Y-1.755
N2495 X7.6841 Y-1.7714
N2500 X7.6845 Y-1.7796
N2505 X7.6869 Y-1.8042
N2510 X7.688 Y-1.8124
N2515 X7.6924 Y-1.837
N2520 X7.6944 Y-1.8455
N2525 G3 X7.717 Y-1.8638 I0.0241 J0.0067
N2530 G1 X7.7209 Y-1.864 Z-0.2997
N2535 X7.7247 Y-1.8642 Z-0.2988
N2540 X7.7283 Y-1.8645 Z-0.2973
N2545 X7.7316 Y-1.8647 Z-0.2952
N2550 X7.7346 Y-1.8649 Z-0.2927
N2555 X7.7372 Y-1.865 Z-0.2897
N2560 X7.7392 Y-1.8651 Z-0.2863
N2565 X7.7407 Y-1.8652 Z-0.2827
N2570 X7.7416 Y-1.8653 Z-0.2789
N2575 X7.7419 Z-0.275
N2580 Z0.6
N2585 X8.7476 Y-1.259
N2590 Z-0.25
N2595 Z-0.275
N2600 X8.7474 Y-1.2588 Z-0.2789
N2605 X8.7466 Y-1.2584 Z-0.2827
N2610 X8.7453 Y-1.2576 Z-0.2863
N2615 X8.7435 Y-1.2565 Z-0.2897
N2620 X8.7413 Y-1.2552 Z-0.2927
N2625 X8.7388 Y-1.2537 Z-0.2952
N2630 X8.7359 Y-1.252 Z-0.2973
N2635 X8.7328 Y-1.2502 Z-0.2988
N2640 X8.7295 Y-1.2482 Z-0.2997
N2645 X8.7261 Y-1.2462 Z-0.3
N2650 G3 X8.6965 Y-1.2375 I-0.0318 J-0.0536
N2655 G1 X8.6225
N2660 X8.6154 Y-1.2379
N2665 X8.6079 Y-1.2388
N2670 X8.599 Y-1.2407
N2675 X8.5898 Y-1.2435
N2680 X8.5795 Y-1.2475
N2685 X8.5687 Y-1.2528
N2690 X8.5572 Y-1.2595
N2695 X8.5447 Y-1.2683
N2700 X8.5321 Y-1.2787
N2705 X8.5181 Y-1.2924
N2710 X8.5047 Y-1.3078
N2715 X8.4832 Y-1.3369
N2720 X8.4632 Y-1.367
N2725 X8.4403 Y-1.395
N2730 X8.4139 Y-1.4198
N2735 X8.3844 Y-1.4408
N2740 X8.3527 Y-1.4582
N2745 X8.3195 Y-1.4725
N2750 X8.2851 Y-1.4839
N2755 X8.2501 Y-1.493
N2760 X8.2147 Y-1.5001
N2765 X8.1789 Y-1.5057
N2770 X8.143 Y-1.5102
N2775 X8.107 Y-1.5137
N2780 X8.0709 Y-1.5167
N2785 X7.9988 Y-1.522
N2790 X7.9627 Y-1.5251
N2795 X7.9267 Y-1.5288
N2800 X7.8908 Y-1.5334
N2805 X7.8551 Y-1.5392
N2810 X7.8197 Y-1.5466
N2815 X7.7847 Y-1.5558
N2820 X7.7516 Y-1.5668
N2825 X7.7409 Y-1.5713
N2830 X7.7302 Y-1.5773
N2835 X7.7209 Y-1.5854
N2840 X7.7135 Y-1.5952
N2845 X7.7084 Y-1.6063
N2850 X7.6998 Y-1.6319
N2855 X7.6977 Y-1.6401
N2860 X7.6938 Y-1.6571
N2865 X7.6922 Y-1.6647
N2870 X7.6876 Y-1.6893
N2875 X7.6866 Y-1.6975
N2880 X7.6851 Y-1.7139
N2885 X7.6844 Y-1.7221
N2890 X7.6839 Y-1.7329
N2895 G3 X7.7005 Y-1.7567 I0.025 J-0.0002
N2900 G1 X7.7042 Y-1.758 Z-0.2997
N2905 X7.7078 Y-1.7593 Z-0.2988
N2910 X7.7112 Y-1.7605 Z-0.2973
N2915 X7.7143 Y-1.7617 Z-0.2952
N2920 X7.7172 Y-1.7627 Z-0.2927
N2925 X7.7195 Y-1.7635 Z-0.2897
N2930 X7.7215 Y-1.7642 Z-0.2863
N2935 X7.7229 Y-1.7647 Z-0.2827
N2940 X7.7238 Y-1.765 Z-0.2789
N2945 X7.724 Y-1.7651 Z-0.275
N2950 Z0.6
N2955 X8.6737 Y-1.259
N2960 Z-0.25
N2965 Z-0.275
N2970 X8.6734 Y-1.2588 Z-0.2789
N2975 X8.6726 Y-1.2584 Z-0.2827
N2980 X8.6713 Y-1.2576 Z-0.2863
N2985 X8.6695 Y-1.2565 Z-0.2897
N2990 X8.6674 Y-1.2552 Z-0.2927
N2995 X8.6648 Y-1.2537 Z-0.2952
N3000 X8.6619 Y-1.252 Z-0.2973
N3005 X8.6588 Y-1.2502 Z-0.2988
N3010 X8.6555 Y-1.2482 Z-0.2997
N3015 X8.6522 Y-1.2462 Z-0.3
N3020 G3 X8.6225 Y-1.2375 I-0.0318 J-0.0536
N3025 G1 X8.5403
N3030 X8.5323 Y-1.2379
N3035 X8.5243 Y-1.239
N3040 X8.5149 Y-1.241
N3045 X8.5038 Y-1.2443
N3050 X8.4921 Y-1.2488
N3055 X8.4776 Y-1.2559
N3060 X8.4497 Y-1.2723
N3065 X8.4201 Y-1.2931
N3070 X8.3903 Y-1.3136
N3075 X8.3594 Y-1.3325
N3080 X8.3273 Y-1.3491
N3085 X8.2941 Y-1.3634
N3090 X8.26 Y-1.3755
N3095 X8.2252 Y-1.3854
N3100 X8.1899 Y-1.3936
N3105 X8.1544 Y-1.4003
N3110 X8.1186 Y-1.4059
N3115 X8.0827 Y-1.4106
N3120 X8.0468 Y-1.4148
N3125 X8.0109 Y-1.4188
N3130 X7.9749 Y-1.423
N3135 X7.939 Y-1.4274
N3140 X7.9032 Y-1.4326
N3145 X7.8675 Y-1.4386
N3150 X7.832 Y-1.4457
N3155 X7.8163 Y-1.4495
N3160 X7.8069 Y-1.4526
N3165 X7.7981 Y-1.4572
N3170 X7.7903 Y-1.4633
N3175 X7.7836 Y-1.4706
N3180 X7.7733 Y-1.4842
N3185 X7.7675 Y-1.4924
N3190 X7.7509 Y-1.517
N3195 X7.7457 Y-1.5252
N3200 X7.7432 Y-1.5294
N3205 X7.741 Y-1.5334
N3210 X7.7206 Y-1.5744
N3215 X7.7185 Y-1.5791
N3220 X7.7137 Y-1.5908
N3225 X7.7103 Y-1.6008
N3230 X7.7084 Y-1.6063
N3235 G3 X7.7177 Y-1.6338 I0.0239 J-0.0072
N3240 G1 X7.7209 Y-1.6361 Z-0.2997
N3245 X7.724 Y-1.6383 Z-0.2988
N3250 X7.7269 Y-1.6404 Z-0.2973
N3255 X7.7296 Y-1.6424 Z-0.2952
N3260 X7.7321 Y-1.6441 Z-0.2927
N3265 X7.7341 Y-1.6456 Z-0.2897
N3270 X7.7358 Y-1.6468 Z-0.2863
N3275 X7.737 Y-1.6477 Z-0.2827
N3280 X7.7377 Y-1.6483 Z-0.2789
N3285 X7.738 Y-1.6484 Z-0.275
N3290 Z0.6
N3295 X8.5915 Y-1.259
N3300 Z-0.25
N3305 Z-0.275
N3310 X8.5912 Y-1.2588 Z-0.2789
N3315 X8.5904 Y-1.2584 Z-0.2827
N3320 X8.5891 Y-1.2576 Z-0.2863
N3325 X8.5874 Y-1.2565 Z-0.2897
N3330 X8.5852 Y-1.2552 Z-0.2927
N3335 X8.5826 Y-1.2537 Z-0.2952
N3340 X8.5797 Y-1.252 Z-0.2973
N3345 X8.5766 Y-1.2502 Z-0.2988
N3350 X8.5733 Y-1.2482 Z-0.2997
N3355 X8.57 Y-1.2462 Z-0.3
N3360 G3 X8.5403 Y-1.2375 I-0.0318 J-0.0536
N3365 G1 X8.4335
N3370 X8.4106 Y-1.2386
N3375 X8.3811 Y-1.2425
N3380 X8.3457 Y-1.2501
N3385 X8.3107 Y-1.2592
N3390 X8.2757 Y-1.2684
N3395 X8.2406 Y-1.2771
N3400 X8.2053 Y-1.2851
N3405 X8.1699 Y-1.2923
N3410 X8.1342 Y-1.2986
N3415 X8.0985 Y-1.3043
N3420 X8.0627 Y-1.3096
N3425 X7.991 Y-1.3195
N3430 X7.9679 Y-1.3228
N3435 X7.9613 Y-1.3241
N3440 X7.9549 Y-1.3262
N3445 X7.9487 Y-1.329
N3450 X7.9404 Y-1.3337
N3455 X7.9234 Y-1.3447
N3460 X7.9157 Y-1.3497
N3465 X7.8875 Y-1.3693
N3470 X7.8829 Y-1.3728
N3475 X7.8769 Y-1.3775
N3480 X7.8573 Y-1.3939
N3485 X7.848 Y-1.4021
N3490 X7.839 Y-1.4103
N3495 X7.83 Y-1.4185
N3500 X7.8253 Y-1.4232
N3505 X7.8171 Y-1.4316
N3510 X7.8141 Y-1.4349
N3515 X7.7924 Y-1.4595
N3520 X7.7859 Y-1.4677
N3525 X7.7836 Y-1.4706
N3530 G3 Y-1.4996 I0.0203 J-0.0145
N3535 G1 X7.7859 Y-1.5028 Z-0.2997
N3540 X7.7881 Y-1.5059 Z-0.2988
N3545 X7.7902 Y-1.5089 Z-0.2973
N3550 X7.7921 Y-1.5116 Z-0.2952
N3555 X7.7938 Y-1.5141 Z-0.2927
N3560 X7.7953 Y-1.5161 Z-0.2897
N3565 X7.7965 Y-1.5178 Z-0.2863
N3570 X7.7973 Y-1.519 Z-0.2827
N3575 X7.7979 Y-1.5198 Z-0.2789
N3580 X7.798 Y-1.52 Z-0.275
N3585 Z0.6
N3590 X8.4846 Y-1.259
N3595 Z-0.25
N3600 Z-0.275
N3605 X8.4844 Y-1.2588 Z-0.2789
N3610 X8.4836 Y-1.2584 Z-0.2827
N3615 X8.4823 Y-1.2576 Z-0.2863
N3620 X8.4805 Y-1.2565 Z-0.2897
N3625 X8.4783 Y-1.2552 Z-0.2927
N3630 X8.4758 Y-1.2537 Z-0.2952
N3635 X8.4729 Y-1.252 Z-0.2973
N3640 X8.4698 Y-1.2502 Z-0.2988
N3645 X8.4665 Y-1.2482 Z-0.2997
N3650 X8.4631 Y-1.2462 Z-0.3
N3655 G3 X8.4335 Y-1.2375 I-0.0318 J-0.0536
N3660 G1 X8.3184
N3665 X8.3102
N3670 X8.2856 Y-1.2383
N3675 X8.2773 Y-1.2387
N3680 X8.228 Y-1.2413
N3685 X8.2198 Y-1.2423
N3690 X8.2034 Y-1.2445
N3695 X8.1952 Y-1.2457
N3700 X8.1705 Y-1.2496
N3705 X8.144 Y-1.2544
N3710 X8.1376 Y-1.2559
N3715 X8.1118 Y-1.2626
N3720 X8.0883 Y-1.269
N3725 X8.0824 Y-1.2708
N3730 X8.0575 Y-1.279
N3735 X8.0554 Y-1.2797
N3740 X8.0308 Y-1.2895
N3745 X8.0061 Y-1.2995
N3750 X7.9979 Y-1.3031
N3755 X7.9733 Y-1.316
N3760 X7.9487 Y-1.329
N3765 G3 X7.9367 Y-1.3554 I0.0125 J-0.0216
N3770 G1 X7.9374 Y-1.3592 Z-0.2997
N3775 X7.9381 Y-1.363 Z-0.2988
N3780 X7.9388 Y-1.3665 Z-0.2973
N3785 X7.9395 Y-1.3698 Z-0.2952
N3790 X7.94 Y-1.3727 Z-0.2927
N3795 X7.9405 Y-1.3753 Z-0.2897
N3800 X7.9409 Y-1.3773 Z-0.2863
N3805 X7.9412 Y-1.3787 Z-0.2827
N3810 X7.9414 Y-1.3796 Z-0.2789
N3815 Y-1.3799 Z-0.275
N3820 Z0.6
N3825 X7.9298 Y0.0289
N3830 Z-0.25
N3835 Z-0.275
N3840 X7.9299 Y0.0286 Z-0.2789
N3845 X7.9304 Y0.0278 Z-0.2827
N3850 X7.9311 Y0.0265 Z-0.2863
N3855 X7.9321 Y0.0247 Z-0.2897
N3860 X7.9334 Y0.0225 Z-0.2927
N3865 X7.9348 Y0.0199 Z-0.2952
N3870 X7.9365 Y0.017 Z-0.2973
N3875 X7.9382 Y0.0138 Z-0.2988
N3880 X7.9401 Y0.0105 Z-0.2997
N3885 X7.942 Y0.0071 Z-0.3
N3890 G3 X7.9633 Y-0.0153 I0.0544 J0.0305
N3895 G1 X8.1339 Y-0.1138
N3900 X8.1594 Y-0.1268
N3905 X8.182 Y-0.1362
N3910 X8.212 Y-0.1459
N3915 X8.2472 Y-0.1542
N3920 X8.2829 Y-0.1602
N3925 X8.3188 Y-0.1645
N3930 X8.3549 Y-0.1676
N3935 X8.391 Y-0.1698
N3940 X8.4271 Y-0.1714
N3945 X8.4633 Y-0.1726
N3950 X8.4995 Y-0.1734
N3955 X8.5354 Y-0.1779
N3960 X8.568 Y-0.1935
N3965 X8.5955 Y-0.217
N3970 X8.6177 Y-0.2456
N3975 X8.6351 Y-0.2773
N3980 X8.6486 Y-0.3108
N3985 X8.659 Y-0.3455
N3990 X8.6668 Y-0.3808
N3995 X8.6718 Y-0.411
N4000 X8.6744 Y-0.4209
N4005 X8.6787 Y-0.4303
N4010 X8.6845 Y-0.4388
N4015 X8.6918 Y-0.4461
N4020 X8.6967 Y-0.4502
N4025 X8.7047 Y-0.4572
N4030 X8.7059 Y-0.4584
N4035 X8.7306 Y-0.483
N4040 X8.7384 Y-0.4912
N4045 X8.7459 Y-0.4994
N4050 X8.754 Y-0.5089
N4055 X8.7595 Y-0.5158
N4060 X8.7722 Y-0.5323
N4065 X8.7782 Y-0.5405
N4070 X8.7837 Y-0.5487
N4075 X8.789 Y-0.5569
N4080 X8.7942 Y-0.5651
N4085 X8.7964 Y-0.5686
N4090 G3 X8.8234 Y-0.5792 I0.0209 J0.0137
N4095 G1 X8.8272 Y-0.5782 Z-0.2997
N4100 X8.8309 Y-0.5773 Z-0.2988
N4105 X8.8344 Y-0.5764 Z-0.2973
N4110 X8.8376 Y-0.5756 Z-0.2952
N4115 X8.8405 Y-0.5749 Z-0.2927
N4120 X8.843 Y-0.5743 Z-0.2897
N4125 X8.845 Y-0.5738 Z-0.2863
N4130 X8.8465 Y-0.5734 Z-0.2827
N4135 X8.8473 Y-0.5732 Z-0.2789
N4140 X8.8476 Y-0.5731 Z-0.275
N4145 Z0.6
N4150 X8.1003 Y-0.0696
N4155 Z-0.25
N4160 Z-0.275
N4165 X8.1005 Y-0.0698 Z-0.2789
N4170 X8.1009 Y-0.0706 Z-0.2827
N4175 X8.1017 Y-0.0719 Z-0.2863
N4180 X8.1027 Y-0.0737 Z-0.2897
N4185 X8.1039 Y-0.076 Z-0.2927
N4190 X8.1054 Y-0.0786 Z-0.2952
N4195 X8.107 Y-0.0815 Z-0.2973
N4200 X8.1088 Y-0.0846 Z-0.2988
N4205 X8.1107 Y-0.088 Z-0.2997
N4210 X8.1126 Y-0.0914 Z-0.3
N4215 G3 X8.1339 Y-0.1138 I0.0544 J0.0305
N4220 G1 X8.3102 Y-0.2155
N4225 X8.332 Y-0.2267
N4230 X8.3546 Y-0.2361
N4235 X8.3891 Y-0.2472
N4240 X8.4242 Y-0.2561
N4245 X8.4566 Y-0.2721
N4250 X8.4846 Y-0.295
N4255 X8.5078 Y-0.3228
N4260 X8.5126 Y-0.3293
N4265 X8.5184 Y-0.335
N4270 X8.5251 Y-0.3396
N4275 G3 X8.5589 Y-0.3293 Z-0.292 I0.0117 J0.0221
N4280 X8.5493 Y-0.2959 I-0.0221 J0.0118
N4285 G1 X8.336 Y-0.1727
N4290 G3 X8.3022 Y-0.1811 I-0.0125 J-0.0217
N4295 X8.3102 Y-0.2155 Z-0.3 I0.0212 J-0.0132
N4300 G1 X8.5978 Y-0.3816
N4305 X8.6061 Y-0.3865
N4310 X8.6225 Y-0.3964
N4315 X8.6307 Y-0.4015
N4320 X8.6471 Y-0.4122
N4325 X8.6548 Y-0.4174
N4330 X8.68 Y-0.4365
N4335 X8.6882 Y-0.4431
N4340 X8.6918 Y-0.4461
N4345 G3 X8.7207 Y-0.4474 I0.0154 J0.0197
N4350 G1 X8.724 Y-0.4453 Z-0.2997
N4355 X8.7272 Y-0.4432 Z-0.2988
N4360 X8.7303 Y-0.4413 Z-0.2973
N4365 X8.7331 Y-0.4395 Z-0.2952
N4370 X8.7356 Y-0.4378 Z-0.2927
N4375 X8.7378 Y-0.4365 Z-0.2897
N4380 X8.7395 Y-0.4354 Z-0.2863
N4385 X8.7407 Y-0.4345 Z-0.2827
N4390 X8.7415 Y-0.434 Z-0.2789
N4395 X8.7418 Y-0.4339 Z-0.275
N4400 Z0.6
N4405 X-0.697 Y-2.2284
N4410 Z-0.25
N4415 Z-0.275
N4420 X-0.6972 Y-2.2281 Z-0.2789
N4425 X-0.6979 Y-2.2275 Z-0.2827
N4430 X-0.6989 Y-2.2264 Z-0.2863
N4435 X-0.7004 Y-2.225 Z-0.2897
N4440 X-0.7022 Y-2.2232 Z-0.2927
N4445 X-0.7043 Y-2.2211 Z-0.2952
N4450 X-0.7067 Y-2.2188 Z-0.2973
N4455 X-0.7093 Y-2.2162 Z-0.2988
N4460 X-0.712 Y-2.2135 Z-0.2997
N4465 X-0.7148 Y-2.2108 Z-0.3
N4470 G3 X-0.8225 Y-2.1254 I-0.4482 J-0.4544
N4475 G1 X-0.8284 Y-2.1219
N4480 X-0.8367 Y-2.116
N4485 X-0.8448 Y-2.1094
N4490 X-0.853 Y-2.1019
N4495 X-0.8552 Y-2.0996
N4500 X-0.8594 Y-2.0953
N4505 X-0.868 Y-2.0885
N4510 X-0.879 Y-2.0812
N4515 X-0.8932 Y-2.0733
N4520 X-0.9116 Y-2.0649
N4525 X-0.9359 Y-2.0561
N4530 X-0.9694 Y-2.047
N4535 X-1.005 Y-2.0403
N4540 X-1.0409 Y-2.0356
N4545 X-1.0769 Y-2.0324
N4550 X-1.113 Y-2.0301
N4555 X-1.1492 Y-2.0285
N4560 X-1.1853 Y-2.0274
N4565 X-1.2215 Y-2.0266
N4570 X-1.2577 Y-2.026
N4575 X-1.2939 Y-2.0256
N4580 X-1.33 Y-2.0254
N4585 X-1.3662 Y-2.0252
N4590 X-1.4024 Y-2.025
N4595 X-1.4748 Y-2.0248
N4600 X-1.5833 Y-2.0247
N4605 X-1.9089 Y-2.0246
N4610 X-2.8135 Y-2.0243
N4615 X-3.0125
N4620 X-3.0215 Y-2.0239
N4625 X-3.0393 Y-2.0202
N4630 X-3.0708 Y-2.0025
N4635 X-3.0949 Y-1.9755
N4640 X-3.1127 Y-1.944
N4645 X-3.1258 Y-1.9103
N4650 X-3.1353 Y-1.8753
N4655 X-3.142 Y-1.8398
N4660 X-3.1469 Y-1.8039
N4665 X-3.1503 Y-1.7679
N4670 X-3.1528 Y-1.7318
N4675 X-3.1545 Y-1.6957
N4680 X-3.1557 Y-1.6595
N4685 X-3.1566 Y-1.6234
N4690 X-3.1572 Y-1.5872
N4695 X-3.1576 Y-1.551
N4700 X-3.1579 Y-1.5148
N4705 X-3.1581 Y-1.4786
N4710 X-3.1583 Y-1.4425
N4715 X-3.1585 Y-1.3701
N4720 X-3.1586 Y-1.2615
N4725 Y-0.9721
N4730 Y-0.2846
N4735 Y-0.1218
N4740 X-3.1582 Y-0.1128
N4745 X-3.1545 Y-0.0951
N4750 X-3.1368 Y-0.0635
N4755 X-3.1098 Y-0.0394
N4760 X-3.0783 Y-0.0215
N4765 X-3.0446 Y-0.0085
N4770 X-3.0097 Y0.001
N4775 X-2.9741 Y0.0078
N4780 X-2.9383 Y0.0127
N4785 X-2.9023 Y0.0161
N4790 X-2.8662 Y0.0186
N4795 X-2.83 Y0.0203
N4800 X-2.7939 Y0.0216
N4805 X-2.7577 Y0.0224
N4810 X-2.7215 Y0.0231
N4815 X-2.6853 Y0.0235
N4820 X-2.6492 Y0.0238
N4825 X-2.613 Y0.0241
N4830 X-2.5768 Y0.0242
N4835 X-2.5044 Y0.0244
N4840 X-2.3959 Y0.0246
N4845 X-2.1782 Y0.0247
N4850 X-2.1681 Y0.0256
N4855 X-2.1583 Y0.0283
N4860 X-2.1491 Y0.0326
N4865 X-2.0756 Y0.075
N4870 X-2.0611 Y0.0824
N4875 X-2.0067 Y0.1078
N4880 X-2.0035 Y0.1092
N4885 X-1.9953 Y0.1126
N4890 X-1.9789 Y0.1176
N4895 X-1.9744 Y0.119
N4900 G3 X-1.9575 Y0.1426 I-0.0082 J0.0236
N4905 G1 Y0.1465 Z-0.2997
N4910 Y0.1503 Z-0.2988
N4915 Y0.154 Z-0.2973
N4920 Y0.1573 Z-0.2952
N4925 Y0.1603 Z-0.2927
N4930 Y0.1628 Z-0.2897
N4935 Y0.1649 Z-0.2863
N4940 Y0.1664 Z-0.2827
N4945 Y0.1673 Z-0.2789
N4950 Y0.1676 Z-0.275
N4955 Z0.6
N4960 X-0.8376 Y-2.1522
N4965 Z-0.25
N4970 Z-0.275
N4975 X-0.8377 Y-2.1519 Z-0.2789
N4980 X-0.8378 Y-2.151 Z-0.2827
N4985 X-0.8381 Y-2.1495 Z-0.2863
N4990 X-0.8385 Y-2.1475 Z-0.2897
N4995 X-0.839 Y-2.145 Z-0.2927
N5000 X-0.8395 Y-2.1421 Z-0.2952
N5005 X-0.8401 Y-2.1388 Z-0.2973
N5010 X-0.8408 Y-2.1352 Z-0.2988
N5015 X-0.8415 Y-2.1315 Z-0.2997
N5020 X-0.8422 Y-2.1276 Z-0.3
N5025 G3 X-0.8552 Y-2.0996 I-0.0613 J-0.0114
N5030 G1 X-0.8624 Y-2.0914
N5035 X-0.8685 Y-2.0832
N5040 X-0.8694 Y-2.0819
N5045 X-0.874 Y-2.075
N5050 X-0.8786 Y-2.0668
N5055 X-0.8822 Y-2.0586
N5060 X-0.8841 Y-2.0541
N5065 X-0.8876 Y-2.0469
N5070 X-0.8918 Y-2.0397
N5075 X-0.8968 Y-2.0326
N5080 X-0.9034 Y-2.0246
N5085 X-0.912 Y-2.0159
N5090 X-0.9219 Y-2.0072
N5095 X-0.9349 Y-1.9976
N5100 X-0.9503 Y-1.9879
N5105 X-0.9701 Y-1.9777
N5110 X-0.995 Y-1.9673
N5115 X-1.0274 Y-1.9567
N5120 X-1.0626 Y-1.9482
N5125 X-1.0983 Y-1.942
N5130 X-1.1342 Y-1.9374
N5135 X-1.1702 Y-1.934
N5140 X-1.2063 Y-1.9316
N5145 X-1.2424 Y-1.9297
N5150 X-1.2786 Y-1.9284
N5155 X-1.3147 Y-1.9274
N5160 X-1.3509 Y-1.9266
N5165 X-1.3871 Y-1.9261
N5170 X-1.4233 Y-1.9257
N5175 X-1.4594 Y-1.9254
N5180 X-1.4956 Y-1.9252
N5185 X-1.5318 Y-1.9251
N5190 X-1.6042 Y-1.9248
N5195 X-1.7127 Y-1.9247
N5200 X-1.966 Y-1.9246
N5205 X-2.8344 Y-1.9243
N5210 X-2.8886
N5215 X-2.9064 Y-1.921
N5220 X-2.9402 Y-1.908
N5225 X-2.9683 Y-1.8852
N5230 X-2.9906 Y-1.8568
N5235 X-3.0079 Y-1.825
N5240 X-3.021 Y-1.7913
N5245 X-3.0309 Y-1.7564
N5250 X-3.0383 Y-1.721
N5255 X-3.0437 Y-1.6853
N5260 X-3.0477 Y-1.6493
N5265 X-3.0507 Y-1.6132
N5270 X-3.0529 Y-1.5771
N5275 X-3.0544 Y-1.541
N5280 X-3.0556 Y-1.5048
N5285 X-3.0564 Y-1.4686
N5290 X-3.057 Y-1.4325
N5295 X-3.0575 Y-1.3963
N5300 X-3.0578 Y-1.3601
N5305 X-3.058 Y-1.3239
N5310 X-3.0582 Y-1.2877
N5315 X-3.0583 Y-1.2572
N5320 X-3.0593 Y-1.2464
N5325 X-3.0623 Y-1.236
N5330 X-3.0672 Y-1.2264
N5335 X-3.0738 Y-1.2178
N5340 X-3.0818 Y-1.2106
N5345 X-3.0883 Y-1.2057
N5350 X-3.0966 Y-1.1988
N5355 X-3.1064 Y-1.1887
N5360 X-3.113 Y-1.1805
N5365 X-3.1189 Y-1.1723
N5370 X-3.1212 Y-1.1687
N5375 X-3.124 Y-1.1641
N5380 X-3.1294 Y-1.1531
N5385 X-3.1321 Y-1.1477
N5390 X-3.1349 Y-1.1395
N5395 X-3.1393 Y-1.1231
N5400 X-3.141 Y-1.1149
N5405 X-3.1426 Y-1.0985
N5410 X-3.143 Y-1.0903
N5415 Y-0.8523
N5420 X-3.1428 Y-0.8441
N5425 X-3.1424 Y-0.8277
N5430 X-3.1421 Y-0.8195
N5435 X-3.1412 Y-0.8031
N5440 X-3.1406 Y-0.7949
N5445 X-3.1387 Y-0.7784
N5450 X-3.1376 Y-0.7699
N5455 X-3.134 Y-0.7456
N5460 X-3.1306 Y-0.7292
N5465 X-3.1294 Y-0.7244
N5470 X-3.1212 Y-0.6937
N5475 X-3.113 Y-0.6675
N5480 X-3.1048 Y-0.6469
N5485 X-3.1015 Y-0.6389
N5490 X-3.0932 Y-0.6178
N5495 X-3.0842 Y-0.5882
N5500 X-3.0764 Y-0.5529
N5505 X-3.0711 Y-0.5171
N5510 X-3.0674 Y-0.4811
N5515 X-3.0647 Y-0.445
N5520 X-3.0629 Y-0.4089
N5525 X-3.0616 Y-0.3727
N5530 X-3.0607 Y-0.3366
N5535 X-3.0601 Y-0.3004
N5540 X-3.0596 Y-0.2642
N5545 X-3.0595 Y-0.2461
N5550 X-3.0562 Y-0.2283
N5555 X-3.0433 Y-0.1945
N5560 X-3.0206 Y-0.1663
N5565 X-2.9922 Y-0.1439
N5570 X-2.9605 Y-0.1266
N5575 X-2.9268 Y-0.1134
N5580 X-2.892 Y-0.1034
N5585 X-2.8566 Y-0.096
N5590 X-2.8208 Y-0.0905
N5595 X-2.7848 Y-0.0865
N5600 X-2.7488 Y-0.0835
N5605 X-2.7127 Y-0.0813
N5610 X-2.6765 Y-0.0797
N5615 X-2.6404 Y-0.0785
N5620 X-2.6042 Y-0.0777
N5625 X-2.568 Y-0.077
N5630 X-2.5318 Y-0.0766
N5635 X-2.4957 Y-0.0762
N5640 X-2.4595 Y-0.076
N5645 X-2.4233 Y-0.0758
N5650 X-2.3518 Y-0.0756
N5655 X-2.3417 Y-0.0747
N5660 X-2.332 Y-0.072
N5665 X-2.3228 Y-0.0677
N5670 X-2.1491 Y0.0326
N5675 G3 X-2.138 Y0.0593 I-0.0132 J0.0212
N5680 G1 X-2.1388 Y0.0631 Z-0.2997
N5685 X-2.1397 Y0.0669 Z-0.2988
N5690 X-2.1405 Y0.0704 Z-0.2973
N5695 X-2.1412 Y0.0736 Z-0.2952
N5700 X-2.1419 Y0.0766 Z-0.2927
N5705 X-2.1425 Y0.079 Z-0.2897
N5710 X-2.1429 Y0.081 Z-0.2863
N5715 X-2.1433 Y0.0825 Z-0.2827
N5720 X-2.1435 Y0.0834 Z-0.2789
N5725 Y0.0837 Z-0.275
N5730 Z0.6
N5735 X-3.1422 Y-0.6766
N5740 Z-0.25
N5745 Z-0.275
N5750 X-3.142 Y-0.6765 Z-0.2789
N5755 X-3.1412 Y-0.6759 Z-0.2827
N5760 X-3.14 Y-0.6751 Z-0.2863
N5765 X-3.1383 Y-0.6739 Z-0.2897
N5770 X-3.1362 Y-0.6725 Z-0.2927
N5775 X-3.1338 Y-0.6708 Z-0.2952
N5780 X-3.131 Y-0.6688 Z-0.2973
N5785 X-3.1281 Y-0.6668 Z-0.2988
N5790 X-3.1249 Y-0.6646 Z-0.2997
N5795 X-3.1217 Y-0.6624 Z-0.3
N5800 G3 X-3.1015 Y-0.6389 I-0.0356 J0.0511
N5805 G1 X-3.0941 Y-0.6225
N5810 X-3.0903 Y-0.6143
N5815 X-3.0777 Y-0.5897
N5820 X-3.0628 Y-0.5651
N5825 X-3.0555 Y-0.5536
N5830 X-3.0523 Y-0.5487
N5835 X-3.0468 Y-0.5405
N5840 X-3.0408 Y-0.5323
N5845 X-3.0308 Y-0.5193
N5850 X-3.0212 Y-0.5055
N5855 X-3.0127 Y-0.4909
N5860 X-3.0037 Y-0.4721
N5865 X-2.9943 Y-0.4477
N5870 X-2.9846 Y-0.4148
N5875 X-2.9772 Y-0.3793
N5880 X-2.9719 Y-0.3435
N5885 X-2.9587 Y-0.3099
N5890 X-2.9373 Y-0.2807
N5895 X-2.9102 Y-0.2567
N5900 X-2.8795 Y-0.2376
N5905 X-2.8465 Y-0.2226
N5910 X-2.8123 Y-0.211
N5915 X-2.7772 Y-0.2022
N5920 X-2.7416 Y-0.1955
N5925 X-2.7058 Y-0.1904
N5930 X-2.6698 Y-0.1865
N5935 X-2.6338 Y-0.1837
N5940 X-2.5976 Y-0.1815
N5945 X-2.5615 Y-0.1799
N5950 X-2.529 Y-0.1789
N5955 X-2.5196 Y-0.1778
N5960 X-2.5104 Y-0.1751
N5965 X-2.5018 Y-0.1711
N5970 X-2.3228 Y-0.0677
N5975 G3 X-2.3117 Y-0.041 I-0.0132 J0.0212
N5980 G1 X-2.3126 Y-0.0372 Z-0.2997
N5985 X-2.3134 Y-0.0334 Z-0.2988
N5990 X-2.3142 Y-0.0299 Z-0.2973
N5995 X-2.315 Y-0.0266 Z-0.2952
N6000 X-2.3156 Y-0.0237 Z-0.2927
N6005 X-2.3162 Y-0.0213 Z-0.2897
N6010 X-2.3167 Y-0.0193 Z-0.2863
N6015 X-2.317 Y-0.0178 Z-0.2827
N6020 X-2.3172 Y-0.0169 Z-0.2789
N6025 X-2.3173 Y-0.0166 Z-0.275
N6030 Z0.6
N6035 X-3.0791 Y-0.5466
N6040 Z-0.25
N6045 Z-0.275
N6050 X-3.0788 Y-0.5465 Z-0.2789
N6055 X-3.078 Y-0.5462 Z-0.2827
N6060 X-3.0766 Y-0.5456 Z-0.2863
N6065 X-3.0747 Y-0.5449 Z-0.2897
N6070 X-3.0723 Y-0.544 Z-0.2927
N6075 X-3.0695 Y-0.5429 Z-0.2952
N6080 X-3.0664 Y-0.5416 Z-0.2973
N6085 X-3.063 Y-0.5403 Z-0.2988
N6090 X-3.0595 Y-0.5389 Z-0.2997
N6095 X-3.0558 Y-0.5375 Z-0.3
N6100 G3 X-3.0308 Y-0.5193 I-0.0229 J0.0579
N6105 G1 X-3.0281 Y-0.5158
N6110 X-3.0226 Y-0.5089
N6115 X-3.0144 Y-0.4993
N6120 X-3.0062 Y-0.4903
N6125 X-2.9992 Y-0.483
N6130 X-2.9745 Y-0.4584
N6135 X-2.9733 Y-0.4572
N6140 X-2.9651 Y-0.45
N6145 X-2.9568 Y-0.4431
N6150 X-2.9297 Y-0.4191
N6155 X-2.904 Y-0.3937
N6160 X-2.8758 Y-0.371
N6165 X-2.8452 Y-0.3516
N6170 X-2.8128 Y-0.3355
N6175 X-2.7791 Y-0.3224
N6180 X-2.7534 Y-0.3146
N6185 X-2.7491 Y-0.3131
N6190 X-2.7451 Y-0.3113
N6195 X-2.7411 Y-0.3093
N6200 G3 X-2.7332 Y-0.2748 Z-0.292 I-0.0132 J0.0212
N6205 X-2.7676 Y-0.2668 I-0.0212 J-0.0132
N6210 G1 X-2.9849 Y-0.4018
N6215 G3 X-2.9918 Y-0.4379 I0.0132 J-0.0212
N6220 X-2.9568 Y-0.4431 Z-0.3 I0.0201 J0.0149
N6225 G1 X-2.9486 Y-0.4365
N6230 X-2.9234 Y-0.4174
N6235 X-2.9158 Y-0.4122
N6240 X-2.8985 Y-0.401
N6245 X-2.8911 Y-0.3964
N6250 X-2.8714 Y-0.3846
N6255 X-2.8664 Y-0.3816
N6260 X-2.5018 Y-0.1711
N6265 G3 X-2.4907 Y-0.1443 I-0.0132 J0.0212
N6270 G1 X-2.4915 Y-0.1405 Z-0.2997
N6275 X-2.4924 Y-0.1368 Z-0.2988
N6280 X-2.4932 Y-0.1332 Z-0.2973
N6285 X-2.4939 Y-0.13 Z-0.2952
N6290 X-2.4946 Y-0.1271 Z-0.2927
N6295 X-2.4952 Y-0.1246 Z-0.2897
N6300 X-2.4956 Y-0.1226 Z-0.2863
N6305 X-2.496 Y-0.1211 Z-0.2827
N6310 X-2.4962 Y-0.1202 Z-0.2789
N6315 Y-0.1199 Z-0.275
N6320 Z0.6
N6325 X-0.8839 Y-2.1095
N6330 Z-0.25
N6335 Z-0.275
N6340 Y-2.1092 Z-0.2789
N6345 X-0.8838 Y-2.1083 Z-0.2827
N6350 X-0.8836 Y-2.1068 Z-0.2863
N6355 X-0.8833 Y-2.1048 Z-0.2897
N6360 X-0.8829 Y-2.1023 Z-0.2927
N6365 X-0.8825 Y-2.0993 Z-0.2952
N6370 X-0.8821 Y-2.096 Z-0.2973
N6375 X-0.8816 Y-2.0924 Z-0.2988
N6380 X-0.8811 Y-2.0886 Z-0.2997
N6385 X-0.8806 Y-2.0848 Z-0.3
N6390 G3 X-0.8841 Y-2.0541 I-0.0617 J0.0084
N6395 G1 X-0.8859 Y-2.0499
N6400 X-0.8875 Y-2.046
N6405 X-0.8886 Y-2.0422
N6410 X-0.8922 Y-2.0257
N6415 X-0.8937 Y-2.0175
N6420 X-0.8942 Y-2.0093
N6425 X-0.895 Y-2.0018
N6430 X-0.8961 Y-1.9958
N6435 X-0.8981 Y-1.9887
N6440 X-0.9007 Y-1.9814
N6445 X-0.9044 Y-1.9731
N6450 X-0.9094 Y-1.9642
N6455 X-0.9155 Y-1.955
N6460 X-0.9238 Y-1.9446
N6465 X-0.9333 Y-1.9343
N6470 X-0.9453 Y-1.9233
N6475 X-0.9599 Y-1.912
N6480 X-0.9776 Y-1.9003
N6485 X-0.9991 Y-1.8885
N6490 X-1.0262 Y-1.8764
N6495 X-1.0603 Y-1.8643
N6500 X-1.0953 Y-1.855
N6505 X-1.1307 Y-1.8478
N6510 X-1.1665 Y-1.8423
N6515 X-1.2024 Y-1.8381
N6520 X-1.2384 Y-1.8348
N6525 X-1.2745 Y-1.8324
N6530 X-1.3107 Y-1.8305
N6535 X-1.3468 Y-1.829
N6540 X-1.383 Y-1.828
N6545 X-1.4192 Y-1.8271
N6550 X-1.4553 Y-1.8265
N6555 X-1.4915 Y-1.826
N6560 X-1.5277 Y-1.8257
N6565 X-1.5639 Y-1.8254
N6570 X-1.6001 Y-1.8252
N6575 X-1.6724 Y-1.8249
N6580 X-1.781 Y-1.8247
N6585 X-1.9619 Y-1.8246
N6590 X-2.7579 Y-1.8244
N6595 X-2.7941 Y-1.8233
N6600 X-2.828 Y-1.8107
N6605 X-2.857 Y-1.7891
N6610 X-2.8806 Y-1.7617
N6615 X-2.8993 Y-1.7307
N6620 X-2.9139 Y-1.6976
N6625 X-2.925 Y-1.6632
N6630 X-2.9335 Y-1.628
N6635 X-2.9399 Y-1.5924
N6640 X-2.9447 Y-1.5565
N6645 X-2.9483 Y-1.5205
N6650 X-2.951 Y-1.4845
N6655 X-2.953 Y-1.4483
N6660 X-2.9545 Y-1.4122
N6665 X-2.9556 Y-1.376
N6670 X-2.9564 Y-1.3398
N6675 X-2.9582 Y-1.3063
N6680 X-2.9615 Y-1.2821
N6685 X-2.9618 Y-1.2807
N6690 X-2.9657 Y-1.2691
N6695 X-2.972 Y-1.2585
N6700 X-2.9805 Y-1.2496
N6705 X-2.9908 Y-1.2428
N6710 X-3.0022 Y-1.2383
N6715 X-3.0144 Y-1.2365
N6720 X-3.0226 Y-1.2353
N6725 X-3.0308 Y-1.2336
N6730 X-3.039 Y-1.2314
N6735 X-3.0518 Y-1.2265
N6740 G3 X-3.0796 Y-1.2347 I-0.0082 J-0.0236
N6745 G1 X-3.082 Y-1.2377 Z-0.2997
N6750 X-3.0844 Y-1.2407 Z-0.2988
N6755 X-3.0866 Y-1.2436 Z-0.2973
N6760 X-3.0887 Y-1.2462 Z-0.2952
N6765 X-3.0905 Y-1.2485 Z-0.2927
N6770 X-3.0921 Y-1.2505 Z-0.2897
N6775 X-3.0934 Y-1.2521 Z-0.2863
N6780 X-3.0943 Y-1.2533 Z-0.2827
N6785 X-3.0949 Y-1.254 Z-0.2789
N6790 X-3.0951 Y-1.2543 Z-0.275
N6795 Z0.6
N6800 X-0.9128 Y-2.0616
N6805 Z-0.25
N6810 Z-0.275
N6815 X-0.9127 Y-2.0613 Z-0.2789
N6820 X-0.9122 Y-2.0605 Z-0.2827
N6825 X-0.9115 Y-2.0592 Z-0.2863
N6830 X-0.9106 Y-2.0574 Z-0.2897
N6835 X-0.9094 Y-2.0551 Z-0.2927
N6840 X-0.908 Y-2.0525 Z-0.2952
N6845 X-0.9065 Y-2.0495 Z-0.2973
N6850 X-0.9048 Y-2.0463 Z-0.2988
N6855 X-0.903 Y-2.0429 Z-0.2997
N6860 X-0.9012 Y-2.0394 Z-0.3
N6865 G3 X-0.8942 Y-2.0093 I-0.0552 J0.0288
N6870 G1 X-0.8946 Y-2.0011
N6875 X-0.895 Y-1.9929
N6880 Y-1.9437
N6885 X-0.8954 Y-1.9354
N6890 X-0.8963 Y-1.9284
N6895 X-0.8981 Y-1.9201
N6900 X-0.9007 Y-1.9115
N6905 X-0.9044 Y-1.902
N6910 X-0.9093 Y-1.8918
N6915 X-0.9156 Y-1.8812
N6920 X-0.9239 Y-1.8694
N6925 X-0.9335 Y-1.8578
N6930 X-0.9463 Y-1.8446
N6935 X-0.9606 Y-1.8322
N6940 X-0.979 Y-1.8186
N6945 X-1.0002 Y-1.8054
N6950 X-1.0266 Y-1.7918
N6955 X-1.0595 Y-1.778
N6960 X-1.0938 Y-1.7668
N6965 X-1.1289 Y-1.7578
N6970 X-1.1644 Y-1.7507
N6975 X-1.2001 Y-1.745
N6980 X-1.236 Y-1.7405
N6985 X-1.272 Y-1.737
N6990 X-1.3081 Y-1.7342
N6995 X-1.3442 Y-1.7321
N7000 X-1.3804 Y-1.7304
N7005 X-1.4165 Y-1.7291
N7010 X-1.4527 Y-1.728
N7015 X-1.4889 Y-1.7272
N7020 X-1.525 Y-1.7266
N7025 X-1.5612 Y-1.7261
N7030 X-1.5974 Y-1.7258
N7035 X-1.6336 Y-1.7255
N7040 X-1.6698 Y-1.7253
N7045 X-1.7421 Y-1.725
N7050 X-1.8145 Y-1.7248
N7055 X-1.9592 Y-1.7246
N7060 X-2.2848 Y-1.7245
N7065 X-2.6467 Y-1.7244
N7070 X-2.6828 Y-1.7242
N7075 X-2.7174 Y-1.7134
N7080 X-2.7475 Y-1.6934
N7085 X-2.7725 Y-1.6672
N7090 X-2.7925 Y-1.637
N7095 X-2.8082 Y-1.6044
N7100 X-2.8204 Y-1.5704
N7105 X-2.8298 Y-1.5354
N7110 X-2.8369 Y-1.5
N7115 X-2.8423 Y-1.4642
N7120 X-2.8464 Y-1.4282
N7125 X-2.8499 Y-1.3922
N7130 X-2.8535 Y-1.3562
N7135 X-2.858 Y-1.3256
N7140 X-2.8633 Y-1.3025
N7145 X-2.869 Y-1.2843
N7150 X-2.8732 Y-1.2739
N7155 X-2.8786 Y-1.2637
N7160 X-2.8859 Y-1.2548
N7165 X-2.8947 Y-1.2474
N7170 X-2.9048 Y-1.242
N7175 X-2.9158 Y-1.2386
N7180 X-2.9273 Y-1.2375
N7185 X-2.9897
N7190 X-3.0144 Y-1.2365
N7195 G3 X-3.0381 Y-1.2531 I-0.0002 J-0.025
N7200 G1 X-3.0394 Y-1.2568 Z-0.2997
N7205 X-3.0407 Y-1.2604 Z-0.2988
N7210 X-3.0419 Y-1.2638 Z-0.2973
N7215 X-3.0431 Y-1.2669 Z-0.2952
N7220 X-3.0441 Y-1.2697 Z-0.2927
N7225 X-3.0449 Y-1.2721 Z-0.2897
N7230 X-3.0456 Y-1.2741 Z-0.2863
N7235 X-3.0461 Y-1.2755 Z-0.2827
N7240 X-3.0464 Y-1.2763 Z-0.2789
N7245 X-3.0465 Y-1.2766 Z-0.275
N7250 Z0.6
N7255 X-0.9165 Y-1.9948
N7260 Z-0.25
N7265 Z-0.275
N7270 X-0.9163 Y-1.9946 Z-0.2789
N7275 X-0.9159 Y-1.9938 Z-0.2827
N7280 X-0.9151 Y-1.9925 Z-0.2863
N7285 X-0.9141 Y-1.9907 Z-0.2897
N7290 X-0.9127 Y-1.9886 Z-0.2927
N7295 X-0.9112 Y-1.986 Z-0.2952
N7300 X-0.9095 Y-1.9831 Z-0.2973
N7305 X-0.9077 Y-1.98 Z-0.2988
N7310 X-0.9057 Y-1.9767 Z-0.2997
N7315 X-0.9037 Y-1.9734 Z-0.3
N7320 G3 X-0.895 Y-1.9437 I-0.0536 J0.0318
N7325 G1 Y-1.8616
N7330 X-0.8953 Y-1.8556
N7335 X-0.8964 Y-1.8476
N7340 X-0.8985 Y-1.8384
N7345 X-0.9014 Y-1.829
N7350 X-0.9057 Y-1.8181
N7355 X-0.911 Y-1.8072
N7360 X-0.9184 Y-1.7949
N7365 X-0.9272 Y-1.7826
N7370 X-0.9386 Y-1.7691
N7375 X-0.9522 Y-1.7553
N7380 X-0.9691 Y-1.7408
N7385 X-0.9887 Y-1.7265
N7390 X-1.0132 Y-1.7115
N7395 X-1.0431 Y-1.6964
N7400 X-1.0765 Y-1.6827
N7405 X-1.1109 Y-1.6715
N7410 X-1.1459 Y-1.6623
N7415 X-1.1813 Y-1.6548
N7420 X-1.217 Y-1.6488
N7425 X-1.2529 Y-1.6439
N7430 X-1.2888 Y-1.6399
N7435 X-1.3249 Y-1.6367
N7440 X-1.361 Y-1.6342
N7445 X-1.3971 Y-1.6322
N7450 X-1.4332 Y-1.6305
N7455 X-1.4694 Y-1.6293
N7460 X-1.5056 Y-1.6283
N7465 X-1.5417 Y-1.6274
N7470 X-1.5779 Y-1.6268
N7475 X-1.6141 Y-1.6263
N7480 X-1.6503 Y-1.6259
N7485 X-1.6864 Y-1.6256
N7490 X-1.7226 Y-1.6254
N7495 X-1.7588 Y-1.6252
N7500 X-1.8312 Y-1.6249
N7505 X-1.9397 Y-1.6247
N7510 X-2.1206 Y-1.6246
N7515 X-2.5548 Y-1.6244
N7520 X-2.5908 Y-1.6212
N7525 X-2.6243 Y-1.6074
N7530 X-2.653 Y-1.5854
N7535 X-2.6766 Y-1.558
N7540 X-2.6955 Y-1.5271
N7545 X-2.7104 Y-1.4941
N7550 X-2.7221 Y-1.4599
N7555 X-2.7316 Y-1.425
N7560 X-2.7484 Y-1.3546
N7565 X-2.7578 Y-1.3197
N7570 X-2.7665 Y-1.2941
N7575 X-2.775 Y-1.2747
N7580 X-2.7783 Y-1.2684
N7585 X-2.7854 Y-1.258
N7590 X-2.7946 Y-1.2493
N7595 X-2.8054 Y-1.2429
N7600 X-2.8173 Y-1.2389
N7605 X-2.8298 Y-1.2375
N7610 X-2.9273
N7615 G3 X-2.9503 Y-1.2551 I0.0009 J-0.025
N7620 G1 X-2.9515 Y-1.2589 Z-0.2997
N7625 X-2.9526 Y-1.2625 Z-0.2988
N7630 X-2.9536 Y-1.266 Z-0.2973
N7635 X-2.9546 Y-1.2692 Z-0.2952
N7640 X-2.9555 Y-1.272 Z-0.2927
N7645 X-2.9563 Y-1.2744 Z-0.2897
N7650 X-2.9569 Y-1.2764 Z-0.2863
N7655 X-2.9573 Y-1.2778 Z-0.2827
N7660 X-2.9576 Y-1.2787 Z-0.2789
N7665 X-2.9577 Y-1.279 Z-0.275
N7670 Z0.6
N7675 X-0.9165 Y-1.9128
N7680 Z-0.25
N7685 Z-0.275
N7690 X-0.9163 Y-1.9125 Z-0.2789
N7695 X-0.9159 Y-1.9117 Z-0.2827
N7700 X-0.9151 Y-1.9104 Z-0.2863
N7705 X-0.9141 Y-1.9087 Z-0.2897
N7710 X-0.9127 Y-1.9065 Z-0.2927
N7715 X-0.9112 Y-1.9039 Z-0.2952
N7720 X-0.9095 Y-1.9011 Z-0.2973
N7725 X-0.9077 Y-1.8979 Z-0.2988
N7730 X-0.9057 Y-1.8947 Z-0.2997
N7735 X-0.9037 Y-1.8913 Z-0.3
N7740 G3 X-0.895 Y-1.8616 I-0.0536 J0.0318
N7745 G1 Y-1.7796
N7750 X-0.8957 Y-1.7694
N7755 X-0.897 Y-1.761
N7760 X-0.8993 Y-1.7513
N7765 X-0.9026 Y-1.741
N7770 X-0.9072 Y-1.7299
N7775 X-0.9135 Y-1.7176
N7780 X-0.9211 Y-1.7052
N7785 X-0.9315 Y-1.691
N7790 X-0.9433 Y-1.6774
N7795 X-0.9589 Y-1.662
N7800 X-0.9766 Y-1.6472
N7805 X-0.9987 Y-1.6315
N7810 X-1.0258 Y-1.6154
N7815 X-1.0582 Y-1.5995
N7820 X-1.0919 Y-1.5862
N7825 X-1.1263 Y-1.5751
N7830 X-1.1613 Y-1.5659
N7835 X-1.1967 Y-1.5582
N7840 X-1.2323 Y-1.5519
N7845 X-1.2681 Y-1.5468
N7850 X-1.3041 Y-1.5425
N7855 X-1.3401 Y-1.539
N7860 X-1.3761 Y-1.5362
N7865 X-1.4122 Y-1.5339
N7870 X-1.4484 Y-1.532
N7875 X-1.4845 Y-1.5305
N7880 X-1.5207 Y-1.5293
N7885 X-1.5569 Y-1.5283
N7890 X-1.593 Y-1.5275
N7895 X-1.6292 Y-1.5269
N7900 X-1.6654 Y-1.5264
N7905 X-1.7016 Y-1.526
N7910 X-1.7377 Y-1.5257
N7915 X-1.7739 Y-1.5255
N7920 X-1.8101 Y-1.5253
N7925 X-1.8825 Y-1.525
N7930 X-1.991 Y-1.5247
N7935 X-2.1357 Y-1.5246
N7940 X-2.4614 Y-1.5244
N7945 X-2.4971 Y-1.5185
N7950 X-2.5296 Y-1.5026
N7955 X-2.5573 Y-1.4794
N7960 X-2.5805 Y-1.4515
N7965 X-2.5998 Y-1.4209
N7970 X-2.6163 Y-1.3888
N7975 X-2.6312 Y-1.3558
N7980 X-2.6455 Y-1.3225
N7985 X-2.6604 Y-1.2896
N7990 X-2.673 Y-1.2663
N7995 X-2.6745 Y-1.2641
N8000 X-2.6817 Y-1.255
N8005 X-2.6906 Y-1.2476
N8010 X-2.7008 Y-1.2421
N8015 X-2.7118 Y-1.2387
N8020 X-2.7234 Y-1.2375
N8025 X-2.8298
N8030 G3 X-2.8528 Y-1.2551 I0.0009 J-0.025
N8035 G1 X-2.854 Y-1.2589 Z-0.2997
N8040 X-2.8551 Y-1.2625 Z-0.2988
N8045 X-2.8562 Y-1.266 Z-0.2973
N8050 X-2.8572 Y-1.2692 Z-0.2952
N8055 X-2.858 Y-1.272 Z-0.2927
N8060 X-2.8588 Y-1.2744 Z-0.2897
N8065 X-2.8594 Y-1.2764 Z-0.2863
N8070 X-2.8598 Y-1.2778 Z-0.2827
N8075 X-2.8601 Y-1.2787 Z-0.2789
N8080 X-2.8602 Y-1.279 Z-0.275
N8085 Z0.6
N8090 X-0.9165 Y-1.8307
N8095 Z-0.25
N8100 Z-0.275
N8105 X-0.9163 Y-1.8305 Z-0.2789
N8110 X-0.9159 Y-1.8297 Z-0.2827
N8115 X-0.9151 Y-1.8284 Z-0.2863
N8120 X-0.9141 Y-1.8266 Z-0.2897
N8125 X-0.9127 Y-1.8244 Z-0.2927
N8130 X-0.9112 Y-1.8219 Z-0.2952
N8135 X-0.9095 Y-1.819 Z-0.2973
N8140 X-0.9077 Y-1.8159 Z-0.2988
N8145 X-0.9057 Y-1.8126 Z-0.2997
N8150 X-0.9037 Y-1.8092 Z-0.3
N8155 G3 X-0.895 Y-1.7796 I-0.0536 J0.0318
N8160 G1 X-0.8952 Y-1.7714
N8165 X-0.8957 Y-1.755
N8170 X-0.896 Y-1.7467
N8175 X-0.8984 Y-1.7221
N8180 X-0.8997 Y-1.7139
N8185 X-0.9017 Y-1.7057
N8190 X-0.904 Y-1.6975
N8195 X-0.9065 Y-1.6893
N8200 X-0.9095 Y-1.6811
N8205 X-0.9127 Y-1.6729
N8210 X-0.9161 Y-1.6647
N8215 X-0.92 Y-1.6565
N8220 X-0.9352 Y-1.6296
N8225 X-0.939 Y-1.6237
N8230 X-0.9446 Y-1.6154
N8235 X-0.9564 Y-1.599
N8240 X-0.9598 Y-1.5949
N8245 X-0.9706 Y-1.5826
N8250 X-0.991 Y-1.5618
N8255 X-1.0073 Y-1.5477
N8260 X-1.0264 Y-1.5337
N8265 X-1.0506 Y-1.5188
N8270 X-1.0807 Y-1.5034
N8275 X-1.1142 Y-1.4896
N8280 X-1.1485 Y-1.4781
N8285 X-1.1834 Y-1.4686
N8290 X-1.2187 Y-1.4607
N8295 X-1.2543 Y-1.4542
N8300 X-1.2901 Y-1.4488
N8305 X-1.326 Y-1.4444
N8310 X-1.362 Y-1.4407
N8315 X-1.398 Y-1.4377
N8320 X-1.4341 Y-1.4352
N8325 X-1.4703 Y-1.4331
N8330 X-1.5064 Y-1.4315
N8335 X-1.5426 Y-1.4301
N8340 X-1.5787 Y-1.429
N8345 X-1.6149 Y-1.4281
N8350 X-1.6511 Y-1.4274
N8355 X-1.6873 Y-1.4268
N8360 X-1.7234 Y-1.4264
N8365 X-1.7596 Y-1.426
N8370 X-1.7958 Y-1.4257
N8375 X-1.832 Y-1.4255
N8380 X-1.9043 Y-1.4251
N8385 X-1.9767 Y-1.4249
N8390 X-2.0853 Y-1.4247
N8395 X-2.2662 Y-1.4245
N8400 X-2.3385
N8405 X-2.3747 Y-1.4238
N8410 X-2.4096 Y-1.4141
N8415 X-2.4412 Y-1.3965
N8420 X-2.469 Y-1.3734
N8425 X-2.4935 Y-1.3468
N8430 X-2.5156 Y-1.3181
N8435 X-2.5362 Y-1.2884
N8440 X-2.5548 Y-1.2622
N8445 X-2.5621 Y-1.2537
N8450 X-2.5708 Y-1.2468
N8455 X-2.5807 Y-1.2417
N8460 X-2.5914 Y-1.2386
N8465 X-2.6024 Y-1.2375
N8470 X-2.7234
N8475 G3 X-2.7464 Y-1.2551 I0.0009 J-0.025
N8480 G1 X-2.7475 Y-1.2589 Z-0.2997
N8485 X-2.7487 Y-1.2625 Z-0.2988
N8490 X-2.7497 Y-1.266 Z-0.2973
N8495 X-2.7507 Y-1.2692 Z-0.2952
N8500 X-2.7516 Y-1.272 Z-0.2927
N8505 X-2.7523 Y-1.2744 Z-0.2897
N8510 X-2.7529 Y-1.2764 Z-0.2863
N8515 X-2.7534 Y-1.2778 Z-0.2827
N8520 X-2.7537 Y-1.2787 Z-0.2789
N8525 X-2.7538 Y-1.279 Z-0.275
N8530 Z0.6
N8535 X-0.953 Y-1.6353
N8540 Z-0.25
N8545 Z-0.275
N8550 X-0.9531 Y-1.635 Z-0.2789
N8555 X-0.9533 Y-1.6341 Z-0.2827
N8560 X-0.9535 Y-1.6326 Z-0.2863
N8565 X-0.9539 Y-1.6306 Z-0.2897
N8570 X-0.9544 Y-1.6281 Z-0.2927
N8575 X-0.9549 Y-1.6251 Z-0.2952
N8580 X-0.9555 Y-1.6218 Z-0.2973
N8585 X-0.9562 Y-1.6183 Z-0.2988
N8590 X-0.9569 Y-1.6145 Z-0.2997
N8595 X-0.9576 Y-1.6107 Z-0.3
N8600 G3 X-0.9706 Y-1.5826 I-0.0613 J-0.0113
N8605 G1 X-0.9763 Y-1.5762
N8610 X-0.9845 Y-1.5673
N8615 X-1.0013 Y-1.5498
N8620 X-1.0092 Y-1.5428
N8625 X-1.0297 Y-1.5252
N8630 X-1.042 Y-1.5148
N8635 X-1.0502 Y-1.5082
N8640 X-1.0599 Y-1.5006
N8645 X-1.0831 Y-1.4846
N8650 X-1.116 Y-1.4623
N8655 X-1.1242 Y-1.4571
N8660 X-1.1324 Y-1.4524
N8665 X-1.1982 Y-1.416
N8670 X-1.2064 Y-1.412
N8675 X-1.2639 Y-1.3861
N8680 X-1.2976 Y-1.3729
N8685 X-1.3321 Y-1.3619
N8690 X-1.3673 Y-1.3535
N8695 X-1.4029 Y-1.3472
N8700 X-1.4387 Y-1.3423
N8705 X-1.4747 Y-1.3385
N8710 X-1.5108 Y-1.3356
N8715 X-1.5469 Y-1.3332
N8720 X-1.583 Y-1.3314
N8725 X-1.6192 Y-1.33
N8730 X-1.6554 Y-1.3289
N8735 X-1.6915 Y-1.328
N8740 X-1.7277 Y-1.3273
N8745 X-1.7639 Y-1.3267
N8750 X-1.8001 Y-1.3263
N8755 X-1.8362 Y-1.3259
N8760 X-1.8724 Y-1.3256
N8765 X-1.9086 Y-1.3254
N8770 X-1.981 Y-1.3251
N8775 X-2.0533 Y-1.3248
N8780 X-2.1619 Y-1.3247
N8785 X-2.2342 Y-1.3246
N8790 X-2.2704 Y-1.3244
N8795 X-2.306 Y-1.3181
N8800 X-2.3397 Y-1.3047
N8805 X-2.3706 Y-1.286
N8810 X-2.3992 Y-1.2638
N8815 X-2.4127 Y-1.252
N8820 X-2.4211 Y-1.2458
N8825 X-2.4306 Y-1.2412
N8830 X-2.4407 Y-1.2384
N8835 X-2.4511 Y-1.2375
N8840 X-2.6024
N8845 G3 X-2.6254 Y-1.2551 I0.0009 J-0.025
N8850 G1 X-2.6266 Y-1.2589 Z-0.2997
N8855 X-2.6277 Y-1.2625 Z-0.2988
N8860 X-2.6288 Y-1.266 Z-0.2973
N8865 X-2.6298 Y-1.2692 Z-0.2952
N8870 X-2.6307 Y-1.272 Z-0.2927
N8875 X-2.6314 Y-1.2744 Z-0.2897
N8880 X-2.632 Y-1.2764 Z-0.2863
N8885 X-2.6325 Y-1.2778 Z-0.2827
N8890 X-2.6327 Y-1.2787 Z-0.2789
N8895 X-2.6328 Y-1.279 Z-0.275
N8900 Z0.6
N8905 X-1.2261 Y-1.4267
N8910 Z-0.25
N8915 Z-0.275
N8920 X-1.2263 Y-1.4264 Z-0.2789
N8925 X-1.2268 Y-1.4257 Z-0.2827
N8930 X-1.2277 Y-1.4245 Z-0.2863
N8935 X-1.2288 Y-1.4228 Z-0.2897
N8940 X-1.2303 Y-1.4207 Z-0.2927
N8945 X-1.232 Y-1.4183 Z-0.2952
N8950 X-1.2339 Y-1.4155 Z-0.2973
N8955 X-1.236 Y-1.4126 Z-0.2988
N8960 X-1.2382 Y-1.4094 Z-0.2997
N8965 X-1.2404 Y-1.4062 Z-0.3
N8970 G3 X-1.2639 Y-1.3861 I-0.051 J-0.0357
N8975 G1 X-1.283 Y-1.3775
N8980 X-1.2886 Y-1.3752
N8985 X-1.2968 Y-1.3719
N8990 X-1.3132 Y-1.3658
N8995 X-1.3625 Y-1.3478
N9000 X-1.3711 Y-1.3447
N9005 X-1.3954 Y-1.3364
N9010 X-1.4227 Y-1.3282
N9015 X-1.4694 Y-1.3146
N9020 X-1.4788 Y-1.3118
N9025 X-1.5022 Y-1.3057
N9030 X-1.5107 Y-1.3036
N9035 X-1.5351 Y-1.2979
N9040 X-1.5762 Y-1.2885
N9045 X-1.5844 Y-1.2866
N9050 X-1.5926 Y-1.2848
N9055 X-1.6173 Y-1.2799
N9060 X-1.6502 Y-1.2741
N9065 X-1.6748 Y-1.2698
N9070 X-1.6995 Y-1.2656
N9075 X-1.7241 Y-1.2619
N9080 X-1.7323 Y-1.2608
N9085 X-1.7817 Y-1.2547
N9090 X-1.8063 Y-1.2518
N9095 X-1.8145 Y-1.2508
N9100 X-1.8392 Y-1.2483
N9105 X-1.8967 Y-1.244
N9110 X-1.9214 Y-1.2423
N9115 X-1.946 Y-1.2406
N9120 X-1.9542 Y-1.2403
N9125 X-2.0529 Y-1.2378
N9130 X-2.0611 Y-1.2377
N9135 X-2.0857 Y-1.2375
N9140 X-2.4511
N9145 G3 X-2.4742 Y-1.2551 I0.0009 J-0.025
N9150 G1 X-2.4753 Y-1.2589 Z-0.2997
N9155 X-2.4764 Y-1.2625 Z-0.2988
N9160 X-2.4775 Y-1.266 Z-0.2973
N9165 X-2.4785 Y-1.2692 Z-0.2952
N9170 X-2.4794 Y-1.272 Z-0.2927
N9175 X-2.4801 Y-1.2744 Z-0.2897
N9180 X-2.4807 Y-1.2764 Z-0.2863
N9185 X-2.4812 Y-1.2778 Z-0.2827
N9190 X-2.4814 Y-1.2787 Z-0.2789
N9195 X-2.4815 Y-1.279 Z-0.275
N9200 Z0.6
(WHEN USING FUSION FOR PERSONAL USE, THE FEEDRATE OF RAPID)
(MOVES IS REDUCED TO MATCH THE FEEDRATE OF CUTTING MOVES,)
(WHICH CAN INCREASE MACHINING TIME. UNRESTRICTED RAPID MOVES)
(ARE AVAILABLE WITH A FUSION SUBSCRIPTION.)
(ADAPTIVE2)
N9205 G0 X0.3083 Y-0.4741
N9210 G1 Z0.6 F15.
N9215 Z0.6
N9220 Z0.1
N9225 G3 X0.2805 Y-0.509 Z0.0972 I-0.0033 J-0.0259 F10.
N9230 X0.3241 Y-0.5176 Z0.0944 I0.0244 J0.0089
N9235 X0.3117 Y-0.475 Z0.0916 I-0.0192 J0.0175
N9240 X0.2797 Y-0.5055 Z0.0888 I-0.0067 J-0.025
N9245 X0.3215 Y-0.5199 Z0.086 I0.0253 J0.0055
N9250 X0.315 Y-0.4762 Z0.0832 I-0.0165 J0.0198
N9255 X0.2793 Y-0.5021 Z0.0804 I-0.01 J-0.0238
N9260 X0.3186 Y-0.5218 Z0.0776 I0.0256 J0.0021
N9265 X0.318 Y-0.4779 Z0.0748 I-0.0136 J0.0218
N9270 X0.2794 Y-0.4986 Z0.072 I-0.013 J-0.0221
N9275 X0.3155 Y-0.5233 Z0.0692 I0.0255 J-0.0014
N9280 X0.3208 Y-0.48 Z0.0664 I-0.0105 J0.0233
N9285 X0.28 Y-0.4952 Z0.0636 I-0.0158 J-0.02
N9290 X0.3122 Y-0.5244 Z0.0608 I0.025 J-0.0048
N9295 X0.3232 Y-0.4824 Z0.058 I-0.0072 J0.0243
N9300 X0.281 Y-0.4919 Z0.0552 I-0.0182 J-0.0176
N9305 X0.3088 Y-0.525 Z0.0524 I0.024 J-0.0081
N9310 X0.3253 Y-0.4851 Z0.0496 I-0.0039 J0.0249
N9315 X0.2824 Y-0.4888 Z0.0468 I-0.0203 J-0.0149
N9320 X0.3054 Y-0.5251 Z0.044 I0.0225 J-0.0112
N9325 X0.327 Y-0.4881 Z0.0412 I-0.0005 J0.0251
N9330 X0.2843 Y-0.486 Z0.0384 I-0.022 J-0.0119
N9335 X0.302 Y-0.5248 Z0.0356 I0.0207 J-0.014
N9340 X0.3283 Y-0.4912 Z0.0328 I0.0029 J0.0248
N9345 X0.2865 Y-0.4834 Z0.03 I-0.0233 J-0.0088
N9350 X0.2988 Y-0.5241 Z0.0272 I0.0185 J-0.0166
N9355 X0.3291 Y-0.4945 Z0.0244 I0.0062 J0.024
N9360 X0.289 Y-0.4812 Z0.0216 I-0.0241 J-0.0056
N9365 X0.2956 Y-0.5229 Z0.0188 I0.016 J-0.0188
N9370 X0.3295 Y-0.4978 Z0.016 I0.0093 J0.0228
N9375 X0.2917 Y-0.4793 Z0.0132 I-0.0245 J-0.0022
N9380 X0.2927 Y-0.5213 Z0.0104 I0.0133 J-0.0207
N9385 X0.3294 Y-0.5011 Z0.0076 I0.0122 J0.0212
N9390 X0.2947 Y-0.4779 Z0.0048 I-0.0244 J0.0011
N9395 X0.2901 Y-0.5193 Z0.002 I0.0103 J-0.0221
N9400 X0.3289 Y-0.5044 Z-0.0008 I0.0149 J0.0193
N9405 X0.2978 Y-0.4768 Z-0.0036 I-0.0239 J0.0043
N9410 X0.2877 Y-0.517 Z-0.0064 I0.0072 J-0.0232
N9415 X0.328 Y-0.5075 Z-0.0092 I0.0172 J0.017
N9420 X0.301 Y-0.4762 Z-0.012 I-0.023 J0.0075
N9425 X0.2857 Y-0.5145 Z-0.0148 I0.0039 J-0.0238
N9430 X0.3266 Y-0.5105 Z-0.0176 I0.0193 J0.0144
N9435 X0.3043 Y-0.476 Z-0.0204 I-0.0216 J0.0104
N9440 X0.284 Y-0.5117 Z-0.0232 I0.0007 J-0.024
N9445 X0.3249 Y-0.5132 Z-0.026 I0.0209 J0.0116
N9450 X0.3075 Y-0.4763 Z-0.0288 I-0.0199 J0.0132
N9455 X0.2828 Y-0.5087 Z-0.0316 I-0.0025 J-0.0237
N9460 X0.3228 Y-0.5157 Z-0.0344 I0.0221 J0.0087
N9465 X0.3106 Y-0.477 Z-0.0372 I-0.0178 J0.0156
N9470 X0.282 Y-0.5056 Z-0.04 I-0.0057 J-0.023
N9475 X0.3204 Y-0.5178 Z-0.0428 I0.023 J0.0056
N9480 X0.3136 Y-0.4781 Z-0.0456 I-0.0155 J0.0178
N9485 X0.2816 Y-0.5024 Z-0.0484 I-0.0086 J-0.0219
N9490 X0.3178 Y-0.5196 Z-0.0512 I0.0234 J0.0024
N9495 X0.3164 Y-0.4796 Z-0.054 I-0.0129 J0.0196
N9500 X0.2816 Y-0.4992 Z-0.0568 I-0.0114 J-0.0204
N9505 X0.315 Y-0.5211 Z-0.0596 I0.0233 J-0.0008
N9510 X0.319 Y-0.4815 Z-0.0624 I-0.01 J0.021
N9515 X0.2821 Y-0.4961 Z-0.0652 I-0.014 J-0.0185
N9520 X0.312 Y-0.5221 Z-0.068 I0.0229 J-0.0039
N9525 X0.3213 Y-0.4836 Z-0.0708 I-0.0071 J0.022
N9530 X0.283 Y-0.4931 Z-0.0736 I-0.0163 J-0.0164
N9535 X0.309 Y-0.5227 Z-0.0764 I0.022 J-0.0069
N9540 X0.3232 Y-0.4861 Z-0.0792 I-0.004 J0.0226
N9545 X0.2842 Y-0.4903 Z-0.082 I-0.0182 J-0.014
N9550 X0.3059 Y-0.5229 Z-0.0848 I0.0207 J-0.0097
N9555 X0.3248 Y-0.4887 Z-0.0876 I-0.0009 J0.0228
N9560 X0.2858 Y-0.4877 Z-0.0904 I-0.0198 J-0.0113
N9565 X0.3028 Y-0.5226 Z-0.0932 I0.0191 J-0.0123
N9570 X0.326 Y-0.4915 Z-0.096 I0.0022 J0.0226
N9575 X0.2878 Y-0.4853 Z-0.0988 I-0.021 J-0.0085
N9580 X0.2998 Y-0.522 Z-0.1016 I0.0172 J-0.0147
N9585 X0.3268 Y-0.4945 Z-0.1044 I0.0051 J0.022
N9590 X0.29 Y-0.4832 Z-0.1072 I-0.0218 J-0.0055
N9595 X0.2969 Y-0.521 Z-0.11 I0.0149 J-0.0168
N9600 X0.3272 Y-0.4975 Z-0.1128 I0.008 J0.0209
N9605 X0.2925 Y-0.4815 Z-0.1156 I-0.0222 J-0.0025
N9610 X0.2943 Y-0.5196 Z-0.1184 I0.0124 J-0.0185
N9615 X0.3272 Y-0.5005 Z-0.1212 I0.0107 J0.0195
N9620 X0.2952 Y-0.4801 Z-0.124 I-0.0222 J0.0005
N9625 X0.2918 Y-0.5178 Z-0.1268 I0.0098 J-0.0199
N9630 X0.3268 Y-0.5035 Z-0.1296 I0.0131 J0.0178
N9635 X0.298 Y-0.4791 Z-0.1324 I-0.0218 J0.0035
N9640 X0.2896 Y-0.5158 Z-0.1352 I0.007 J-0.0209
N9645 X0.326 Y-0.5064 Z-0.138 I0.0153 J0.0158
N9650 X0.3009 Y-0.4785 Z-0.1408 I-0.021 J0.0063
N9655 X0.2878 Y-0.5135 Z-0.1436 I0.0041 J-0.0215
N9660 X0.3248 Y-0.5091 Z-0.1464 I0.0172 J0.0135
N9665 X0.3039 Y-0.4783 Z-0.1492 I-0.0198 J0.009
N9670 X0.2862 Y-0.511 Z-0.152 I0.0011 J-0.0217
N9675 X0.3233 Y-0.5116 Z-0.1548 I0.0187 J0.011
N9680 X0.3068 Y-0.4785 Z-0.1576 I-0.0183 J0.0115
N9685 X0.2851 Y-0.5083 Z-0.1604 I-0.0018 J-0.0215
N9690 X0.3214 Y-0.5138 Z-0.1632 I0.0199 J0.0083
N9695 X0.3096 Y-0.4791 Z-0.166 I-0.0165 J0.0138
N9700 X0.2843 Y-0.5055 Z-0.1688 I-0.0047 J-0.0209
N9705 X0.3193 Y-0.5158 Z-0.1716 I0.0207 J0.0055
N9710 X0.3124 Y-0.48 Z-0.1744 I-0.0144 J0.0158
N9715 X0.2839 Y-0.5026 Z-0.1772 I-0.0074 J-0.02
N9720 X0.317 Y-0.5175 Z-0.18 I0.0211 J0.0026
N9725 X0.3149 Y-0.4814 Z-0.1828 I-0.012 J0.0175
N9730 X0.2839 Y-0.4998 Z-0.1856 I-0.0099 J-0.0187
N9735 X0.3144 Y-0.5188 Z-0.1884 I0.0211 J-0.0002
N9740 X0.3173 Y-0.483 Z-0.1912 I-0.0095 J0.0188
N9745 X0.2842 Y-0.497 Z-0.194 I-0.0123 J-0.017
N9750 X0.3118 Y-0.5198 Z-0.1968 I0.0207 J-0.003
N9755 X0.3193 Y-0.4849 Z-0.1996 I-0.0068 J0.0197
N9760 X0.285 Y-0.4942 Z-0.2024 I-0.0144 J-0.0151
N9765 X0.309 Y-0.5204 Z-0.2052 I0.02 J-0.0058
N9770 X0.3211 Y-0.4871 Z-0.208 I-0.0041 J0.0203
N9775 X0.2861 Y-0.4916 Z-0.2108 I-0.0161 J-0.0129
N9780 X0.3062 Y-0.5206 Z-0.2136 I0.0189 J-0.0084
N9785 X0.3226 Y-0.4894 Z-0.2164 I-0.0013 J0.0206
N9790 X0.2875 Y-0.4893 Z-0.2192 I-0.0176 J-0.0106
N9795 X0.3035 Y-0.5204 Z-0.222 I0.0175 J-0.0107
N9800 X0.3237 Y-0.492 Z-0.2248 I0.0015 J0.0204
N9805 X0.2892 Y-0.4871 Z-0.2276 I-0.0187 J-0.008
N9810 X0.3007 Y-0.5199 Z-0.2304 I0.0157 J-0.0129
N9815 X0.3245 Y-0.4946 Z-0.2332 I0.0042 J0.0199
N9820 X0.2912 Y-0.4852 Z-0.236 I-0.0195 J-0.0054
N9825 X0.2982 Y-0.519 Z-0.2388 I0.0138 J-0.0148
N9830 X0.3249 Y-0.4973 Z-0.2416 I0.0068 J0.019
N9835 X0.2934 Y-0.4836 Z-0.2444 I-0.0199 J-0.0027
N9840 X0.2957 Y-0.5178 Z-0.2472 I0.0116 J-0.0164
N9845 X0.325 Y-0.5 Z-0.25 I0.0092 J0.0178
N9850 X0.2849 I-0.02 J0.
N9855 X0.325 I0.02 J0.
N9860 G1 X0.3264 Y-0.4854 F15.
N9865 X0.3253 Y-0.4793
N9870 X0.3219 Y-0.4742
N9875 X0.3168 Y-0.4707
N9880 X0.3108 Y-0.4695
N9885 X0.2922
N9890 X0.2863 Y-0.4698
N9895 X0.2805 Y-0.4714
N9900 X0.2751 Y-0.4741
N9905 X0.2704 Y-0.4778
N9910 X0.2653 Y-0.4853
N9915 X0.2626 Y-0.4939
N9920 X0.2624 Y-0.503
N9925 X0.2648 Y-0.5117
N9930 X0.2696 Y-0.5194
N9935 X0.2764 Y-0.5254
N9940 X0.2846 Y-0.5292
N9945 X0.2936 Y-0.5305
N9950 X0.3132
N9955 X0.3177 Y-0.5304
N9960 X0.3237 Y-0.5299
N9965 X0.3295 Y-0.5283
N9970 X0.337 Y-0.5232
N9975 X0.3428 Y-0.5161
N9980 X0.3462 Y-0.5076
N9985 X0.347 Y-0.4985
N9990 X0.3451 Y-0.4896
N9995 X0.3406 Y-0.4816
N10000 X0.334 Y-0.4753
N10005 X0.3259 Y-0.4712
N10010 X0.3169 Y-0.4696
N10015 X0.3161
N10020 G3 X0.3177 Y-0.5304 I0.002 J-0.0303
N10025 G1 X0.3214 Y-0.5303
N10030 X0.3424 Y-0.5292
N10035 X0.3484 Y-0.5286
N10040 X0.354 Y-0.5265
N10045 X0.359 Y-0.5233
N10050 X0.3646 Y-0.5164
N10055 X0.368 Y-0.5082
N10060 X0.3688 Y-0.4994
N10065 X0.3671 Y-0.4907
N10070 X0.3629 Y-0.4829
N10075 X0.3566 Y-0.4766
N10080 X0.3488 Y-0.4724
N10085 X0.3401 Y-0.4707
N10090 X0.3379 Y-0.4708
N10095 G3 X0.3424 Y-0.5292 I0.004 J-0.0291
N10100 G1 X0.3461 Y-0.529
N10105 X0.3543 Y-0.5277
N10110 X0.3557 Y-0.5273
N10115 X0.3591 Y-0.526
N10120 X0.3625 Y-0.5242
N10125 X0.3656 Y-0.522
N10130 X0.3687 Y-0.5191
N10135 X0.3707 Y-0.5165
N10140 X0.3725 Y-0.5137
N10145 X0.3739 Y-0.5109
N10150 X0.3752 Y-0.5068
N10155 X0.3759 Y-0.5027
N10160 X0.376 Y-0.4986
N10165 X0.3755 Y-0.4945
N10170 X0.3743 Y-0.4903
N10175 X0.3725 Y-0.4862
N10180 X0.3707 Y-0.4835
N10185 X0.3685 Y-0.4807
N10190 X0.3657 Y-0.478
N10195 X0.3625 Y-0.4758
N10200 X0.3605 Y-0.4746
N10205 X0.3584 Y-0.4737
N10210 X0.3543 Y-0.4723
N10215 X0.3461 Y-0.471
N10220 X0.3214 Y-0.4697
N10225 X0.3132 Y-0.4695
N10230 X0.3108
N10235 X0.307 Y-0.4699
N10240 X0.3043 Y-0.4703
N10245 X0.3016
N10250 X0.2989 Y-0.4701
N10255 X0.2956 Y-0.4697
N10260 X0.2922 Y-0.4695
N10265 X0.2679
N10270 X0.2619 Y-0.4698
N10275 X0.2562 Y-0.4717
N10280 X0.251 Y-0.4747
N10285 X0.2447 Y-0.482
N10290 X0.2409 Y-0.4908
N10295 X0.2399 Y-0.5004
N10300 X0.2419 Y-0.5098
N10305 X0.2465 Y-0.5182
N10310 X0.2535 Y-0.5248
N10315 X0.2621 Y-0.529
N10320 X0.2716 Y-0.5305
N10325 X0.2936
N10330 G3 X0.3079 Y-0.5177 I-0.0005 J0.015
N10335 X0.2679 Y-0.4695 I-0.0415 J0.0062
N10340 G1 X0.2461
N10345 X0.2401 Y-0.4698
N10350 X0.2344 Y-0.4717
N10355 X0.2291 Y-0.4746
N10360 X0.2228 Y-0.4819
N10365 X0.2189 Y-0.4907
N10370 X0.2179 Y-0.5002
N10375 X0.2198 Y-0.5097
N10380 X0.2244 Y-0.5181
N10385 X0.2314 Y-0.5248
N10390 X0.24 Y-0.529
N10395 X0.2495 Y-0.5305
N10400 X0.2716
N10405 G3 X0.2859 Y-0.5178 I-0.0005 J0.015
N10410 X0.2461 Y-0.4695 I-0.0413 J0.0065
N10415 G1 X0.2244
N10420 X0.2185 Y-0.4698
N10425 X0.2127 Y-0.4716
N10430 X0.2074 Y-0.4745
N10435 X0.201 Y-0.4817
N10440 X0.197 Y-0.4905
N10445 X0.1959 Y-0.5001
N10450 X0.1978 Y-0.5095
N10455 X0.2024 Y-0.518
N10460 X0.2093 Y-0.5247
N10465 X0.218 Y-0.529
N10470 X0.2275 Y-0.5305
N10475 X0.2495
N10480 G3 X0.2638 Y-0.5181 I-0.0005 J0.015
N10485 X0.2244 Y-0.4695 I-0.0408 J0.0072
N10490 G1 X0.2018
N10495 X0.1958 Y-0.4698
N10500 X0.1901 Y-0.4717
N10505 X0.1849 Y-0.4747
N10510 X0.1786 Y-0.482
N10515 X0.1748 Y-0.4908
N10520 X0.1738 Y-0.5003
N10525 X0.1757 Y-0.5097
N10530 X0.1803 Y-0.5182
N10535 X0.1873 Y-0.5248
N10540 X0.1959 Y-0.529
N10545 X0.2054 Y-0.5305
N10550 X0.2275
N10555 G3 X0.2418 Y-0.5177 I-0.0005 J0.015
N10560 X0.2018 Y-0.4695 I-0.0415 J0.0063
N10565 G1 X0.1803
N10570 X0.1743 Y-0.4698
N10575 X0.1686 Y-0.4716
N10580 X0.1633 Y-0.4745
N10585 X0.1569 Y-0.4817
N10590 X0.1529 Y-0.4905
N10595 X0.1518 Y-0.5001
N10600 X0.1537 Y-0.5095
N10605 X0.1583 Y-0.518
N10610 X0.1652 Y-0.5247
N10615 X0.1739 Y-0.529
N10620 X0.1834 Y-0.5305
N10625 X0.2054
N10630 G3 X0.2197 Y-0.518 I-0.0005 J0.015
N10635 X0.1803 Y-0.4695 I-0.0408 J0.0071
N10640 G1 X0.1587
N10645 X0.1527 Y-0.4698
N10650 X0.1469 Y-0.4715
N10655 X0.1416 Y-0.4743
N10660 X0.1351 Y-0.4815
N10665 X0.1311 Y-0.4903
N10670 X0.1299 Y-0.4999
N10675 X0.1317 Y-0.5094
N10680 X0.1363 Y-0.518
N10685 X0.1432 Y-0.5247
N10690 X0.1519 Y-0.529
N10695 X0.1615 Y-0.5305
N10700 X0.1834
N10705 G3 X0.1976 Y-0.5182 I-0.0005 J0.015
N10710 X0.1587 Y-0.4695 I-0.0404 J0.0076
N10715 G1 X0.1361
N10720 X0.1301 Y-0.4698
N10725 X0.1244 Y-0.4717
N10730 X0.1191 Y-0.4746
N10735 X0.1128 Y-0.4819
N10740 X0.1089 Y-0.4907
N10745 X0.1078 Y-0.5002
N10750 X0.1097 Y-0.5097
N10755 X0.1143 Y-0.5181
N10760 X0.1213 Y-0.5248
N10765 X0.1299 Y-0.529
N10770 X0.1394 Y-0.5305
N10775 X0.1615
N10780 G3 X0.1758 Y-0.5179 I-0.0005 J0.015
N10785 X0.1361 Y-0.4695 I-0.0412 J0.0066
N10790 G1 X0.1134
N10795 X0.1074 Y-0.4698
N10800 X0.1018 Y-0.4718
N10805 X0.0966 Y-0.4748
N10810 X0.0904 Y-0.4821
N10815 X0.0866 Y-0.4909
N10820 X0.0856 Y-0.5004
N10825 X0.0876 Y-0.5098
N10830 X0.0922 Y-0.5182
N10835 X0.0992 Y-0.5248
N10840 X0.1078 Y-0.529
N10845 X0.1172 Y-0.5305
N10850 X0.1394
N10855 G3 X0.1538 Y-0.5175 I-0.0005 J0.015
N10860 X0.1134 Y-0.4695 I-0.0418 J0.0058
N10865 G1 X0.0912
N10870 X0.0853 Y-0.4698
N10875 X0.0796 Y-0.4718
N10880 X0.0744 Y-0.4748
N10885 X0.0682 Y-0.4821
N10890 X0.0644 Y-0.4909
N10895 X0.0634 Y-0.5004
N10900 X0.0654 Y-0.5098
N10905 X0.07 Y-0.5182
N10910 X0.077 Y-0.5248
N10915 X0.0856 Y-0.529
N10920 X0.0951 Y-0.5305
N10925 X0.1172
N10930 G3 X0.1316 Y-0.5175 I-0.0005 J0.015
N10935 X0.0912 Y-0.4695 I-0.0418 J0.0058
N10940 G1 X0.0703
N10945 X0.0643 Y-0.4698
N10950 X0.0585 Y-0.4715
N10955 X0.0532 Y-0.4743
N10960 X0.0467 Y-0.4815
N10965 X0.0427 Y-0.4903
N10970 X0.0415 Y-0.4999
N10975 X0.0433 Y-0.5094
N10980 X0.0479 Y-0.518
N10985 X0.0549 Y-0.5247
N10990 X0.0635 Y-0.529
N10995 X0.0731 Y-0.5305
N11000 X0.0951
N11005 G3 X0.1093 Y-0.5182 I-0.0005 J0.015
N11010 X0.0703 Y-0.4695 I-0.0405 J0.0075
N11015 G1 X0.0477
N11020 X0.0417 Y-0.4698
N11025 X0.036 Y-0.4717
N11030 X0.0307 Y-0.4746
N11035 X0.0244 Y-0.4819
N11040 X0.0205 Y-0.4907
N11045 X0.0195 Y-0.5002
N11050 X0.0213 Y-0.5097
N11055 X0.026 Y-0.5181
N11060 X0.0329 Y-0.5248
N11065 X0.0415 Y-0.529
N11070 X0.051 Y-0.5305
N11075 X0.0731
N11080 G3 X0.0874 Y-0.5178 I-0.0005 J0.015
N11085 X0.0477 Y-0.4695 I-0.0412 J0.0066
N11090 G1 X0.0255
N11095 X0.0195 Y-0.4698
N11100 X0.0138 Y-0.4717
N11105 X0.0086 Y-0.4747
N11110 X0.0022 Y-0.4819
N11115 X-0.0016 Y-0.4907
N11120 X-0.0026 Y-0.5003
N11125 X-0.0008 Y-0.5097
N11130 X0.0039 Y-0.5181
N11135 X0.0108 Y-0.5248
N11140 X0.0195 Y-0.529
N11145 X0.029 Y-0.5305
N11150 X0.051
N11155 G3 X0.0654 Y-0.5178 I-0.0005 J0.015
N11160 X0.0255 Y-0.4695 I-0.0413 J0.0065
N11165 G1 X0.0045
N11170 X-0.0015 Y-0.4698
N11175 X-0.0072 Y-0.4715
N11180 X-0.0126 Y-0.4742
N11185 X-0.0191 Y-0.4814
N11190 X-0.0232 Y-0.4902
N11195 X-0.0245 Y-0.4998
N11200 X-0.0227 Y-0.5093
N11205 X-0.0182 Y-0.5179
N11210 X-0.0112 Y-0.5247
N11215 X-0.0025 Y-0.529
N11220 X0.0071 Y-0.5305
N11225 X0.029
N11230 G3 X0.0432 Y-0.5184 I-0.0005 J0.015
N11235 X0.0045 Y-0.4695 I-0.0401 J0.008
N11240 G1 X-0.0181
N11245 X-0.0241 Y-0.4698
N11250 X-0.0298 Y-0.4716
N11255 X-0.0351 Y-0.4745
N11260 X-0.0415 Y-0.4817
N11265 X-0.0454 Y-0.4905
N11270 X-0.0465 Y-0.5001
N11275 X-0.0447 Y-0.5096
N11280 X-0.0401 Y-0.518
N11285 X-0.0331 Y-0.5247
N11290 X-0.0245 Y-0.529
N11295 X-0.0149 Y-0.5305
N11300 X0.0071
N11305 G3 X0.0214 Y-0.518 I-0.0005 J0.015
N11310 X-0.0181 Y-0.4695 I-0.0409 J0.007
N11315 G1 X-0.0403
N11320 X-0.0463 Y-0.4698
N11325 X-0.052 Y-0.4717
N11330 X-0.0572 Y-0.4746
N11335 X-0.0636 Y-0.4818
N11340 X-0.0675 Y-0.4906
N11345 X-0.0686 Y-0.5002
N11350 X-0.0667 Y-0.5096
N11355 X-0.0621 Y-0.5181
N11360 X-0.0551 Y-0.5247
N11365 X-0.0465 Y-0.529
N11370 X-0.037 Y-0.5305
N11375 X-0.0149
N11380 G3 X-0.0006 Y-0.5179 I-0.0005 J0.015
N11385 X-0.0403 Y-0.4695 I-0.0411 J0.0068
N11390 G1 X-0.0612
N11395 X-0.0672 Y-0.4698
N11400 X-0.073 Y-0.4714
N11405 X-0.0784 Y-0.4742
N11410 X-0.085 Y-0.4813
N11415 X-0.0891 Y-0.4901
N11420 X-0.0904 Y-0.4997
N11425 X-0.0886 Y-0.5093
N11430 X-0.0841 Y-0.5178
N11435 X-0.0771 Y-0.5246
N11440 X-0.0684 Y-0.529
N11445 X-0.0588 Y-0.5305
N11450 X-0.037
N11455 G3 X-0.0228 Y-0.5185 I-0.0005 J0.015
N11460 X-0.0612 Y-0.4695 I-0.0399 J0.0083
N11465 G1 X-0.0839
N11470 X-0.0899 Y-0.4698
N11475 X-0.0956 Y-0.4716
N11480 X-0.1009 Y-0.4745
N11485 X-0.1073 Y-0.4817
N11490 X-0.1113 Y-0.4905
N11495 X-0.1124 Y-0.5001
N11500 X-0.1106 Y-0.5095
N11505 X-0.106 Y-0.518
N11510 X-0.099 Y-0.5247
N11515 X-0.0904 Y-0.529
N11520 X-0.0808 Y-0.5305
N11525 X-0.0588
N11530 G3 X-0.0446 Y-0.5181 I-0.0005 J0.015
N11535 X-0.0839 Y-0.4695 I-0.0408 J0.0072
N11540 G1 X-0.106
N11545 X-0.112 Y-0.4698
N11550 X-0.1177 Y-0.4717
N11555 X-0.123 Y-0.4746
N11560 X-0.1294 Y-0.4818
N11565 X-0.1333 Y-0.4906
N11570 X-0.1344 Y-0.5001
N11575 X-0.1326 Y-0.5096
N11580 X-0.1279 Y-0.5181
N11585 X-0.121 Y-0.5247
N11590 X-0.1124 Y-0.529
N11595 X-0.1028 Y-0.5305
N11600 X-0.0808
N11605 G3 X-0.0665 Y-0.518 I-0.0005 J0.015
N11610 X-0.106 Y-0.4695 I-0.041 J0.0069
N11615 G1 X-0.1281
N11620 X-0.1341 Y-0.4698
N11625 X-0.1398 Y-0.4717
N11630 X-0.1451 Y-0.4746
N11635 X-0.1515 Y-0.4818
N11640 X-0.1554 Y-0.4906
N11645 X-0.1564 Y-0.5002
N11650 X-0.1546 Y-0.5096
N11655 X-0.15 Y-0.5181
N11660 X-0.143 Y-0.5247
N11665 X-0.1344 Y-0.529
N11670 X-0.1249 Y-0.5305
N11675 X-0.1028
N11680 G3 X-0.0885 Y-0.5179 I-0.0005 J0.015
N11685 X-0.1281 Y-0.4695 I-0.041 J0.0068
N11690 G1 X-0.1496
N11695 X-0.1556 Y-0.4698
N11700 X-0.1614 Y-0.4716
N11705 X-0.1667 Y-0.4744
N11710 X-0.1732 Y-0.4815
N11715 X-0.1772 Y-0.4903
N11720 X-0.1784 Y-0.4999
N11725 X-0.1766 Y-0.5094
N11730 X-0.172 Y-0.518
N11735 X-0.165 Y-0.5247
N11740 X-0.1564 Y-0.529
N11745 X-0.1468 Y-0.5305
N11750 X-0.1249
N11755 G3 X-0.1106 Y-0.5182 I-0.0005 J0.015
N11760 X-0.1496 Y-0.4695 I-0.0405 J0.0076
N11765 G1 X-0.1718
N11770 X-0.1778 Y-0.4698
N11775 X-0.1835 Y-0.4716
N11780 X-0.1888 Y-0.4745
N11785 X-0.1952 Y-0.4817
N11790 X-0.1992 Y-0.4905
N11795 X-0.2003 Y-0.5001
N11800 X-0.1985 Y-0.5095
N11805 X-0.1939 Y-0.518
N11810 X-0.187 Y-0.5247
N11815 X-0.1783 Y-0.529
N11820 X-0.1688 Y-0.5305
N11825 X-0.1468
N11830 G3 X-0.1325 Y-0.5181 I-0.0005 J0.015
N11835 X-0.1718 Y-0.4695 I-0.0407 J0.0072
N11840 G1 X-0.1948
N11845 X-0.2008 Y-0.4698
N11850 X-0.2065 Y-0.4718
N11855 X-0.2116 Y-0.4748
N11860 X-0.2179 Y-0.4821
N11865 X-0.2216 Y-0.4909
N11870 X-0.2226 Y-0.5005
N11875 X-0.2206 Y-0.5099
N11880 X-0.216 Y-0.5182
N11885 X-0.209 Y-0.5248
N11890 X-0.2004 Y-0.529
N11895 X-0.1909 Y-0.5305
N11900 X-0.1688
N11905 G3 X-0.1544 Y-0.5175 I-0.0005 J0.015
N11910 X-0.1948 Y-0.4695 I-0.0419 J0.0058
N11915 G1 X-0.2154
N11920 X-0.2214 Y-0.4698
N11925 X-0.2272 Y-0.4715
N11930 X-0.2325 Y-0.4742
N11935 X-0.2391 Y-0.4813
N11940 X-0.2432 Y-0.4901
N11945 X-0.2444 Y-0.4998
N11950 X-0.2427 Y-0.5093
N11955 X-0.2381 Y-0.5179
N11960 X-0.2311 Y-0.5247
N11965 X-0.2225 Y-0.529
N11970 X-0.2129 Y-0.5305
N11975 X-0.1909
N11980 G3 X-0.1767 Y-0.5184 I-0.0005 J0.015
N11985 X-0.2154 Y-0.4695 I-0.0401 J0.008
N11990 G1 X-0.2376
N11995 X-0.2436 Y-0.4698
N12000 X-0.2493 Y-0.4715
N12005 X-0.2546 Y-0.4744
N12010 X-0.2611 Y-0.4815
N12015 X-0.2652 Y-0.4903
N12020 X-0.2663 Y-0.4999
N12025 X-0.2645 Y-0.5094
N12030 X-0.26 Y-0.518
N12035 X-0.253 Y-0.5247
N12040 X-0.2444 Y-0.529
N12045 X-0.2348 Y-0.5305
N12050 X-0.2129
N12055 G3 X-0.1986 Y-0.5183 I-0.0005 J0.015
N12060 X-0.2376 Y-0.4695 I-0.0404 J0.0076
N12065 G1 X-0.254
N12070 X-0.2606 Y-0.4696
N12075 X-0.2666 Y-0.4699
N12080 X-0.2722 Y-0.4719
N12085 X-0.2774 Y-0.4749
N12090 X-0.2837 Y-0.4821
N12095 X-0.2875 Y-0.4908
N12100 X-0.2885 Y-0.5003
N12105 X-0.2866 Y-0.5097
N12110 X-0.282 Y-0.518
N12115 X-0.2752 Y-0.5247
N12120 X-0.2666 Y-0.5289
N12125 X-0.2572 Y-0.5305
N12130 X-0.2458
N12135 X-0.2348
N12140 G3 X-0.2204 Y-0.5178 I-0.0005 J0.0151
N12145 X-0.2606 Y-0.4696 I-0.0412 J0.0065
N12150 G1 X-0.2718 Y-0.4698
N12155 X-0.2787 Y-0.4705
N12160 X-0.2852 Y-0.4715
N12165 X-0.2869 Y-0.4718
N12170 X-0.2881 Y-0.4721
N12175 X-0.2913 Y-0.473
N12180 X-0.2932 Y-0.4737
N12185 X-0.2951 Y-0.4744
N12190 G3 X-0.2864 Y-0.4945 I0.0058 J-0.0094
N12195 G1 X-0.2832 Y-0.4936
N12200 G3 X-0.2881 Y-0.4721 I-0.0028 J0.0107
N12205 G1 X-0.291 Y-0.4728
N12210 X-0.2951 Y-0.4744
N12215 X-0.2966 Y-0.4753
N12220 X-0.2979 Y-0.476
N12225 X-0.3007 Y-0.478
N12230 X-0.3033 Y-0.4805
N12235 X-0.3057 Y-0.4834
N12240 X-0.3075 Y-0.4862
N12245 X-0.3093 Y-0.4903
N12250 X-0.3105 Y-0.4945
N12255 X-0.311 Y-0.4986
N12260 X-0.3109 Y-0.5027
N12265 X-0.3102 Y-0.5068
N12270 X-0.3089 Y-0.5109
N12275 X-0.3067 Y-0.515
N12280 X-0.3054 Y-0.5171
N12285 X-0.3037 Y-0.5191
N12290 X-0.3033 Y-0.5195
N12295 X-0.3013 Y-0.5215
N12300 X-0.2992 Y-0.5231
N12305 X-0.2951 Y-0.5256
N12310 X-0.2907 Y-0.5273
N12315 X-0.2869 Y-0.5282
N12320 X-0.2787 Y-0.5295
N12325 X-0.2705 Y-0.5302
N12330 X-0.2622 Y-0.5304
N12335 X-0.2572 Y-0.5305
N12340 X-0.2543 Y-0.5302
N12345 X-0.2514 Y-0.5296
N12350 X-0.2487 Y-0.5283 Z-0.2498
N12355 X-0.246 Y-0.5271 Z-0.2493
N12360 X-0.2434 Y-0.5259 Z-0.2484
N12365 X-0.2412 Y-0.5236 Z-0.2469
N12370 X-0.2391 Y-0.5215 Z-0.245
N12375 X-0.2372 Y-0.5196 Z-0.2427
N12380 X-0.2361 Y-0.5173 Z-0.2397
N12385 X-0.2352 Y-0.5155 Z-0.2364
N12390 X-0.2346 Y-0.5141 Z-0.2327
N12395 X-0.2342 Y-0.5133 Z-0.2289
N12400 X-0.234 Y-0.513 Z-0.225
N12405 Z0.6
N12410 X3.4568 Y-0.4741
N12415 Z0.1
N12420 G3 X3.429 Y-0.509 Z0.0972 I-0.0033 J-0.0259 F10.
N12425 X3.4726 Y-0.5176 Z0.0944 I0.0244 J0.0089
N12430 X3.4602 Y-0.475 Z0.0916 I-0.0192 J0.0175
N12435 X3.4281 Y-0.5055 Z0.0888 I-0.0067 J-0.025
N12440 X3.47 Y-0.5199 Z0.086 I0.0253 J0.0055
N12445 X3.4635 Y-0.4762 Z0.0832 I-0.0165 J0.0198
N12450 X3.4278 Y-0.5021 Z0.0804 I-0.01 J-0.0238
N12455 X3.4671 Y-0.5218 Z0.0776 I0.0256 J0.0021
N12460 X3.4665 Y-0.4779 Z0.0748 I-0.0136 J0.0218
N12465 X3.4279 Y-0.4986 Z0.072 I-0.013 J-0.0221
N12470 X3.4639 Y-0.5233 Z0.0692 I0.0255 J-0.0014
N12475 X3.4693 Y-0.48 Z0.0664 I-0.0105 J0.0233
N12480 X3.4284 Y-0.4952 Z0.0636 I-0.0158 J-0.02
N12485 X3.4607 Y-0.5244 Z0.0608 I0.025 J-0.0048
N12490 X3.4717 Y-0.4824 Z0.058 I-0.0072 J0.0243
N12495 X3.4295 Y-0.4919 Z0.0552 I-0.0182 J-0.0176
N12500 X3.4573 Y-0.525 Z0.0524 I0.024 J-0.0081
N12505 X3.4738 Y-0.4851 Z0.0496 I-0.0039 J0.0249
N12510 X3.4309 Y-0.4888 Z0.0468 I-0.0203 J-0.0149
N12515 X3.4539 Y-0.5251 Z0.044 I0.0225 J-0.0112
N12520 X3.4755 Y-0.4881 Z0.0412 I-0.0005 J0.0251
N12525 X3.4327 Y-0.486 Z0.0384 I-0.022 J-0.0119
N12530 X3.4505 Y-0.5248 Z0.0356 I0.0207 J-0.014
N12535 X3.4768 Y-0.4912 Z0.0328 I0.0029 J0.0248
N12540 X3.4349 Y-0.4834 Z0.03 I-0.0233 J-0.0088
N12545 X3.4472 Y-0.5241 Z0.0272 I0.0185 J-0.0166
N12550 X3.4776 Y-0.4945 Z0.0244 I0.0062 J0.024
N12555 X3.4374 Y-0.4812 Z0.0216 I-0.0241 J-0.0056
N12560 X3.4441 Y-0.5229 Z0.0188 I0.016 J-0.0188
N12565 X3.478 Y-0.4978 Z0.016 I0.0093 J0.0228
N12570 X3.4402 Y-0.4793 Z0.0132 I-0.0245 J-0.0022
N12575 X3.4412 Y-0.5213 Z0.0104 I0.0132 J-0.0207
N12580 X3.4779 Y-0.5011 Z0.0076 I0.0122 J0.0212
N12585 X3.4432 Y-0.4779 Z0.0048 I-0.0244 J0.0011
N12590 X3.4385 Y-0.5193 Z0.002 I0.0103 J-0.0221
N12595 X3.4774 Y-0.5044 Z-0.0008 I0.0149 J0.0193
N12600 X3.4463 Y-0.4768 Z-0.0036 I-0.0239 J0.0043
N12605 X3.4362 Y-0.517 Z-0.0064 I0.0072 J-0.0232
N12610 X3.4764 Y-0.5075 Z-0.0092 I0.0172 J0.017
N12615 X3.4495 Y-0.4762 Z-0.012 I-0.023 J0.0075
N12620 X3.4342 Y-0.5145 Z-0.0148 I0.0039 J-0.0238
N12625 X3.4751 Y-0.5105 Z-0.0176 I0.0193 J0.0144
N12630 X3.4528 Y-0.476 Z-0.0204 I-0.0216 J0.0104
N12635 X3.4325 Y-0.5117 Z-0.0232 I0.0007 J-0.024
N12640 X3.4734 Y-0.5132 Z-0.026 I0.0209 J0.0116
N12645 X3.456 Y-0.4763 Z-0.0288 I-0.0199 J0.0132
N12650 X3.4313 Y-0.5087 Z-0.0316 I-0.0025 J-0.0237
N12655 X3.4713 Y-0.5157 Z-0.0344 I0.0221 J0.0087
N12660 X3.4591 Y-0.477 Z-0.0372 I-0.0178 J0.0156
N12665 X3.4305 Y-0.5056 Z-0.04 I-0.0057 J-0.023
N12670 X3.4689 Y-0.5178 Z-0.0428 I0.023 J0.0056
N12675 X3.4621 Y-0.4781 Z-0.0456 I-0.0155 J0.0178
N12680 X3.4301 Y-0.5024 Z-0.0484 I-0.0086 J-0.0219
N12685 X3.4663 Y-0.5196 Z-0.0512 I0.0234 J0.0024
N12690 X3.4649 Y-0.4796 Z-0.054 I-0.0129 J0.0196
N12695 X3.4301 Y-0.4992 Z-0.0568 I-0.0114 J-0.0204
N12700 X3.4635 Y-0.5211 Z-0.0596 I0.0233 J-0.0008
N12705 X3.4675 Y-0.4815 Z-0.0624 I-0.01 J0.021
N12710 X3.4306 Y-0.4961 Z-0.0652 I-0.014 J-0.0185
N12715 X3.4605 Y-0.5221 Z-0.068 I0.0229 J-0.0039
N12720 X3.4697 Y-0.4836 Z-0.0708 I-0.0071 J0.022
N12725 X3.4314 Y-0.4931 Z-0.0736 I-0.0163 J-0.0164
N12730 X3.4574 Y-0.5227 Z-0.0764 I0.022 J-0.0069
N12735 X3.4717 Y-0.4861 Z-0.0792 I-0.004 J0.0226
N12740 X3.4327 Y-0.4903 Z-0.082 I-0.0182 J-0.014
N12745 X3.4543 Y-0.5229 Z-0.0848 I0.0207 J-0.0097
N12750 X3.4733 Y-0.4887 Z-0.0876 I-0.0009 J0.0228
N12755 X3.4343 Y-0.4877 Z-0.0904 I-0.0198 J-0.0113
N12760 X3.4513 Y-0.5226 Z-0.0932 I0.0191 J-0.0123
N12765 X3.4745 Y-0.4915 Z-0.096 I0.0022 J0.0226
N12770 X3.4363 Y-0.4853 Z-0.0988 I-0.021 J-0.0085
N12775 X3.4483 Y-0.522 Z-0.1016 I0.0172 J-0.0147
N12780 X3.4753 Y-0.4945 Z-0.1044 I0.0051 J0.022
N12785 X3.4385 Y-0.4832 Z-0.1072 I-0.0218 J-0.0055
N12790 X3.4454 Y-0.521 Z-0.11 I0.0149 J-0.0168
N12795 X3.4757 Y-0.4975 Z-0.1128 I0.008 J0.0209
N12800 X3.441 Y-0.4815 Z-0.1156 I-0.0222 J-0.0025
N12805 X3.4427 Y-0.5196 Z-0.1184 I0.0124 J-0.0185
N12810 X3.4757 Y-0.5005 Z-0.1212 I0.0107 J0.0195
N12815 X3.4437 Y-0.4801 Z-0.124 I-0.0222 J0.0005
N12820 X3.4403 Y-0.5178 Z-0.1268 I0.0098 J-0.0199
N12825 X3.4753 Y-0.5035 Z-0.1296 I0.0131 J0.0178
N12830 X3.4465 Y-0.4791 Z-0.1324 I-0.0218 J0.0035
N12835 X3.4381 Y-0.5158 Z-0.1352 I0.007 J-0.0209
N12840 X3.4744 Y-0.5064 Z-0.138 I0.0153 J0.0158
N12845 X3.4494 Y-0.4785 Z-0.1408 I-0.021 J0.0063
N12850 X3.4362 Y-0.5135 Z-0.1436 I0.0041 J-0.0215
N12855 X3.4733 Y-0.5091 Z-0.1464 I0.0172 J0.0135
N12860 X3.4523 Y-0.4783 Z-0.1492 I-0.0198 J0.009
N12865 X3.4347 Y-0.511 Z-0.152 I0.0011 J-0.0217
N12870 X3.4717 Y-0.5116 Z-0.1548 I0.0187 J0.011
N12875 X3.4553 Y-0.4785 Z-0.1576 I-0.0183 J0.0115
N12880 X3.4335 Y-0.5083 Z-0.1604 I-0.0018 J-0.0215
N12885 X3.4699 Y-0.5138 Z-0.1632 I0.0199 J0.0083
N12890 X3.4581 Y-0.4791 Z-0.166 I-0.0165 J0.0138
N12895 X3.4327 Y-0.5055 Z-0.1688 I-0.0047 J-0.0209
N12900 X3.4678 Y-0.5158 Z-0.1716 I0.0207 J0.0055
N12905 X3.4608 Y-0.48 Z-0.1744 I-0.0144 J0.0158
N12910 X3.4323 Y-0.5026 Z-0.1772 I-0.0074 J-0.02
N12915 X3.4655 Y-0.5175 Z-0.18 I0.0211 J0.0026
N12920 X3.4634 Y-0.4814 Z-0.1828 I-0.012 J0.0175
N12925 X3.4323 Y-0.4998 Z-0.1856 I-0.0099 J-0.0187
N12930 X3.4629 Y-0.5188 Z-0.1884 I0.0211 J-0.0002
N12935 X3.4657 Y-0.483 Z-0.1912 I-0.0095 J0.0188
N12940 X3.4327 Y-0.497 Z-0.194 I-0.0123 J-0.017
N12945 X3.4603 Y-0.5198 Z-0.1968 I0.0207 J-0.003
N12950 X3.4678 Y-0.4849 Z-0.1996 I-0.0068 J0.0197
N12955 X3.4334 Y-0.4942 Z-0.2024 I-0.0144 J-0.0151
N12960 X3.4575 Y-0.5204 Z-0.2052 I0.02 J-0.0058
N12965 X3.4696 Y-0.4871 Z-0.208 I-0.0041 J0.0203
N12970 X3.4345 Y-0.4916 Z-0.2108 I-0.0161 J-0.0129
N12975 X3.4547 Y-0.5206 Z-0.2136 I0.0189 J-0.0084
N12980 X3.4711 Y-0.4894 Z-0.2164 I-0.0013 J0.0206
N12985 X3.436 Y-0.4893 Z-0.2192 I-0.0176 J-0.0106
N12990 X3.4519 Y-0.5204 Z-0.222 I0.0175 J-0.0107
N12995 X3.4722 Y-0.492 Z-0.2248 I0.0015 J0.0204
N13000 X3.4377 Y-0.4871 Z-0.2276 I-0.0187 J-0.008
N13005 X3.4492 Y-0.5199 Z-0.2304 I0.0157 J-0.0129
N13010 X3.473 Y-0.4946 Z-0.2332 I0.0042 J0.0199
N13015 X3.4397 Y-0.4852 Z-0.236 I-0.0195 J-0.0054
N13020 X3.4466 Y-0.519 Z-0.2388 I0.0138 J-0.0148
N13025 X3.4734 Y-0.4973 Z-0.2416 I0.0068 J0.019
N13030 X3.4419 Y-0.4836 Z-0.2444 I-0.0199 J-0.0027
N13035 X3.4442 Y-0.5178 Z-0.2472 I0.0116 J-0.0164
N13040 X3.4734 Y-0.5 Z-0.25 I0.0092 J0.0178
N13045 X3.4334 I-0.02 J0.
N13050 X3.4734 I0.02 J0.
N13055 G1 X3.4749 Y-0.4854 F15.
N13060 X3.4737 Y-0.4793
N13065 X3.4704 Y-0.4742
N13070 X3.4653 Y-0.4707
N13075 X3.4592 Y-0.4695
N13080 X3.4407
N13085 X3.4347 Y-0.4698
N13090 X3.4289 Y-0.4714
N13095 X3.4236 Y-0.4741
N13100 X3.4188 Y-0.4778
N13105 X3.4138 Y-0.4853
N13110 X3.411 Y-0.4939
N13115 X3.4109 Y-0.503
N13120 X3.4133 Y-0.5117
N13125 X3.4181 Y-0.5194
N13130 X3.4249 Y-0.5254
N13135 X3.4331 Y-0.5292
N13140 X3.4421 Y-0.5305
N13145 X3.4662
N13150 X3.4722 Y-0.5301
N13155 X3.478 Y-0.5285
N13160 X3.4856 Y-0.5233
N13165 X3.4914 Y-0.5161
N13170 X3.4948 Y-0.5075
N13175 X3.4955 Y-0.4983
N13180 X3.4935 Y-0.4893
N13185 X3.4889 Y-0.4813
N13190 X3.4821 Y-0.475
N13195 X3.4738 Y-0.4709
N13200 X3.4647 Y-0.4695
N13205 X3.4622 Y-0.4697
N13210 X3.4597 Y-0.4702
N13215 G2 X3.4495 Y-0.4705 I-0.0057 J0.0243
N13220 G1 X3.4452 Y-0.4698
N13225 X3.4407 Y-0.4695
N13230 X3.4164
N13235 X3.4104 Y-0.4698
N13240 X3.4047 Y-0.4717
N13245 X3.3995 Y-0.4747
N13250 X3.3932 Y-0.482
N13255 X3.3894 Y-0.4908
N13260 X3.3884 Y-0.5004
N13265 X3.3903 Y-0.5098
N13270 X3.395 Y-0.5182
N13275 X3.4019 Y-0.5248
N13280 X3.4106 Y-0.529
N13285 X3.42 Y-0.5305
N13290 X3.4421
N13295 X3.4446 Y-0.5303
N13300 X3.447 Y-0.5298
N13305 G2 X3.4572 Y-0.5295 I0.0058 J-0.0243
N13310 G1 X3.4617 Y-0.5302
N13315 X3.4662 Y-0.5305
N13320 X3.4699 Y-0.5304
N13325 X3.4909 Y-0.5291
N13330 X3.4968 Y-0.5284
N13335 X3.5024 Y-0.5263
N13340 X3.5075 Y-0.5231
N13345 X3.513 Y-0.5163
N13350 X3.5164 Y-0.5082
N13355 X3.5173 Y-0.4994
N13360 X3.5156 Y-0.4908
N13365 X3.5115 Y-0.4831
N13370 X3.5053 Y-0.4768
N13375 X3.4976 Y-0.4726
N13380 X3.489 Y-0.4708
N13385 X3.4872
N13390 G3 X3.4909 Y-0.5291 I0.0029 J-0.0291
N13395 G1 X3.4946 Y-0.5289
N13400 X3.5028 Y-0.528
N13405 X3.5053 Y-0.5273
N13410 X3.5082 Y-0.5263
N13415 X3.511 Y-0.5249
N13420 X3.5146 Y-0.5225
N13425 X3.5183 Y-0.5191
N13430 X3.5192 Y-0.518
N13435 X3.5217 Y-0.5145
N13440 X3.5235 Y-0.5109
N13445 X3.5248 Y-0.5068
N13450 X3.5255 Y-0.5027
N13455 X3.5256 Y-0.4986
N13460 X3.5251 Y-0.4945
N13465 X3.524 Y-0.4903
N13470 X3.5221 Y-0.4862
N13475 X3.5208 Y-0.4841
N13480 X3.5192 Y-0.482
N13485 X3.5174 Y-0.48
N13490 X3.5153 Y-0.478
N13495 X3.5132 Y-0.4764
N13500 X3.511 Y-0.4751
N13505 X3.5069 Y-0.4732
N13510 X3.5028 Y-0.472
N13515 X3.4946 Y-0.4711
N13520 X3.4699 Y-0.4696
N13525 X3.4647 Y-0.4695
N13530 G3 X3.4416 Y-0.4871 I0.0008 J-0.025
N13535 G1 X3.4404 Y-0.4908 Z-0.2497
N13540 X3.4393 Y-0.4944 Z-0.2488
N13545 X3.4382 Y-0.4979 Z-0.2473
N13550 X3.4372 Y-0.5011 Z-0.2452
N13555 X3.4363 Y-0.5039 Z-0.2427
N13560 X3.4356 Y-0.5064 Z-0.2397
N13565 X3.4349 Y-0.5083 Z-0.2363
N13570 X3.4345 Y-0.5098 Z-0.2327
N13575 X3.4342 Y-0.5106 Z-0.2289
N13580 X3.4341 Y-0.5109 Z-0.225
N13585 Z0.6
N13590 X3.4675 Y-0.491
N13595 Z-0.2
N13600 Z-0.225
N13605 X3.4672 Y-0.4909 Z-0.2289
N13610 X3.4665 Y-0.4904 Z-0.2327
N13615 X3.4652 Y-0.4896 Z-0.2363
N13620 X3.4634 Y-0.4886 Z-0.2397
N13625 X3.4612 Y-0.4873 Z-0.2427
N13630 X3.4587 Y-0.4857 Z-0.2452
N13635 X3.4558 Y-0.484 Z-0.2473
N13640 X3.4527 Y-0.4822 Z-0.2488
N13645 X3.4494 Y-0.4802 Z-0.2497
N13650 X3.446 Y-0.4782 Z-0.25
N13655 G3 X3.4164 Y-0.4695 I-0.0318 J-0.0536
N13660 G1 X3.3945
N13665 X3.3886 Y-0.4698
N13670 X3.3829 Y-0.4717
N13675 X3.3776 Y-0.4746
N13680 X3.3713 Y-0.4819
N13685 X3.3674 Y-0.4907
N13690 X3.3664 Y-0.5002
N13695 X3.3682 Y-0.5097
N13700 X3.3729 Y-0.5181
N13705 X3.3798 Y-0.5248
N13710 X3.3885 Y-0.529
N13715 X3.398 Y-0.5305
N13720 X3.42
N13725 G3 X3.4344 Y-0.5178 I-0.0005 J0.015
N13730 X3.3945 Y-0.4695 I-0.0413 J0.0065
N13735 G1 X3.3729
N13740 X3.3669 Y-0.4698
N13745 X3.3612 Y-0.4716
N13750 X3.3559 Y-0.4745
N13755 X3.3495 Y-0.4817
N13760 X3.3455 Y-0.4905
N13765 X3.3444 Y-0.5001
N13770 X3.3462 Y-0.5095
N13775 X3.3508 Y-0.518
N13780 X3.3578 Y-0.5247
N13785 X3.3664 Y-0.529
N13790 X3.376 Y-0.5305
N13795 X3.398
N13800 G3 X3.4122 Y-0.5181 I-0.0005 J0.015
N13805 X3.3729 Y-0.4695 I-0.0408 J0.0072
N13810 G1 X3.3503
N13815 X3.3443 Y-0.4698
N13820 X3.3386 Y-0.4717
N13825 X3.3334 Y-0.4747
N13830 X3.3271 Y-0.482
N13835 X3.3233 Y-0.4908
N13840 X3.3223 Y-0.5003
N13845 X3.3242 Y-0.5097
N13850 X3.3288 Y-0.5182
N13855 X3.3358 Y-0.5248
N13860 X3.3444 Y-0.529
N13865 X3.3539 Y-0.5305
N13870 X3.376
N13875 G3 X3.3903 Y-0.5177 I-0.0005 J0.015
N13880 X3.3503 Y-0.4695 I-0.0415 J0.0063
N13885 G1 X3.3288
N13890 X3.3228 Y-0.4698
N13895 X3.3171 Y-0.4716
N13900 X3.3118 Y-0.4745
N13905 X3.3054 Y-0.4817
N13910 X3.3014 Y-0.4905
N13915 X3.3003 Y-0.5001
N13920 X3.3021 Y-0.5095
N13925 X3.3067 Y-0.518
N13930 X3.3137 Y-0.5247
N13935 X3.3223 Y-0.529
N13940 X3.3319 Y-0.5305
N13945 X3.3539
N13950 G3 X3.3681 Y-0.518 I-0.0005 J0.015
N13955 X3.3288 Y-0.4695 I-0.0408 J0.0071
N13960 G1 X3.3072
N13965 X3.3012 Y-0.4698
N13970 X3.2954 Y-0.4715
N13975 X3.2901 Y-0.4743
N13980 X3.2836 Y-0.4815
N13985 X3.2796 Y-0.4903
N13990 X3.2784 Y-0.4999
N13995 X3.2802 Y-0.5094
N14000 X3.2848 Y-0.518
N14005 X3.2917 Y-0.5247
N14010 X3.3004 Y-0.529
N14015 X3.3099 Y-0.5305
N14020 X3.3319
N14025 G3 X3.3461 Y-0.5182 I-0.0005 J0.015
N14030 X3.3072 Y-0.4695 I-0.0404 J0.0076
N14035 G1 X3.2845
N14040 X3.2785 Y-0.4698
N14045 X3.2728 Y-0.4717
N14050 X3.2676 Y-0.4746
N14055 X3.2612 Y-0.4819
N14060 X3.2574 Y-0.4907
N14065 X3.2563 Y-0.5002
N14070 X3.2582 Y-0.5097
N14075 X3.2628 Y-0.5181
N14080 X3.2697 Y-0.5248
N14085 X3.2784 Y-0.529
N14090 X3.2879 Y-0.5305
N14095 X3.3099
N14100 G3 X3.3243 Y-0.5179 I-0.0005 J0.015
N14105 X3.2845 Y-0.4695 I-0.0412 J0.0066
N14110 G1 X3.2619
N14115 X3.2559 Y-0.4698
N14120 X3.2502 Y-0.4718
N14125 X3.2451 Y-0.4748
N14130 X3.2388 Y-0.4821
N14135 X3.2351 Y-0.4909
N14140 X3.2341 Y-0.5004
N14145 X3.236 Y-0.5098
N14150 X3.2407 Y-0.5182
N14155 X3.2476 Y-0.5248
N14160 X3.2562 Y-0.529
N14165 X3.2657 Y-0.5305
N14170 X3.2879
N14175 G3 X3.3022 Y-0.5175 I-0.0005 J0.015
N14180 X3.2619 Y-0.4695 I-0.0418 J0.0058
N14185 G1 X3.2397
N14190 X3.2337 Y-0.4698
N14195 X3.2281 Y-0.4718
N14200 X3.2229 Y-0.4748
N14205 X3.2166 Y-0.4821
N14210 X3.2129 Y-0.4909
N14215 X3.2119 Y-0.5004
N14220 X3.2139 Y-0.5098
N14225 X3.2185 Y-0.5182
N14230 X3.2255 Y-0.5248
N14235 X3.2341 Y-0.529
N14240 X3.2435 Y-0.5305
N14245 X3.2657
N14250 G3 X3.2801 Y-0.5175 I-0.0005 J0.015
N14255 X3.2397 Y-0.4695 I-0.0418 J0.0058
N14260 G1 X3.2188
N14265 X3.2128 Y-0.4698
N14270 X3.207 Y-0.4715
N14275 X3.2017 Y-0.4743
N14280 X3.1952 Y-0.4815
N14285 X3.1912 Y-0.4903
N14290 X3.19 Y-0.4999
N14295 X3.1918 Y-0.5094
N14300 X3.1964 Y-0.518
N14305 X3.2034 Y-0.5247
N14310 X3.212 Y-0.529
N14315 X3.2216 Y-0.5305
N14320 X3.2435
N14325 G3 X3.2578 Y-0.5182 I-0.0005 J0.015
N14330 X3.2188 Y-0.4695 I-0.0405 J0.0075
N14335 G1 X3.1961
N14340 X3.1901 Y-0.4698
N14345 X3.1844 Y-0.4717
N14350 X3.1792 Y-0.4746
N14355 X3.1729 Y-0.4819
N14360 X3.169 Y-0.4907
N14365 X3.1679 Y-0.5002
N14370 X3.1698 Y-0.5097
N14375 X3.1744 Y-0.5181
N14380 X3.1814 Y-0.5248
N14385 X3.19 Y-0.529
N14390 X3.1995 Y-0.5305
N14395 X3.2216
N14400 G3 X3.2359 Y-0.5178 I-0.0005 J0.015
N14405 X3.1961 Y-0.4695 I-0.0412 J0.0066
N14410 G1 X3.174
N14415 X3.168 Y-0.4698
N14420 X3.1623 Y-0.4717
N14425 X3.157 Y-0.4747
N14430 X3.1507 Y-0.4819
N14435 X3.1469 Y-0.4907
N14440 X3.1458 Y-0.5003
N14445 X3.1477 Y-0.5097
N14450 X3.1524 Y-0.5181
N14455 X3.1593 Y-0.5248
N14460 X3.1679 Y-0.529
N14465 X3.1774 Y-0.5305
N14470 X3.1995
N14475 G3 X3.2138 Y-0.5178 I-0.0005 J0.015
N14480 X3.174 Y-0.4695 I-0.0413 J0.0065
N14485 G1 X3.153
N14490 X3.147 Y-0.4698
N14495 X3.1412 Y-0.4715
N14500 X3.1359 Y-0.4742
N14505 X3.1293 Y-0.4814
N14510 X3.1252 Y-0.4902
N14515 X3.124 Y-0.4998
N14520 X3.1257 Y-0.5093
N14525 X3.1303 Y-0.5179
N14530 X3.1373 Y-0.5247
N14535 X3.146 Y-0.529
N14540 X3.1555 Y-0.5305
N14545 X3.1774
N14550 G3 X3.1917 Y-0.5184 I-0.0005 J0.015
N14555 X3.153 Y-0.4695 I-0.0401 J0.008
N14560 G1 X3.1304
N14565 X3.1244 Y-0.4698
N14570 X3.1187 Y-0.4716
N14575 X3.1134 Y-0.4745
N14580 X3.107 Y-0.4817
N14585 X3.1031 Y-0.4905
N14590 X3.102 Y-0.5001
N14595 X3.1038 Y-0.5096
N14600 X3.1084 Y-0.518
N14605 X3.1154 Y-0.5247
N14610 X3.124 Y-0.529
N14615 X3.1335 Y-0.5305
N14620 X3.1555
N14625 G3 X3.1698 Y-0.518 I-0.0005 J0.015
N14630 X3.1304 Y-0.4695 I-0.0409 J0.007
N14635 G1 X3.1082
N14640 X3.1022 Y-0.4698
N14645 X3.0965 Y-0.4717
N14650 X3.0913 Y-0.4746
N14655 X3.0849 Y-0.4818
N14660 X3.081 Y-0.4906
N14665 X3.0799 Y-0.5002
N14670 X3.0818 Y-0.5096
N14675 X3.0864 Y-0.5181
N14680 X3.0933 Y-0.5247
N14685 X3.102 Y-0.529
N14690 X3.1115 Y-0.5305
N14695 X3.1335
N14700 G3 X3.1478 Y-0.5179 I-0.0005 J0.015
N14705 X3.1082 Y-0.4695 I-0.0411 J0.0068
N14710 G1 X3.0872
N14715 X3.0812 Y-0.4698
N14720 X3.0755 Y-0.4714
N14725 X3.0701 Y-0.4742
N14730 X3.0635 Y-0.4813
N14735 X3.0594 Y-0.4901
N14740 X3.0581 Y-0.4997
N14745 X3.0598 Y-0.5093
N14750 X3.0644 Y-0.5178
N14755 X3.0713 Y-0.5246
N14760 X3.08 Y-0.529
N14765 X3.0896 Y-0.5305
N14770 X3.1115
N14775 G3 X3.1257 Y-0.5185 I-0.0005 J0.015
N14780 X3.0872 Y-0.4695 I-0.0399 J0.0083
N14785 G1 X3.0646
N14790 X3.0586 Y-0.4698
N14795 X3.0529 Y-0.4716
N14800 X3.0476 Y-0.4745
N14805 X3.0412 Y-0.4817
N14810 X3.0372 Y-0.4905
N14815 X3.0361 Y-0.5001
N14820 X3.0379 Y-0.5095
N14825 X3.0425 Y-0.518
N14830 X3.0495 Y-0.5247
N14835 X3.0581 Y-0.529
N14840 X3.0677 Y-0.5305
N14845 X3.0896
N14850 G3 X3.1039 Y-0.5181 I-0.0005 J0.015
N14855 X3.0646 Y-0.4695 I-0.0408 J0.0072
N14860 G1 X3.0424
N14865 X3.0364 Y-0.4698
N14870 X3.0307 Y-0.4717
N14875 X3.0255 Y-0.4746
N14880 X3.0191 Y-0.4818
N14885 X3.0152 Y-0.4906
N14890 X3.0141 Y-0.5001
N14895 X3.0159 Y-0.5096
N14900 X3.0205 Y-0.5181
N14905 X3.0275 Y-0.5247
N14910 X3.0361 Y-0.529
N14915 X3.0456 Y-0.5305
N14920 X3.0677
N14925 G3 X3.0819 Y-0.518 I-0.0005 J0.015
N14930 X3.0424 Y-0.4695 I-0.041 J0.0069
N14935 G1 X3.0203
N14940 X3.0144 Y-0.4698
N14945 X3.0086 Y-0.4717
N14950 X3.0034 Y-0.4746
N14955 X2.997 Y-0.4818
N14960 X2.9931 Y-0.4906
N14965 X2.992 Y-0.5002
N14970 X2.9939 Y-0.5096
N14975 X2.9985 Y-0.5181
N14980 X3.0055 Y-0.5247
N14985 X3.0141 Y-0.529
N14990 X3.0236 Y-0.5305
N14995 X3.0456
N15000 G3 X3.0599 Y-0.5179 I-0.0005 J0.015
N15005 X3.0203 Y-0.4695 I-0.041 J0.0068
N15010 G1 X2.9988
N15015 X2.9928 Y-0.4698
N15020 X2.9871 Y-0.4716
N15025 X2.9818 Y-0.4744
N15030 X2.9753 Y-0.4815
N15035 X2.9713 Y-0.4903
N15040 X2.9701 Y-0.4999
N15045 X2.9719 Y-0.5094
N15050 X2.9765 Y-0.518
N15055 X2.9835 Y-0.5247
N15060 X2.9921 Y-0.529
N15065 X3.0017 Y-0.5305
N15070 X3.0236
N15075 G3 X3.0379 Y-0.5182 I-0.0005 J0.015
N15080 X2.9988 Y-0.4695 I-0.0405 J0.0076
N15085 G1 X2.9767
N15090 X2.9707 Y-0.4698
N15095 X2.9649 Y-0.4716
N15100 X2.9597 Y-0.4745
N15105 X2.9532 Y-0.4817
N15110 X2.9493 Y-0.4905
N15115 X2.9481 Y-0.5001
N15120 X2.95 Y-0.5095
N15125 X2.9546 Y-0.518
N15130 X2.9615 Y-0.5247
N15135 X2.9702 Y-0.529
N15140 X2.9797 Y-0.5305
N15145 X3.0017
N15150 G3 X3.016 Y-0.5181 I-0.0005 J0.015
N15155 X2.9767 Y-0.4695 I-0.0407 J0.0072
N15160 G1 X2.9537
N15165 X2.9477 Y-0.4698
N15170 X2.942 Y-0.4718
N15175 X2.9368 Y-0.4748
N15180 X2.9306 Y-0.4821
N15185 X2.9269 Y-0.4909
N15190 X2.9259 Y-0.5005
N15195 X2.9278 Y-0.5099
N15200 X2.9325 Y-0.5182
N15205 X2.9395 Y-0.5248
N15210 X2.9481 Y-0.529
N15215 X2.9575 Y-0.5305
N15220 X2.9797
N15225 G3 X2.9941 Y-0.5175 I-0.0005 J0.015
N15230 X2.9537 Y-0.4695 I-0.0419 J0.0058
N15235 G1 X2.9331
N15240 X2.9271 Y-0.4698
N15245 X2.9213 Y-0.4715
N15250 X2.916 Y-0.4742
N15255 X2.9094 Y-0.4813
N15260 X2.9053 Y-0.4901
N15265 X2.9041 Y-0.4998
N15270 X2.9058 Y-0.5093
N15275 X2.9104 Y-0.5179
N15280 X2.9173 Y-0.5247
N15285 X2.926 Y-0.529
N15290 X2.9356 Y-0.5305
N15295 X2.9575
N15300 G3 X2.9717 Y-0.5184 I-0.0005 J0.015
N15305 X2.9331 Y-0.4695 I-0.0401 J0.008
N15310 G1 X2.9109
N15315 X2.9049 Y-0.4698
N15320 X2.8992 Y-0.4715
N15325 X2.8939 Y-0.4744
N15330 X2.8874 Y-0.4815
N15335 X2.8833 Y-0.4903
N15340 X2.8821 Y-0.4999
N15345 X2.8839 Y-0.5094
N15350 X2.8885 Y-0.518
N15355 X2.8955 Y-0.5247
N15360 X2.9041 Y-0.529
N15365 X2.9137 Y-0.5305
N15370 X2.9356
N15375 G3 X2.9499 Y-0.5183 I-0.0005 J0.015
N15380 X2.9109 Y-0.4695 I-0.0404 J0.0076
N15385 G1 X2.8879
N15390 X2.8819 Y-0.4698
N15395 X2.8762 Y-0.4718
N15400 X2.871 Y-0.4748
N15405 X2.8648 Y-0.482
N15410 X2.861 Y-0.4908
N15415 X2.86 Y-0.5004
N15420 X2.8619 Y-0.5098
N15425 X2.8665 Y-0.5182
N15430 X2.8735 Y-0.5248
N15435 X2.8821 Y-0.529
N15440 X2.8916 Y-0.5305
N15445 X2.9137
N15450 G3 X2.928 Y-0.5177 I-0.0005 J0.015
N15455 X2.8879 Y-0.4695 I-0.0416 J0.0061
N15460 G1 X2.878 Y-0.4696
N15465 X2.8756 Y-0.4698
N15470 X2.8653 Y-0.4714
N15475 X2.8632 Y-0.4717
N15480 X2.8616 Y-0.472
N15485 X2.8575 Y-0.4731
N15490 X2.8534 Y-0.475
N15495 X2.8511 Y-0.4764
N15500 X2.8489 Y-0.478
N15505 X2.847 Y-0.4798
N15510 X2.8451 Y-0.4818
N15515 X2.8435 Y-0.484
N15520 X2.8421 Y-0.4862
N15525 X2.8403 Y-0.4903
N15530 X2.8391 Y-0.4945
N15535 X2.8386 Y-0.4986
N15540 X2.8387 Y-0.5027
N15545 X2.8394 Y-0.5068
N15550 X2.8407 Y-0.5109
N15555 X2.8426 Y-0.5146
N15560 X2.8437 Y-0.5164
N15565 X2.8451 Y-0.5182
N15570 X2.8459 Y-0.5191
N15575 X2.8496 Y-0.5226
N15580 X2.8534 Y-0.525
N15585 X2.8561 Y-0.5263
N15590 X2.8588 Y-0.5273
N15595 X2.8616 Y-0.528
N15600 X2.8698 Y-0.5293
N15605 X2.878 Y-0.5304
N15610 X2.8916 Y-0.5305
N15615 G3 X2.9146 Y-0.5129 I-0.0009 J0.025
N15620 G1 X2.9157 Y-0.5091 Z-0.2497
N15625 X2.9169 Y-0.5055 Z-0.2488
N15630 X2.9179 Y-0.502 Z-0.2473
N15635 X2.9189 Y-0.4988 Z-0.2452
N15640 X2.9198 Y-0.496 Z-0.2427
N15645 X2.9205 Y-0.4935 Z-0.2397
N15650 X2.9211 Y-0.4916 Z-0.2363
N15655 X2.9216 Y-0.4901 Z-0.2327
N15660 X2.9219 Y-0.4893 Z-0.2289
N15665 Y-0.489 Z-0.225
N15670 Z0.6
(WHEN USING FUSION FOR PERSONAL USE, THE FEEDRATE OF RAPID)
(MOVES IS REDUCED TO MATCH THE FEEDRATE OF CUTTING MOVES,)
(WHICH CAN INCREASE MACHINING TIME. UNRESTRICTED RAPID MOVES)
(ARE AVAILABLE WITH A FUSION SUBSCRIPTION.)
(2D CONTOUR1)
N15675 G64 P0.0004 Q0.0004
N15680 G0 X3.4605 Y-0.5111
N15685 G1 Z0.6 F15.
N15690 Z0.6
N15695 Z0.0394 F10.
N15700 Z-0.23
N15705 X3.4608 Y-0.5112 Z-0.2335 F15.
N15710 X3.4617 Y-0.5114 Z-0.2368
N15715 X3.4631 Y-0.5118 Z-0.24
N15720 X3.4651 Y-0.5123 Z-0.2429
N15725 X3.4674 Y-0.5129 Z-0.2453
N15730 X3.4702 Y-0.5136 Z-0.2473
N15735 X3.4733 Y-0.5144 Z-0.2488
N15740 X3.4765 Y-0.5153 Z-0.2497
N15745 X3.4799 Y-0.5162 Z-0.25
N15750 X3.5041 Y-0.5225
N15755 G3 X3.5285 Y-0.5082 I0.0051 J0.0193
N15760 X3.4971 Y-0.4675 I-0.0314 J0.0082
N15765 G1 X2.8671
N15770 G3 Y-0.5325 I0. J-0.0325
N15775 G1 X3.4971
N15780 G3 X3.5285 Y-0.5082 I0. J0.0325
N15785 X3.5142 Y-0.4838 I-0.0193 J0.0051
N15790 G1 X3.49 Y-0.4775
N15795 X3.4867 Y-0.4766 Z-0.2497
N15800 X3.4834 Y-0.4757 Z-0.2488
N15805 X3.4804 Y-0.4749 Z-0.2473
N15810 X3.4776 Y-0.4742 Z-0.2453
N15815 X3.4752 Y-0.4736 Z-0.2429
N15820 X3.4733 Y-0.4731 Z-0.24
N15825 X3.4718 Y-0.4727 Z-0.2368
N15830 X3.471 Y-0.4725 Z-0.2335
N15835 X3.4707 Y-0.4724 Z-0.23
N15840 Z0.6
N15845 X-0.2499 Y-0.48
N15850 Z0.0394 F10.
N15855 Z-0.23
N15860 G18 G3 X-0.2699 Z-0.25 I-0.02 K0. F15.
N15865 G1 X-0.2949
N15870 G17 G3 X-0.3149 Y-0.5 I0. J-0.02
N15875 X-0.2825 Y-0.5325 I0.0325 J0.
N15880 G1 X0.3475
N15885 G3 Y-0.4675 I0. J0.0325
N15890 G1 X-0.2825
N15895 G3 X-0.3149 Y-0.5 I0. J-0.0325
N15900 X-0.2949 Y-0.52 I0.02 J0.
N15905 G1 X-0.2699
N15910 G18 G2 X-0.2499 Z-0.23 I0. K0.02
N15915 G1 Z0.6
N15920 X-0.94 Y-2.27
N15925 Z0.0394 F10.
N15930 Z-0.23
N15935 G2 X-0.92 Z-0.25 I0.02 K0. F15.
N15940 G1 X-0.895
N15945 G17 G3 X-0.875 Y-2.25 I0. J0.02
N15950 G1 Y-2.
N15955 Y-1.7522
N15960 X-0.8756 Y-1.7359
N15965 X-0.877 Y-1.7217
N15970 X-0.8795 Y-1.7074
N15975 X-0.883 Y-1.6929
N15980 X-0.8877 Y-1.6781
N15985 X-0.8935 Y-1.663
N15990 X-0.9006 Y-1.6476
N15995 X-0.9089 Y-1.6318
N16000 X-0.9187 Y-1.6157
N16005 X-0.9299 Y-1.5994
N16010 X-0.9426 Y-1.5828
N16015 X-0.9569 Y-1.5659
N16020 X-0.9728 Y-1.5489
N16025 X-0.9903 Y-1.5318
N16030 X-1.0094 Y-1.5145
N16035 X-1.0303 Y-1.4973
N16040 X-1.053 Y-1.48
N16045 X-1.0773 Y-1.4629
N16050 X-1.1035 Y-1.4459
N16055 X-1.1315 Y-1.429
N16060 X-1.1613 Y-1.4124
N16065 X-1.1929 Y-1.396
N16070 X-1.2264 Y-1.38
N16075 X-1.2617 Y-1.3643
N16080 X-1.299 Y-1.3491
N16085 X-1.3382 Y-1.3343
N16090 X-1.3793 Y-1.3201
N16095 X-1.4223 Y-1.3066
N16100 X-1.4673 Y-1.2936
N16105 X-1.5142 Y-1.2815
N16110 X-1.563 Y-1.2701
N16115 X-1.6137 Y-1.2596
N16120 X-1.6663 Y-1.2501
N16125 X-1.7206 Y-1.2417
N16130 X-1.7766 Y-1.2343
N16135 X-1.8341 Y-1.2282
N16140 X-1.893 Y-1.2234
N16145 X-1.9529 Y-1.22
N16150 X-2.0136 Y-1.218
N16155 X-2.0656 Y-1.2175
N16160 X-2.998
N16165 G2 X-3.123 Y-1.0925 I0. J0.125
N16170 G1 Y-0.8415
N16175 G2 X-2.873 Y-0.4085 I0.5 J0.
N16180 G1 X-2.065 Y0.058
N16185 G2 X-1.815 Y0.125 I0.25 J-0.433
N16190 G3 X-1.795 Y0.145 I0. J0.02
N16195 G1 Y0.17
N16200 G19 G3 Y0.19 Z-0.23 J0. K0.02
N16205 G1 Z0.6
N16210 X7.5264
N16215 Z0.0394 F10.
N16220 Z-0.23
N16225 Y0.1897 Z-0.2335 F15.
N16230 Y0.1888 Z-0.2368
N16235 Y0.1873 Z-0.24
N16240 Y0.1853 Z-0.2429
N16245 Y0.1829 Z-0.2453
N16250 Y0.18 Z-0.2473
N16255 Y0.1768 Z-0.2488
N16260 Y0.1735 Z-0.2497
N16265 Y0.17 Z-0.25
N16270 Y0.145
N16275 G17 G3 X7.5464 Y0.125 I0.02 J0.
N16280 G2 X7.7964 Y0.058 I0. J-0.5
N16285 G1 X8.6044 Y-0.4085
N16290 G2 X8.8544 Y-0.8415 I-0.25 J-0.433
N16295 G1 Y-1.0925
N16300 G2 X8.7294 Y-1.2175 I-0.125 J0.
N16305 G1 X8.2977
N16310 X8.2646 Y-1.2182
N16315 X8.2329 Y-1.2202
N16320 X8.2014 Y-1.2236
N16325 X8.1702 Y-1.2282
N16330 X8.1394 Y-1.2342
N16335 X8.109 Y-1.2414
N16340 X8.0792 Y-1.2499
N16345 X8.05 Y-1.2595
N16350 X8.0216 Y-1.2703
N16355 X7.9939 Y-1.2823
N16360 X7.9671 Y-1.2953
N16365 X7.9412 Y-1.3093
N16370 X7.9162 Y-1.3242
N16375 X7.8923 Y-1.3401
N16380 X7.8694 Y-1.3568
N16385 X7.8476 Y-1.3743
N16390 X7.827 Y-1.3925
N16395 X7.8075 Y-1.4113
N16400 X7.7893 Y-1.4308
N16405 X7.7722 Y-1.4509
N16410 X7.7563 Y-1.4715
N16415 X7.7417 Y-1.4925
N16420 X7.7282 Y-1.514
N16425 X7.7161 Y-1.5358
N16430 X7.7052 Y-1.5578
N16435 X7.6955 Y-1.5803
N16440 X7.687 Y-1.6029
N16445 X7.6798 Y-1.6257
N16450 X7.6739 Y-1.6487
N16455 X7.6691 Y-1.6718
N16460 X7.6656 Y-1.6951
N16465 X7.6633 Y-1.7183
N16470 X7.6623 Y-1.7417
N16475 X7.6625 Y-1.765
N16480 X7.6639 Y-1.7882
N16485 X7.6665 Y-1.8115
N16490 X7.6703 Y-1.8347
N16495 X7.6754 Y-1.8577
N16500 X7.6817 Y-1.8806
N16505 X7.6893 Y-1.9034
N16510 X7.6981 Y-1.926
N16515 X7.7077 Y-1.9477
N16520 X7.8143 Y-2.1722
N16525 G3 X7.841 Y-2.1817 I0.0181 J0.0086
N16530 G1 X7.8636 Y-2.171
N16535 X7.8667 Y-2.1695 Z-0.2497
N16540 X7.8697 Y-2.1681 Z-0.2488
N16545 X7.8726 Y-2.1667 Z-0.2473
N16550 X7.8752 Y-2.1655 Z-0.2453
N16555 X7.8774 Y-2.1644 Z-0.2429
N16560 X7.8792 Y-2.1636 Z-0.24
N16565 X7.8805 Y-2.163 Z-0.2368
N16570 X7.8814 Y-2.1626 Z-0.2335
N16575 X7.8816 Y-2.1624 Z-0.23
N16580 Z0.6
N16585 M5
N16590 M9
N16595 G53 G0 Z0.
N16600 M30
%
