%
(HEQJ-P013_A)
(T2 D=0.5 CR=0. - ZMIN=-0.26 - FLAT END MILL)
N10 G90 G94 G17 G91.1
N15 G20
(WHEN USING FUSION FOR PERSONAL USE, THE FEEDRATE OF RAPID)
(MOVES IS REDUCED TO MATCH THE FEEDRATE OF CUTTING MOVES,)
(WHICH CAN INCREASE MACHINING TIME. UNRESTRICTED RAPID MOVES)
(ARE AVAILABLE WITH A FUSION SUBSCRIPTION.)
N20 G53 G0 Z0.
(ADAPTIVE2)
N25 T2 M6
N30 S5000 M3
N35 G17 G90 G94
N40 G54
N45 G64 P0.004 Q0.004
N50 M8
N55 G0 X-0.4414 Y-3.3661
N60 G43 Z0.6 H2
N65 G1 Z0.2 F15.
N70 Z-0.16
N75 Z-0.21
N80 X-0.4412 Y-3.3659 Z-0.2156
N85 X-0.4404 Y-3.3654 Z-0.2211
N90 X-0.439 Y-3.3646 Z-0.2265
N95 X-0.4372 Y-3.3635 Z-0.2317
N100 X-0.4349 Y-3.3622 Z-0.2366
N105 X-0.4321 Y-3.3605 Z-0.2412
N110 X-0.4288 Y-3.3586 Z-0.2454
N115 X-0.4253 Y-3.3565 Z-0.2491
N120 X-0.4213 Y-3.3541 Z-0.2523
N125 X-0.4171 Y-3.3516 Z-0.255
N130 X-0.4126 Y-3.349 Z-0.2572
N135 X-0.408 Y-3.3463 Z-0.2587
N140 X-0.4032 Y-3.3434 Z-0.2597
N145 X-0.3984 Y-3.3406 Z-0.26
N150 G3 X-0.1783 Y-3.1758 I-0.6504 J1.0984
N155 G1 X-0.1755 Y-3.173
N160 X-0.1607 Y-3.1504
N165 X-0.1448 Y-3.1215
N170 X-0.128 Y-3.0839
N175 X-0.1233 Y-3.0706
N180 X-0.1187 Y-3.0534
N185 X-0.1167 Y-3.0357
N190 X-0.1175 Y-3.0179
N195 X-0.1209 Y-3.0005
N200 X-0.127 Y-2.9837
N205 X-0.1355 Y-2.9681
N210 X-0.1633 Y-2.9253
N215 X-0.1644 Y-2.9235
N220 X-0.173 Y-2.9085
N225 X-0.1873 Y-2.8786
N230 X-0.1933 Y-2.8636
N235 X-0.2163 Y-2.8036
N240 X-0.2209 Y-2.7887
N245 X-0.2254 Y-2.7737
N250 X-0.2287 Y-2.7587
N255 X-0.2314 Y-2.7437
N260 X-0.234 Y-2.7287
N265 X-0.2388 Y-2.6988
N270 X-0.241 Y-2.6838
N275 X-0.2431 Y-2.6688
N280 X-0.2447 Y-2.6538
N285 X-0.2452 Y-2.6388
N290 X-0.2457 Y-2.6238
N295 X-0.2442 Y-2.5939
N300 X-0.2427 Y-2.5639
N305 X-0.2418 Y-2.5489
N310 X-0.239 Y-2.5189
N315 X-0.2382 Y-2.5129
N320 X-0.2365 Y-2.504
N325 X-0.2332 Y-2.489
N330 X-0.2292 Y-2.474
N335 X-0.2212 Y-2.444
N340 X-0.2131 Y-2.4141
N345 X-0.2082 Y-2.399
N350 X-0.2027 Y-2.3841
N355 X-0.1966 Y-2.3691
N360 X-0.1817 Y-2.3391
N365 X-0.1633 Y-2.3029
N370 X-0.1585 Y-2.2942
N375 X-0.1396 Y-2.2575
N380 X-0.1225 Y-2.2165
N385 X-0.1067 Y-2.1677
N390 X-0.0944 Y-2.118
N395 X-0.0847 Y-2.0676
N400 X-0.0772 Y-2.0169
N405 X-0.0713 Y-1.966
N410 X-0.0666 Y-1.9149
N415 X-0.063 Y-1.8638
N420 X-0.0601 Y-1.8126
N425 X-0.0578 Y-1.7613
N430 X-0.056 Y-1.7101
N435 X-0.0546 Y-1.6588
N440 X-0.0535 Y-1.6076
N445 X-0.0526 Y-1.5563
N450 X-0.0519 Y-1.5051
N455 X-0.0513 Y-1.4538
N460 X-0.0509 Y-1.4025
N465 X-0.0506 Y-1.3512
N470 X-0.0503 Y-1.3
N475 X-0.0501 Y-1.2487
N480 X-0.0498 Y-1.1462
N485 X-0.0496 Y-1.0436
N490 X-0.0494 Y-0.8914
N495 X-0.0506 Y-0.8747
N500 X-0.0542 Y-0.8584
N505 X-0.06 Y-0.8427
N510 X-0.0681 Y-0.8281
N515 X-0.0781 Y-0.8147
N520 X-0.0816 Y-0.8107
N525 X-0.0884 Y-0.8025
N530 X-0.1183 Y-0.7655
N535 X-0.1301 Y-0.7508
N540 X-0.1411 Y-0.7358
N545 X-0.1585 Y-0.7058
N550 X-0.1633 Y-0.6971
N555 X-0.1817 Y-0.6609
N560 X-0.1966 Y-0.6309
N565 X-0.2027 Y-0.6159
N570 X-0.2082 Y-0.6009
N575 X-0.2131 Y-0.5859
N580 X-0.2232 Y-0.5485
N585 X-0.2292 Y-0.526
N590 X-0.2332 Y-0.511
N595 X-0.2365 Y-0.496
N600 X-0.2382 Y-0.4871
N605 X-0.239 Y-0.4811
N610 X-0.2418 Y-0.4511
N615 X-0.2427 Y-0.4361
N620 X-0.2442 Y-0.4061
N625 X-0.2457 Y-0.3762
N630 X-0.2452 Y-0.3612
N635 X-0.2447 Y-0.3462
N640 X-0.2431 Y-0.3312
N645 X-0.241 Y-0.3162
N650 X-0.2388 Y-0.3012
N655 X-0.234 Y-0.2713
N660 X-0.2314 Y-0.2563
N665 X-0.2287 Y-0.2413
N670 X-0.2254 Y-0.2263
N675 X-0.2209 Y-0.2113
N680 X-0.2163 Y-0.1964
N685 X-0.1932 Y-0.1363
N690 X-0.1873 Y-0.1214
N695 X-0.173 Y-0.0915
N700 X-0.1644 Y-0.0765
N705 X-0.1633 Y-0.0747
N710 X-0.1255 Y-0.0165
N715 X-0.1144 Y-0.0016
N720 X-0.1033 Y0.0134
N725 X-0.0906 Y0.0284
N730 X-0.0584 Y0.0609
N735 X-0.0284 Y0.0906
N740 X-0.0134 Y0.1033
N745 X0.0068 Y0.1183
N750 X0.0165 Y0.1255
N755 X0.0747 Y0.1633
N760 X0.0765 Y0.1644
N765 X0.0915 Y0.173
N770 X0.1214 Y0.1873
N775 X0.1364 Y0.1933
N780 X0.1964 Y0.2163
N785 X0.2113 Y0.2209
N790 X0.2263 Y0.2254
N795 X0.2413 Y0.2287
N800 X0.2563 Y0.2314
N805 X0.2713 Y0.234
N810 X0.3012 Y0.2388
N815 X0.3162 Y0.241
N820 X0.3312 Y0.2431
N825 X0.3462 Y0.2447
N830 X0.3612 Y0.2452
N835 X0.3762 Y0.2457
N840 X0.4061 Y0.2442
N845 X0.4361 Y0.2427
N850 X0.4511 Y0.2418
N855 X0.4811 Y0.239
N860 X0.4871 Y0.2382
N865 X0.496 Y0.2365
N870 X0.511 Y0.2332
N875 X0.526 Y0.2292
N880 X0.556 Y0.2212
N885 X0.5859 Y0.2131
N890 X0.601 Y0.2082
N895 X0.6159 Y0.2027
N900 X0.6309 Y0.1966
N905 X0.6609 Y0.1817
N910 X0.6971 Y0.1633
N915 X0.7058 Y0.1585
N920 X0.7425 Y0.1396
N925 X0.7835 Y0.1225
N930 X0.8323 Y0.1067
N935 X0.882 Y0.0944
N940 X0.9324 Y0.0847
N945 X0.9831 Y0.0772
N950 X1.034 Y0.0713
N955 X1.0851 Y0.0666
N960 X1.1362 Y0.063
N965 X1.1874 Y0.0601
N970 X1.2387 Y0.0578
N975 X1.2899 Y0.056
N980 X1.3412 Y0.0546
N985 X1.3924 Y0.0535
N990 X1.4437 Y0.0526
N995 X1.4949 Y0.0519
N1000 X1.5462 Y0.0513
N1005 X1.5975 Y0.0509
N1010 X1.6488 Y0.0506
N1015 X1.7 Y0.0503
N1020 X1.7513 Y0.0501
N1025 X1.8538 Y0.0498
N1030 X1.9564 Y0.0496
N1035 X2.1086 Y0.0494
N1040 X2.1253 Y0.0506
N1045 X2.1416 Y0.0542
N1050 X2.1573 Y0.06
N1055 X2.1719 Y0.0681
N1060 X2.1853 Y0.0781
N1065 X2.1893 Y0.0816
N1070 X2.1975 Y0.0884
N1075 X2.2345 Y0.1183
N1080 X2.2492 Y0.1301
N1085 X2.2642 Y0.1411
N1090 X2.2942 Y0.1585
N1095 X2.3029 Y0.1633
N1100 X2.3391 Y0.1817
N1105 X2.3691 Y0.1966
N1110 X2.3841 Y0.2027
N1115 X2.3991 Y0.2082
N1120 X2.4141 Y0.2131
N1125 X2.4515 Y0.2232
N1130 X2.474 Y0.2292
N1135 X2.489 Y0.2332
N1140 X2.504 Y0.2365
N1145 X2.5129 Y0.2382
N1150 X2.5189 Y0.239
N1155 X2.5489 Y0.2418
N1160 X2.5639 Y0.2427
N1165 X2.5939 Y0.2442
N1170 X2.6238 Y0.2457
N1175 X2.6388 Y0.2452
N1180 X2.6538 Y0.2447
N1185 X2.6688 Y0.2431
N1190 X2.6838 Y0.241
N1195 X2.6988 Y0.2388
N1200 X2.7287 Y0.234
N1205 X2.7437 Y0.2314
N1210 X2.7587 Y0.2287
N1215 X2.7737 Y0.2254
N1220 X2.7887 Y0.2209
N1225 X2.8036 Y0.2163
N1230 X2.8637 Y0.1932
N1235 X2.8786 Y0.1873
N1240 X2.9085 Y0.173
N1245 X2.9235 Y0.1644
N1250 X2.9253 Y0.1633
N1255 X2.9835 Y0.1255
N1260 X2.9984 Y0.1144
N1265 X3.0134 Y0.1033
N1270 X3.0284 Y0.0906
N1275 X3.0609 Y0.0584
N1280 X3.0906 Y0.0284
N1285 X3.1033 Y0.0134
N1290 X3.1183 Y-0.0068
N1295 X3.1255 Y-0.0165
N1300 X3.1633 Y-0.0747
N1305 X3.1644 Y-0.0765
N1310 X3.173 Y-0.0915
N1315 X3.1873 Y-0.1214
N1320 X3.1933 Y-0.1364
N1325 X3.2163 Y-0.1964
N1330 X3.2209 Y-0.2113
N1335 X3.2254 Y-0.2263
N1340 X3.2287 Y-0.2413
N1345 X3.2314 Y-0.2563
N1350 X3.234 Y-0.2713
N1355 X3.2388 Y-0.3012
N1360 X3.241 Y-0.3162
N1365 X3.2431 Y-0.3312
N1370 X3.2447 Y-0.3462
N1375 X3.2452 Y-0.3612
N1380 X3.2457 Y-0.3762
N1385 X3.2442 Y-0.4061
N1390 X3.2427 Y-0.4361
N1395 X3.2418 Y-0.4511
N1400 X3.239 Y-0.4811
N1405 X3.2382 Y-0.4871
N1410 X3.2365 Y-0.496
N1415 X3.2332 Y-0.511
N1420 X3.2292 Y-0.526
N1425 X3.2212 Y-0.556
N1430 X3.2131 Y-0.5859
N1435 X3.2082 Y-0.601
N1440 X3.2027 Y-0.6159
N1445 X3.1966 Y-0.6309
N1450 X3.1817 Y-0.6609
N1455 X3.1633 Y-0.6971
N1460 X3.1585 Y-0.7058
N1465 X3.1396 Y-0.7425
N1470 X3.1225 Y-0.7835
N1475 X3.1067 Y-0.8323
N1480 X3.0944 Y-0.882
N1485 X3.0847 Y-0.9324
N1490 X3.0772 Y-0.9831
N1495 X3.0713 Y-1.034
N1500 X3.0666 Y-1.0851
N1505 X3.063 Y-1.1362
N1510 X3.0601 Y-1.1874
N1515 X3.0578 Y-1.2387
N1520 X3.056 Y-1.2899
N1525 X3.0546 Y-1.3412
N1530 X3.0535 Y-1.3924
N1535 X3.0526 Y-1.4437
N1540 X3.0519 Y-1.4949
N1545 X3.0513 Y-1.5462
N1550 X3.0509 Y-1.5975
N1555 X3.0506 Y-1.6488
N1560 X3.0503 Y-1.7
N1565 X3.0501 Y-1.7513
N1570 X3.0498 Y-1.8538
N1575 X3.0496 Y-1.9564
N1580 X3.0494 Y-2.1086
N1585 X3.0506 Y-2.1253
N1590 X3.0542 Y-2.1416
N1595 X3.06 Y-2.1573
N1600 X3.0681 Y-2.1719
N1605 X3.0781 Y-2.1853
N1610 X3.0816 Y-2.1893
N1615 X3.0884 Y-2.1975
N1620 X3.1183 Y-2.2345
N1625 X3.1301 Y-2.2492
N1630 X3.1411 Y-2.2642
N1635 X3.1585 Y-2.2942
N1640 X3.1633 Y-2.3029
N1645 X3.1817 Y-2.3391
N1650 X3.1966 Y-2.3691
N1655 X3.2027 Y-2.3841
N1660 X3.2082 Y-2.3991
N1665 X3.2131 Y-2.4141
N1670 X3.2232 Y-2.4515
N1675 X3.2292 Y-2.474
N1680 X3.2332 Y-2.489
N1685 X3.2365 Y-2.504
N1690 X3.2382 Y-2.5129
N1695 X3.239 Y-2.5189
N1700 X3.2418 Y-2.5489
N1705 X3.2427 Y-2.5639
N1710 X3.2442 Y-2.5939
N1715 X3.2457 Y-2.6238
N1720 X3.2452 Y-2.6388
N1725 X3.2447 Y-2.6538
N1730 X3.2431 Y-2.6688
N1735 X3.241 Y-2.6838
N1740 X3.2388 Y-2.6988
N1745 X3.234 Y-2.7287
N1750 X3.2314 Y-2.7437
N1755 X3.2287 Y-2.7587
N1760 X3.2254 Y-2.7737
N1765 X3.2209 Y-2.7887
N1770 X3.2163 Y-2.8036
N1775 X3.1932 Y-2.8637
N1780 X3.1873 Y-2.8786
N1785 X3.173 Y-2.9085
N1790 X3.1644 Y-2.9235
N1795 X3.1633 Y-2.9253
N1800 X3.1255 Y-2.9835
N1805 X3.1144 Y-2.9984
N1810 X3.1033 Y-3.0134
N1815 X3.0906 Y-3.0284
N1820 X3.0584 Y-3.0609
N1825 X3.0284 Y-3.0906
N1830 X3.0134 Y-3.1033
N1835 X2.9932 Y-3.1183
N1840 X2.9835 Y-3.1255
N1845 X2.9253 Y-3.1633
N1850 X2.9235 Y-3.1644
N1855 X2.9085 Y-3.173
N1860 X2.8786 Y-3.1873
N1865 X2.8636 Y-3.1933
N1870 X2.8036 Y-3.2163
N1875 X2.7887 Y-3.2209
N1880 X2.7737 Y-3.2254
N1885 X2.7587 Y-3.2287
N1890 X2.7437 Y-3.2314
N1895 X2.7287 Y-3.234
N1900 X2.6988 Y-3.2388
N1905 X2.6838 Y-3.241
N1910 X2.6688 Y-3.2431
N1915 X2.6538 Y-3.2447
N1920 X2.6388 Y-3.2452
N1925 X2.6238 Y-3.2457
N1930 X2.5939 Y-3.2442
N1935 X2.5639 Y-3.2427
N1940 X2.5489 Y-3.2418
N1945 X2.5189 Y-3.239
N1950 X2.5129 Y-3.2382
N1955 X2.504 Y-3.2365
N1960 X2.489 Y-3.2332
N1965 X2.474 Y-3.2292
N1970 X2.444 Y-3.2212
N1975 X2.4141 Y-3.2131
N1980 X2.399 Y-3.2082
N1985 X2.3841 Y-3.2027
N1990 X2.3691 Y-3.1966
N1995 X2.3391 Y-3.1817
N2000 X2.3029 Y-3.1633
N2005 X2.2942 Y-3.1585
N2010 X2.2575 Y-3.1396
N2015 X2.2165 Y-3.1225
N2020 X2.1677 Y-3.1067
N2025 X2.118 Y-3.0944
N2030 X2.0676 Y-3.0847
N2035 X2.0169 Y-3.0772
N2040 X1.966 Y-3.0713
N2045 X1.9149 Y-3.0666
N2050 X1.8638 Y-3.063
N2055 X1.8126 Y-3.0601
N2060 X1.7613 Y-3.0578
N2065 X1.7101 Y-3.056
N2070 X1.6588 Y-3.0546
N2075 X1.6076 Y-3.0535
N2080 X1.5563 Y-3.0526
N2085 X1.5051 Y-3.0519
N2090 X1.4538 Y-3.0513
N2095 X1.4025 Y-3.0509
N2100 X1.3512 Y-3.0506
N2105 X1.3 Y-3.0503
N2110 X1.2487 Y-3.0501
N2115 X1.1462 Y-3.0498
N2120 X1.0436 Y-3.0496
N2125 X0.8914 Y-3.0494
N2130 X0.8747 Y-3.0506
N2135 X0.8584 Y-3.0542
N2140 X0.8427 Y-3.06
N2145 X0.8281 Y-3.0681
N2150 X0.8147 Y-3.0781
N2155 X0.8107 Y-3.0816
N2160 X0.8025 Y-3.0884
N2165 X0.7655 Y-3.1183
N2170 X0.7508 Y-3.1301
N2175 X0.7358 Y-3.1411
N2180 X0.7058 Y-3.1585
N2185 X0.6971 Y-3.1633
N2190 X0.6609 Y-3.1817
N2195 X0.6309 Y-3.1966
N2200 X0.6159 Y-3.2027
N2205 X0.6009 Y-3.2082
N2210 X0.5859 Y-3.2131
N2215 X0.5485 Y-3.2232
N2220 X0.526 Y-3.2292
N2225 X0.511 Y-3.2332
N2230 X0.496 Y-3.2365
N2235 X0.4871 Y-3.2382
N2240 X0.4811 Y-3.239
N2245 X0.4511 Y-3.2418
N2250 X0.4361 Y-3.2427
N2255 X0.4061 Y-3.2442
N2260 X0.3762 Y-3.2457
N2265 X0.3612 Y-3.2452
N2270 X0.3462 Y-3.2447
N2275 X0.3312 Y-3.2431
N2280 X0.3162 Y-3.241
N2285 X0.3012 Y-3.2388
N2290 X0.2713 Y-3.234
N2295 X0.2563 Y-3.2314
N2300 X0.2413 Y-3.2287
N2305 X0.2263 Y-3.2254
N2310 X0.2113 Y-3.2209
N2315 X0.1964 Y-3.2163
N2320 X0.1363 Y-3.1932
N2325 X0.1214 Y-3.1873
N2330 X0.0915 Y-3.173
N2335 X0.0765 Y-3.1644
N2340 X0.0747 Y-3.1633
N2345 X0.0165 Y-3.1255
N2350 X0.0016 Y-3.1144
N2355 X-0.0134 Y-3.1033
N2360 X-0.0284 Y-3.0906
N2365 X-0.0609 Y-3.0584
N2370 X-0.0906 Y-3.0284
N2375 X-0.1033 Y-3.0134
N2380 X-0.1144 Y-2.9984
N2385 X-0.1152 Y-2.9978 Z-0.2599
N2390 X-0.116 Y-2.9974 Z-0.2598
N2395 G2 X-0.1872 Y-2.9696 Z-0.252 I0.0988 J0.3585
N2400 X-0.3038 Y-2.8759 I0.17 J0.3308
N2405 X-0.3152 Y-2.8471 I0.0385 J0.0319
N2410 G1 X-0.3388 Y-2.4693
N2415 G2 X-0.3311 Y-2.4393 I0.0499 J0.0031
N2420 X-0.2271 Y-2.3318 I0.3139 J-0.1995
N2425 X-0.1599 Y-2.2954 Z-0.2598 I0.2099 J-0.307
N2430 G1 X-0.1591 Y-2.2949 Z-0.2599
N2435 X-0.1585 Y-2.2942 Z-0.26
N2440 X-0.1411 Y-2.2642
N2445 X-0.1301 Y-2.2492
N2450 X-0.1181 Y-2.2342
N2455 X-0.0884 Y-2.1975
N2460 X-0.0816 Y-2.1893
N2465 X-0.0555 Y-2.1593
N2470 X-0.0422 Y-2.1443
N2475 X-0.0154 Y-2.1144
N2480 X0.0052 Y-2.0887
N2485 X0.0225 Y-2.0631
N2490 X0.0407 Y-2.0311
N2495 X0.0597 Y-1.9903
N2500 X0.0775 Y-1.9422
N2505 X0.0918 Y-1.8929
N2510 X0.1033 Y-1.843
N2515 X0.1125 Y-1.7925
N2520 X0.1199 Y-1.7418
N2525 X0.1259 Y-1.6909
N2530 X0.1307 Y-1.6398
N2535 X0.1346 Y-1.5887
N2540 X0.1377 Y-1.5375
N2545 X0.1402 Y-1.4863
N2550 X0.1423 Y-1.4351
N2555 X0.1439 Y-1.3838
N2560 X0.1452 Y-1.3326
N2565 X0.1463 Y-1.2813
N2570 X0.1472 Y-1.2301
N2575 X0.1478 Y-1.1806
N2580 X0.147 Y-1.1648
N2585 X0.144 Y-1.1493
N2590 X0.1389 Y-1.1343
N2595 X0.1214 Y-1.0924
N2600 X0.1151 Y-1.0804
N2605 X0.0765 Y-1.0105
N2610 X0.0736 Y-1.0055
N2615 X0.0641 Y-0.9905
N2620 X0.0215 Y-0.9306
N2625 X0.0165 Y-0.924
N2630 X-0.0134 Y-0.8878
N2635 X-0.0434 Y-0.8543
N2640 X-0.0555 Y-0.8407
N2645 X-0.0781 Y-0.8147
N2650 G3 X-0.1488 Y-0.8123 Z-0.252 I-0.0365 J-0.0341
N2655 X-0.1646 Y-0.8514 I0.0341 J-0.0366
N2660 G1 X-0.1014 Y-2.0823
N2665 G3 X-0.086 Y-2.1159 I0.0499 J0.0026
N2670 X-0.0154 Y-2.1144 Z-0.26 I0.0346 J0.0361
N2675 G1 X-0.0134 Y-2.1122
N2680 X0.0165 Y-2.076
N2685 X0.0215 Y-2.0694
N2690 X0.0641 Y-2.0095
N2695 X0.0736 Y-1.9945
N2700 X0.0765 Y-1.9895
N2705 X0.1151 Y-1.9196
N2710 X0.1214 Y-1.9076
N2715 X0.1364 Y-1.8718
N2720 X0.1539 Y-1.8297
N2725 X0.1591 Y-1.8147
N2730 X0.1664 Y-1.7932
N2735 X0.1692 Y-1.7847
N2740 X0.1778 Y-1.7547
N2745 X0.1821 Y-1.7398
N2750 X0.1904 Y-1.7098
N2755 X0.1933 Y-1.6948
N2760 X0.2035 Y-1.6349
N2765 X0.2059 Y-1.6199
N2770 X0.209 Y-1.5899
N2775 X0.2102 Y-1.5749
N2780 X0.2136 Y-1.515
N2785 X0.2144 Y-1.5
N2790 X0.2136 Y-1.485
N2795 X0.2102 Y-1.4251
N2800 X0.209 Y-1.4101
N2805 X0.2059 Y-1.3801
N2810 X0.2035 Y-1.3651
N2815 X0.1933 Y-1.3052
N2820 X0.1904 Y-1.2902
N2825 X0.1814 Y-1.2578
N2830 X0.1778 Y-1.2453
N2835 X0.1692 Y-1.2153
N2840 X0.1664 Y-1.2068
N2845 X0.1591 Y-1.1853
N2850 X0.1539 Y-1.1703
N2855 X0.1389 Y-1.1343
N2860 G3 X0.1185 Y-1.1118 I-0.0455 J-0.0208
N2865 G1 X0.1136 Y-1.109 Z-0.2597
N2870 X0.1088 Y-1.1062 Z-0.2587
N2875 X0.1042 Y-1.1035 Z-0.2572
N2880 X0.0997 Y-1.1009 Z-0.255
N2885 X0.0954 Y-1.0985 Z-0.2523
N2890 X0.0915 Y-1.0962 Z-0.2491
N2895 X0.0879 Y-1.0941 Z-0.2454
N2900 X0.0846 Y-1.0922 Z-0.2412
N2905 X0.0818 Y-1.0906 Z-0.2366
N2910 X0.0795 Y-1.0892 Z-0.2317
N2915 X0.0776 Y-1.0882 Z-0.2265
N2920 X0.0763 Y-1.0874 Z-0.2211
N2925 X0.0754 Y-1.0869 Z-0.2156
N2930 X0.0752 Y-1.0868 Z-0.21
N2935 Z0.2
N2940 X0.6601 Y0.2245
N2945 Z-0.16
N2950 Z-0.21
N2955 X0.6603 Y0.2242 Z-0.2156
N2960 X0.6607 Y0.2234 Z-0.2211
N2965 X0.6615 Y0.2221 Z-0.2265
N2970 X0.6625 Y0.2202 Z-0.2317
N2975 X0.6639 Y0.2178 Z-0.2366
N2980 X0.6654 Y0.215 Z-0.2412
N2985 X0.6673 Y0.2117 Z-0.2454
N2990 X0.6693 Y0.2081 Z-0.2491
N2995 X0.6715 Y0.2041 Z-0.2523
N3000 X0.6739 Y0.1998 Z-0.255
N3005 X0.6765 Y0.1953 Z-0.2572
N3010 X0.6791 Y0.1906 Z-0.2587
N3015 X0.6818 Y0.1857 Z-0.2597
N3020 X0.6845 Y0.1809 Z-0.26
N3025 G3 X0.7058 Y0.1585 I0.0544 J0.0304
N3030 G1 X0.7358 Y0.1411
N3035 X0.7508 Y0.1301
N3040 X0.7658 Y0.1181
N3045 X0.8025 Y0.0884
N3050 X0.8107 Y0.0816
N3055 X0.8407 Y0.0555
N3060 X0.8557 Y0.0422
N3065 X0.8856 Y0.0154
N3070 X0.9113 Y-0.0052
N3075 X0.9369 Y-0.0225
N3080 X0.9689 Y-0.0407
N3085 X1.0097 Y-0.0597
N3090 X1.0578 Y-0.0775
N3095 X1.1071 Y-0.0918
N3100 X1.157 Y-0.1033
N3105 X1.2075 Y-0.1125
N3110 X1.2582 Y-0.1199
N3115 X1.3091 Y-0.1259
N3120 X1.3602 Y-0.1307
N3125 X1.4113 Y-0.1346
N3130 X1.4625 Y-0.1377
N3135 X1.5137 Y-0.1402
N3140 X1.5649 Y-0.1423
N3145 X1.6162 Y-0.1439
N3150 X1.6674 Y-0.1452
N3155 X1.7187 Y-0.1463
N3160 X1.7699 Y-0.1472
N3165 X1.8194 Y-0.1478
N3170 X1.8352 Y-0.147
N3175 X1.8507 Y-0.144
N3180 X1.8657 Y-0.1389
N3185 X1.9076 Y-0.1214
N3190 X1.9196 Y-0.1151
N3195 X1.9895 Y-0.0765
N3200 X1.9945 Y-0.0736
N3205 X2.0095 Y-0.0641
N3210 X2.0694 Y-0.0215
N3215 X2.076 Y-0.0165
N3220 X2.1122 Y0.0134
N3225 X2.1457 Y0.0434
N3230 X2.1593 Y0.0555
N3235 X2.1853 Y0.0781
N3240 G3 X2.1877 Y0.1488 Z-0.252 I-0.0341 J0.0365
N3245 X2.1486 Y0.1646 I-0.0366 J-0.0341
N3250 G1 X0.9177 Y0.1014
N3255 G3 X0.8841 Y0.086 I0.0026 J-0.0499
N3260 X0.8856 Y0.0154 Z-0.26 I0.0361 J-0.0346
N3265 G1 X0.8878 Y0.0134
N3270 X0.924 Y-0.0165
N3275 X0.9306 Y-0.0215
N3280 X0.9905 Y-0.0641
N3285 X1.0055 Y-0.0736
N3290 X1.0105 Y-0.0765
N3295 X1.0804 Y-0.1151
N3300 X1.0924 Y-0.1214
N3305 X1.1282 Y-0.1364
N3310 X1.1703 Y-0.1539
N3315 X1.1853 Y-0.1591
N3320 X1.2068 Y-0.1664
N3325 X1.2153 Y-0.1692
N3330 X1.2453 Y-0.1778
N3335 X1.2602 Y-0.1821
N3340 X1.2902 Y-0.1904
N3345 X1.3052 Y-0.1933
N3350 X1.3651 Y-0.2035
N3355 X1.3801 Y-0.2059
N3360 X1.4101 Y-0.209
N3365 X1.4251 Y-0.2102
N3370 X1.485 Y-0.2136
N3375 X1.5 Y-0.2144
N3380 X1.515 Y-0.2136
N3385 X1.5749 Y-0.2102
N3390 X1.5899 Y-0.209
N3395 X1.6199 Y-0.2059
N3400 X1.6349 Y-0.2035
N3405 X1.6948 Y-0.1933
N3410 X1.7098 Y-0.1904
N3415 X1.7422 Y-0.1814
N3420 X1.7547 Y-0.1778
N3425 X1.7847 Y-0.1692
N3430 X1.7932 Y-0.1664
N3435 X1.8147 Y-0.1591
N3440 X1.8297 Y-0.1539
N3445 X1.8657 Y-0.1389
N3450 G3 X1.8882 Y-0.1185 I-0.0208 J0.0455
N3455 G1 X1.891 Y-0.1136 Z-0.2597
N3460 X1.8938 Y-0.1088 Z-0.2587
N3465 X1.8965 Y-0.1042 Z-0.2572
N3470 X1.8991 Y-0.0997 Z-0.255
N3475 X1.9015 Y-0.0954 Z-0.2523
N3480 X1.9038 Y-0.0915 Z-0.2491
N3485 X1.9059 Y-0.0879 Z-0.2454
N3490 X1.9078 Y-0.0846 Z-0.2412
N3495 X1.9094 Y-0.0818 Z-0.2366
N3500 X1.9108 Y-0.0795 Z-0.2317
N3505 X1.9118 Y-0.0776 Z-0.2265
N3510 X1.9126 Y-0.0763 Z-0.2211
N3515 X1.9131 Y-0.0754 Z-0.2156
N3520 X1.9132 Y-0.0752 Z-0.21
N3525 Z0.2
N3530 X3.2245 Y-0.6601
N3535 Z-0.16
N3540 Z-0.21
N3545 X3.2242 Y-0.6603 Z-0.2156
N3550 X3.2234 Y-0.6607 Z-0.2211
N3555 X3.2221 Y-0.6615 Z-0.2265
N3560 X3.2202 Y-0.6625 Z-0.2317
N3565 X3.2178 Y-0.6639 Z-0.2366
N3570 X3.215 Y-0.6654 Z-0.2412
N3575 X3.2117 Y-0.6673 Z-0.2454
N3580 X3.2081 Y-0.6693 Z-0.2491
N3585 X3.2041 Y-0.6715 Z-0.2523
N3590 X3.1998 Y-0.6739 Z-0.255
N3595 X3.1953 Y-0.6765 Z-0.2572
N3600 X3.1906 Y-0.6791 Z-0.2587
N3605 X3.1857 Y-0.6818 Z-0.2597
N3610 X3.1809 Y-0.6845 Z-0.26
N3615 G3 X3.1585 Y-0.7058 I0.0304 J-0.0544
N3620 G1 X3.1411 Y-0.7358
N3625 X3.1301 Y-0.7508
N3630 X3.1181 Y-0.7658
N3635 X3.0884 Y-0.8025
N3640 X3.0816 Y-0.8107
N3645 X3.0555 Y-0.8407
N3650 X3.0422 Y-0.8557
N3655 X3.0154 Y-0.8856
N3660 X2.9948 Y-0.9113
N3665 X2.9775 Y-0.9369
N3670 X2.9593 Y-0.9689
N3675 X2.9403 Y-1.0097
N3680 X2.9225 Y-1.0578
N3685 X2.9082 Y-1.1071
N3690 X2.8967 Y-1.157
N3695 X2.8875 Y-1.2075
N3700 X2.8801 Y-1.2582
N3705 X2.8741 Y-1.3091
N3710 X2.8693 Y-1.3602
N3715 X2.8654 Y-1.4113
N3720 X2.8623 Y-1.4625
N3725 X2.8598 Y-1.5137
N3730 X2.8577 Y-1.5649
N3735 X2.8561 Y-1.6162
N3740 X2.8548 Y-1.6674
N3745 X2.8537 Y-1.7187
N3750 X2.8528 Y-1.7699
N3755 X2.8522 Y-1.8194
N3760 X2.853 Y-1.8352
N3765 X2.856 Y-1.8507
N3770 X2.8611 Y-1.8657
N3775 X2.8786 Y-1.9076
N3780 X2.8849 Y-1.9196
N3785 X2.9235 Y-1.9895
N3790 X2.9264 Y-1.9945
N3795 X2.9359 Y-2.0095
N3800 X2.9785 Y-2.0694
N3805 X2.9835 Y-2.076
N3810 X3.0134 Y-2.1122
N3815 X3.0434 Y-2.1457
N3820 X3.0555 Y-2.1593
N3825 X3.0781 Y-2.1853
N3830 G3 X3.1488 Y-2.1877 Z-0.252 I0.0365 J0.0341
N3835 X3.1646 Y-2.1486 I-0.0341 J0.0366
N3840 G1 X3.1014 Y-0.9177
N3845 G3 X3.086 Y-0.8841 I-0.0499 J-0.0026
N3850 X3.0154 Y-0.8856 Z-0.26 I-0.0346 J-0.0361
N3855 G1 X3.0134 Y-0.8878
N3860 X2.9835 Y-0.924
N3865 X2.9785 Y-0.9306
N3870 X2.9359 Y-0.9905
N3875 X2.9264 Y-1.0055
N3880 X2.9235 Y-1.0105
N3885 X2.8849 Y-1.0804
N3890 X2.8786 Y-1.0924
N3895 X2.8636 Y-1.1282
N3900 X2.8461 Y-1.1703
N3905 X2.8409 Y-1.1853
N3910 X2.8336 Y-1.2068
N3915 X2.8308 Y-1.2153
N3920 X2.8222 Y-1.2453
N3925 X2.8179 Y-1.2602
N3930 X2.8096 Y-1.2902
N3935 X2.8067 Y-1.3052
N3940 X2.7965 Y-1.3651
N3945 X2.7941 Y-1.3801
N3950 X2.791 Y-1.4101
N3955 X2.7898 Y-1.4251
N3960 X2.7864 Y-1.485
N3965 X2.7856 Y-1.5
N3970 X2.7864 Y-1.515
N3975 X2.7898 Y-1.5749
N3980 X2.791 Y-1.5899
N3985 X2.7941 Y-1.6199
N3990 X2.7965 Y-1.6349
N3995 X2.8067 Y-1.6948
N4000 X2.8096 Y-1.7098
N4005 X2.8186 Y-1.7422
N4010 X2.8222 Y-1.7547
N4015 X2.8308 Y-1.7847
N4020 X2.8336 Y-1.7932
N4025 X2.8409 Y-1.8147
N4030 X2.8461 Y-1.8297
N4035 X2.8611 Y-1.8657
N4040 G3 X2.8815 Y-1.8882 I0.0455 J0.0208
N4045 G1 X2.8864 Y-1.891 Z-0.2597
N4050 X2.8912 Y-1.8938 Z-0.2587
N4055 X2.8958 Y-1.8965 Z-0.2572
N4060 X2.9003 Y-1.8991 Z-0.255
N4065 X2.9046 Y-1.9015 Z-0.2523
N4070 X2.9085 Y-1.9038 Z-0.2491
N4075 X2.9121 Y-1.9059 Z-0.2454
N4080 X2.9154 Y-1.9078 Z-0.2412
N4085 X2.9182 Y-1.9094 Z-0.2366
N4090 X2.9205 Y-1.9108 Z-0.2317
N4095 X2.9224 Y-1.9118 Z-0.2265
N4100 X2.9237 Y-1.9126 Z-0.2211
N4105 X2.9246 Y-1.9131 Z-0.2156
N4110 X2.9248 Y-1.9132 Z-0.21
N4115 Z0.2
N4120 X2.3399 Y-3.2245
N4125 Z-0.16
N4130 Z-0.21
N4135 X2.3397 Y-3.2242 Z-0.2156
N4140 X2.3393 Y-3.2234 Z-0.2211
N4145 X2.3385 Y-3.2221 Z-0.2265
N4150 X2.3375 Y-3.2202 Z-0.2317
N4155 X2.3361 Y-3.2178 Z-0.2366
N4160 X2.3346 Y-3.215 Z-0.2412
N4165 X2.3327 Y-3.2117 Z-0.2454
N4170 X2.3307 Y-3.2081 Z-0.2491
N4175 X2.3285 Y-3.2041 Z-0.2523
N4180 X2.3261 Y-3.1998 Z-0.255
N4185 X2.3235 Y-3.1953 Z-0.2572
N4190 X2.3209 Y-3.1906 Z-0.2587
N4195 X2.3182 Y-3.1857 Z-0.2597
N4200 X2.3155 Y-3.1809 Z-0.26
N4205 G3 X2.2942 Y-3.1585 I-0.0544 J-0.0304
N4210 G1 X2.2642 Y-3.1411
N4215 X2.2492 Y-3.1301
N4220 X2.2342 Y-3.1181
N4225 X2.1975 Y-3.0884
N4230 X2.1893 Y-3.0816
N4235 X2.1593 Y-3.0555
N4240 X2.1443 Y-3.0422
N4245 X2.1144 Y-3.0154
N4250 X2.0887 Y-2.9948
N4255 X2.0631 Y-2.9775
N4260 X2.0311 Y-2.9593
N4265 X1.9903 Y-2.9403
N4270 X1.9422 Y-2.9225
N4275 X1.8929 Y-2.9082
N4280 X1.843 Y-2.8967
N4285 X1.7925 Y-2.8875
N4290 X1.7418 Y-2.8801
N4295 X1.6909 Y-2.8741
N4300 X1.6398 Y-2.8693
N4305 X1.5887 Y-2.8654
N4310 X1.5375 Y-2.8623
N4315 X1.4863 Y-2.8598
N4320 X1.4351 Y-2.8577
N4325 X1.3838 Y-2.8561
N4330 X1.3326 Y-2.8548
N4335 X1.2813 Y-2.8537
N4340 X1.2301 Y-2.8528
N4345 X1.1806 Y-2.8522
N4350 X1.1648 Y-2.853
N4355 X1.1493 Y-2.856
N4360 X1.1343 Y-2.8611
N4365 X1.0924 Y-2.8786
N4370 X1.0804 Y-2.8849
N4375 X1.0105 Y-2.9235
N4380 X1.0055 Y-2.9264
N4385 X0.9905 Y-2.9359
N4390 X0.9306 Y-2.9785
N4395 X0.924 Y-2.9835
N4400 X0.8878 Y-3.0134
N4405 X0.8543 Y-3.0434
N4410 X0.8407 Y-3.0555
N4415 X0.8147 Y-3.0781
N4420 G3 X0.8123 Y-3.1488 Z-0.252 I0.0341 J-0.0365
N4425 X0.8514 Y-3.1646 I0.0366 J0.0341
N4430 G1 X2.0823 Y-3.1014
N4435 G3 X2.1159 Y-3.086 I-0.0026 J0.0499
N4440 X2.1144 Y-3.0154 Z-0.26 I-0.0361 J0.0346
N4445 G1 X2.1122 Y-3.0134
N4450 X2.076 Y-2.9835
N4455 X2.0694 Y-2.9785
N4460 X2.0095 Y-2.9359
N4465 X1.9945 Y-2.9264
N4470 X1.9895 Y-2.9235
N4475 X1.9196 Y-2.8849
N4480 X1.9076 Y-2.8786
N4485 X1.8718 Y-2.8636
N4490 X1.8297 Y-2.8461
N4495 X1.8147 Y-2.8409
N4500 X1.7932 Y-2.8336
N4505 X1.7847 Y-2.8308
N4510 X1.7547 Y-2.8222
N4515 X1.7398 Y-2.8179
N4520 X1.7098 Y-2.8096
N4525 X1.6948 Y-2.8067
N4530 X1.6349 Y-2.7965
N4535 X1.6199 Y-2.7941
N4540 X1.5899 Y-2.791
N4545 X1.5749 Y-2.7898
N4550 X1.515 Y-2.7864
N4555 X1.5 Y-2.7856
N4560 X1.485 Y-2.7864
N4565 X1.4251 Y-2.7898
N4570 X1.4101 Y-2.791
N4575 X1.3801 Y-2.7941
N4580 X1.3651 Y-2.7965
N4585 X1.3052 Y-2.8067
N4590 X1.2902 Y-2.8096
N4595 X1.2578 Y-2.8186
N4600 X1.2453 Y-2.8222
N4605 X1.2153 Y-2.8308
N4610 X1.2068 Y-2.8336
N4615 X1.1853 Y-2.8409
N4620 X1.1703 Y-2.8461
N4625 X1.1343 Y-2.8611
N4630 G3 X1.1118 Y-2.8815 I0.0208 J-0.0455
N4635 G1 X1.109 Y-2.8864 Z-0.2597
N4640 X1.1062 Y-2.8912 Z-0.2587
N4645 X1.1035 Y-2.8958 Z-0.2572
N4650 X1.1009 Y-2.9003 Z-0.255
N4655 X1.0985 Y-2.9046 Z-0.2523
N4660 X1.0962 Y-2.9085 Z-0.2491
N4665 X1.0941 Y-2.9121 Z-0.2454
N4670 X1.0922 Y-2.9154 Z-0.2412
N4675 X1.0906 Y-2.9182 Z-0.2366
N4680 X1.0892 Y-2.9205 Z-0.2317
N4685 X1.0882 Y-2.9224 Z-0.2265
N4690 X1.0874 Y-2.9237 Z-0.2211
N4695 X1.0869 Y-2.9246 Z-0.2156
N4700 X1.0868 Y-2.9248 Z-0.21
N4705 Z0.6
(WHEN USING FUSION FOR PERSONAL USE, THE FEEDRATE OF RAPID)
(MOVES IS REDUCED TO MATCH THE FEEDRATE OF CUTTING MOVES,)
(WHICH CAN INCREASE MACHINING TIME. UNRESTRICTED RAPID MOVES)
(ARE AVAILABLE WITH A FUSION SUBSCRIPTION.)
(2D CONTOUR2)
N4710 G64 P0.0004 Q0.0004
N4715 G0 X2.4963 Y-3.369
N4720 G1 Z0.6 F15.
N4725 Z0.2
N4730 Z0.0394 F10.
N4735 Z-0.209
N4740 X2.4964 Y-3.3687 Z-0.2146 F15.
N4745 X2.4966 Y-3.3678 Z-0.2201
N4750 X2.4969 Y-3.3662 Z-0.2255
N4755 X2.4974 Y-3.3641 Z-0.2307
N4760 X2.498 Y-3.3615 Z-0.2356
N4765 X2.4987 Y-3.3583 Z-0.2402
N4770 X2.4995 Y-3.3547 Z-0.2444
N4775 X2.5004 Y-3.3506 Z-0.2481
N4780 X2.5014 Y-3.3461 Z-0.2513
N4785 X2.5025 Y-3.3413 Z-0.254
N4790 X2.5036 Y-3.3363 Z-0.2562
N4795 X2.5048 Y-3.331 Z-0.2577
N4800 X2.506 Y-3.3256 Z-0.2587
N4805 X2.5072 Y-3.3202 Z-0.259
N4810 X2.5181 Y-3.2714
N4815 G3 X2.4802 Y-3.2117 I-0.0488 J0.0109
N4820 G2 X2.1802 Y-3.0469 I0.1334 J0.5981
N4825 G3 X0.8198 I-0.6802 J-0.6802
N4830 G2 X-0.0469 Y-2.1802 I-0.4333 J0.4333
N4835 G3 Y-0.8198 I-0.6802 J0.6802
N4840 G2 X0.8198 Y0.0469 I0.4333 J0.4333
N4845 G3 X2.1802 I0.6802 J0.6802
N4850 G2 X3.0469 Y-0.8198 I0.4333 J-0.4333
N4855 G3 Y-2.1802 I0.6802 J-0.6802
N4860 G2 X2.4802 Y-3.2117 I-0.4333 J-0.4333
N4865 G3 X2.4205 Y-3.2496 I-0.0109 J-0.0488
N4870 G1 X2.4096 Y-3.2984
N4875 X2.4084 Y-3.3039 Z-0.2587
N4880 X2.4072 Y-3.3093 Z-0.2577
N4885 X2.406 Y-3.3145 Z-0.2562
N4890 X2.4049 Y-3.3196 Z-0.254
N4895 X2.4038 Y-3.3244 Z-0.2513
N4900 X2.4028 Y-3.3288 Z-0.2481
N4905 X2.4019 Y-3.3329 Z-0.2444
N4910 X2.4011 Y-3.3366 Z-0.2402
N4915 X2.4004 Y-3.3397 Z-0.2356
N4920 X2.3998 Y-3.3424 Z-0.2307
N4925 X2.3993 Y-3.3445 Z-0.2255
N4930 X2.399 Y-3.346 Z-0.2201
N4935 X2.3988 Y-3.3469 Z-0.2146
N4940 X2.3987 Y-3.3472 Z-0.209
N4945 Z0.6
N4950 M5
N4955 M9
N4960 G53 G0 Z0.
N4965 M30
%
