%
(HEQJ-P013_B)
(T1 D=0.25 CR=0. - ZMIN=-0.475 - FLAT END MILL)
N10 G90 G94 G17 G91.1
N15 G20
(WHEN USING FUSION FOR PERSONAL USE, THE FEEDRATE OF RAPID)
(MOVES IS REDUCED TO MATCH THE FEEDRATE OF CUTTING MOVES,)
(WHICH CAN INCREASE MACHINING TIME. UNRESTRICTED RAPID MOVES)
(ARE AVAILABLE WITH A FUSION SUBSCRIPTION.)
N20 G53 G0 Z0.
(ADAPTIVE1)
N25 T1 M6
N30 S5000 M3
N35 G17 G90 G94
N40 G54
N45 G64 P0.004 Q0.004
N50 M8
N55 G0 X-0.0488 Y-3.2621
N60 G43 Z0.6 H1
N65 G1 Z0.2 F15.
N70 Z-0.075
N75 Z-0.1
N80 X-0.0487 Y-3.2618 Z-0.1039
N85 X-0.0484 Y-3.2609 Z-0.1077
N90 X-0.0481 Y-3.2595 Z-0.1113
N95 X-0.0476 Y-3.2575 Z-0.1147
N100 X-0.0469 Y-3.255 Z-0.1177
N105 X-0.0462 Y-3.2521 Z-0.1202
N110 X-0.0454 Y-3.2489 Z-0.1223
N115 X-0.0445 Y-3.2454 Z-0.1238
N120 X-0.0435 Y-3.2417 Z-0.1247
N125 X-0.0425 Y-3.2379 Z-0.125
N130 G3 X-0.023 Y-3.1018 I-0.6183 J0.1584
N135 G1 Y-3.0958
N140 X-0.0302 Y-3.0603
N145 X-0.0354 Y-3.0245
N150 X-0.0391 Y-2.9885
N155 X-0.0417 Y-2.9524
N160 X-0.0435 Y-2.9163
N165 X-0.0448 Y-2.8802
N170 X-0.0458 Y-2.844
N175 X-0.0464 Y-2.8078
N180 X-0.0469 Y-2.7716
N185 X-0.0472 Y-2.7355
N190 X-0.0474 Y-2.6993
N195 X-0.0476 Y-2.6631
N200 X-0.0478 Y-2.5907
N205 X-0.0479 Y-2.4822
N210 Y-2.1927
N215 Y-1.1073
N220 Y-0.0942
N225 X-0.0451 Y-0.0763
N230 X-0.0372 Y-0.06
N235 X-0.0155 Y-0.0311
N240 X0.0133 Y-0.0092
N245 X0.0457 Y0.0069
N250 X0.08 Y0.0186
N255 X0.1151 Y0.0271
N260 X0.1508 Y0.0332
N265 X0.1867 Y0.0375
N270 X0.2228 Y0.0406
N275 X0.2589 Y0.0427
N280 X0.295 Y0.0443
N285 X0.3312 Y0.0454
N290 X0.3674 Y0.0461
N295 X0.4036 Y0.0467
N300 X0.4397 Y0.047
N305 X0.4759 Y0.0473
N310 X0.5121 Y0.0475
N315 X0.5845 Y0.0477
N320 X0.693 Y0.0479
N325 X0.8739
N330 X2.8639
N335 X2.8814 Y0.0432
N340 X2.9129 Y0.0254
N345 X2.937 Y-0.0016
N350 X2.9548 Y-0.0331
N355 X2.9679 Y-0.0668
N360 X2.9773 Y-0.1017
N365 X2.9841 Y-0.1373
N370 X2.989 Y-0.1731
N375 X2.9924 Y-0.2092
N380 X2.9948 Y-0.2453
N385 X2.9966 Y-0.2814
N390 X2.9978 Y-0.3176
N395 X2.9987 Y-0.3537
N400 X2.9993 Y-0.3899
N405 X2.9997 Y-0.4261
N410 X3. Y-0.4623
N415 X3.0002 Y-0.4985
N420 X3.0004 Y-0.5346
N425 X3.0005 Y-0.607
N430 X3.0006 Y-0.7155
N435 X3.0007 Y-1.005
N440 Y-1.8734
N445 X3.0006 Y-2.8593
N450 X2.9978 Y-2.8772
N455 X2.9898 Y-2.8934
N460 X2.9679 Y-2.9222
N465 X2.939 Y-2.9439
N470 X2.9065 Y-2.9599
N475 X2.8723 Y-2.9716
N480 X2.8371 Y-2.98
N485 X2.8014 Y-2.986
N490 X2.7655 Y-2.9903
N495 X2.7294 Y-2.9934
N500 X2.6933 Y-2.9955
N505 X2.6571 Y-2.9971
N510 X2.621 Y-2.9981
N515 X2.5848 Y-2.9989
N520 X2.5486 Y-2.9994
N525 X2.5124 Y-2.9998
N530 X2.4763 Y-3.0001
N535 X2.4401 Y-3.0003
N540 X2.3677 Y-3.0005
N545 X2.2592 Y-3.0006
N550 X2.0421 Y-3.0007
N555 X0.1968 Y-3.0006
N560 X0.1792 Y-2.9965
N565 X0.147 Y-2.9799
N570 X0.1219 Y-2.9539
N575 X0.103 Y-2.9231
N580 X0.0889 Y-2.8897
N585 X0.0787 Y-2.855
N590 X0.0712 Y-2.8196
N595 X0.0658 Y-2.7838
N600 X0.0619 Y-2.7479
N605 X0.0591 Y-2.7118
N610 X0.057 Y-2.6757
N615 X0.0556 Y-2.6395
N620 X0.0546 Y-2.6034
N625 X0.0539 Y-2.5672
N630 X0.0533 Y-2.531
N635 X0.053 Y-2.4948
N640 X0.0527 Y-2.4586
N645 X0.0525 Y-2.4225
N650 X0.0523 Y-2.3501
N655 X0.0521 Y-2.2415
N660 Y-2.0245
N665 Y-0.939
N670 Y-0.2154
N675 X0.0616 Y-0.1805
N680 X0.0821 Y-0.1506
N685 X0.1091 Y-0.1266
N690 X0.1401 Y-0.1078
N695 X0.1733 Y-0.0935
N700 X0.2078 Y-0.0827
N705 X0.2431 Y-0.0746
N710 X0.2788 Y-0.0686
N715 X0.3147 Y-0.0641
N720 X0.3507 Y-0.0609
N725 X0.3868 Y-0.0585
N730 X0.4229 Y-0.0567
N735 X0.4591 Y-0.0554
N740 X0.4953 Y-0.0545
N745 X0.5314 Y-0.0538
N750 X0.5676 Y-0.0533
N755 X0.6038 Y-0.053
N760 X0.64 Y-0.0527
N765 X0.6762 Y-0.0525
N770 X0.7485 Y-0.0523
N775 X0.8571 Y-0.0521
N780 X1.0742
N785 X1.2551
N790 X2.7385
N795 X2.7734 Y-0.0618
N800 X2.8031 Y-0.0825
N805 X2.827 Y-0.1096
N810 X2.8455 Y-0.1407
N815 X2.8597 Y-0.174
N820 X2.8704 Y-0.2086
N825 X2.8784 Y-0.2438
N830 X2.8844 Y-0.2795
N835 X2.8888 Y-0.3154
N840 X2.892 Y-0.3515
N845 X2.8944 Y-0.3876
N850 X2.8961 Y-0.4237
N855 X2.8974 Y-0.4599
N860 X2.8983 Y-0.4961
N865 X2.899 Y-0.5322
N870 X2.8994 Y-0.5684
N875 X2.8998 Y-0.6046
N880 X2.9 Y-0.6408
N885 X2.9002 Y-0.677
N890 X2.9005 Y-0.7493
N895 X2.9006 Y-0.8579
N900 X2.9007 Y-1.075
N905 Y-2.486
N910 X2.9006 Y-2.7393
N915 X2.8905 Y-2.774
N920 X2.8696 Y-2.8036
N925 X2.8422 Y-2.8273
N930 X2.8111 Y-2.8458
N935 X2.7778 Y-2.8599
N940 X2.7433 Y-2.8706
N945 X2.708 Y-2.8785
N950 X2.6723 Y-2.8845
N955 X2.6363 Y-2.8888
N960 X2.6003 Y-2.892
N965 X2.5642 Y-2.8944
N970 X2.5281 Y-2.8961
N975 X2.4919 Y-2.8974
N980 X2.4557 Y-2.8983
N985 X2.4196 Y-2.899
N990 X2.3834 Y-2.8994
N995 X2.3472 Y-2.8998
N1000 X2.311 Y-2.9
N1005 X2.2748 Y-2.9002
N1010 X2.2025 Y-2.9005
N1015 X2.0939 Y-2.9006
N1020 X1.8768 Y-2.9007
N1025 X1.2256
N1030 X0.321
N1035 X0.2858 Y-2.8925
N1040 X0.2553 Y-2.873
N1045 X0.2305 Y-2.8467
N1050 X0.2111 Y-2.8161
N1055 X0.1961 Y-2.7832
N1060 X0.1848 Y-2.7488
N1065 X0.1763 Y-2.7137
N1070 X0.1699 Y-2.6781
N1075 X0.1652 Y-2.6422
N1080 X0.1617 Y-2.6062
N1085 X0.1591 Y-2.5701
N1090 X0.1572 Y-2.5339
N1095 X0.1558 Y-2.4978
N1100 X0.1548 Y-2.4616
N1105 X0.154 Y-2.4254
N1110 X0.1535 Y-2.3893
N1115 X0.1531 Y-2.3531
N1120 X0.1528 Y-2.3169
N1125 X0.1526 Y-2.2807
N1130 X0.1525 Y-2.2445
N1135 X0.1523 Y-2.1722
N1140 X0.1521 Y-2.0636
N1145 Y-1.8827
N1150 Y-0.3269
N1155 X0.1613 Y-0.2919
N1160 X0.1807 Y-0.2613
N1165 X0.2067 Y-0.2362
N1170 X0.2368 Y-0.2161
N1175 X0.2694 Y-0.2005
N1180 X0.3035 Y-0.1884
N1185 X0.3385 Y-0.1793
N1190 X0.374 Y-0.1724
N1195 X0.4099 Y-0.1671
N1200 X0.4458 Y-0.1632
N1205 X0.4819 Y-0.1603
N1210 X0.518 Y-0.1582
N1215 X0.5542 Y-0.1566
N1220 X0.5903 Y-0.1554
N1225 X0.6265 Y-0.1545
N1230 X0.6627 Y-0.1539
N1235 X0.6988 Y-0.1534
N1240 X0.735 Y-0.153
N1245 X0.7712 Y-0.1528
N1250 X0.8074 Y-0.1526
N1255 X0.8797 Y-0.1523
N1260 X0.9883 Y-0.1522
N1265 X1.1692 Y-0.1521
N1270 X2.5079
N1275 X2.6165
N1280 X2.6522 Y-0.1579
N1285 X2.6841 Y-0.1749
N1290 X2.7107 Y-0.1995
N1295 X2.732 Y-0.2288
N1300 X2.7487 Y-0.2609
N1305 X2.7615 Y-0.2947
N1310 X2.7714 Y-0.3295
N1315 X2.7788 Y-0.3649
N1320 X2.7844 Y-0.4007
N1325 X2.7886 Y-0.4366
N1330 X2.7918 Y-0.4726
N1335 X2.7941 Y-0.5087
N1340 X2.7958 Y-0.5449
N1345 X2.7971 Y-0.581
N1350 X2.7981 Y-0.6172
N1355 X2.7988 Y-0.6534
N1360 X2.7993 Y-0.6896
N1365 X2.7997 Y-0.7257
N1370 X2.7999 Y-0.7619
N1375 X2.8001 Y-0.7981
N1380 X2.8003 Y-0.8343
N1385 X2.8005 Y-0.9066
N1390 X2.8006 Y-1.0152
N1395 X2.8007 Y-1.2323
N1400 Y-1.9559
N1405 Y-2.6072
N1410 X2.7977 Y-2.6433
N1415 X2.7831 Y-2.6764
N1420 X2.7602 Y-2.7044
N1425 X2.732 Y-2.727
N1430 X2.7005 Y-2.7448
N1435 X2.667 Y-2.7585
N1440 X2.6324 Y-2.7691
N1445 X2.5971 Y-2.7771
N1450 X2.5614 Y-2.7831
N1455 X2.5255 Y-2.7876
N1460 X2.4895 Y-2.791
N1465 X2.4534 Y-2.7935
N1470 X2.4173 Y-2.7954
N1475 X2.3811 Y-2.7968
N1480 X2.345 Y-2.7978
N1485 X2.3088 Y-2.7986
N1490 X2.2726 Y-2.7991
N1495 X2.2364 Y-2.7996
N1500 X2.2002 Y-2.7999
N1505 X2.1641 Y-2.8001
N1510 X2.1279 Y-2.8003
N1515 X2.0555 Y-2.8005
N1520 X1.947 Y-2.8006
N1525 X1.7299 Y-2.8007
N1530 X1.549
N1535 X0.4273
N1540 X0.3924 Y-2.7911
N1545 X0.3619 Y-2.7717
N1550 X0.3368 Y-2.7457
N1555 X0.3167 Y-2.7156
N1560 X0.301 Y-2.683
N1565 X0.2889 Y-2.6489
N1570 X0.2797 Y-2.6139
N1575 X0.2727 Y-2.5784
N1580 X0.2675 Y-2.5426
N1585 X0.2635 Y-2.5066
N1590 X0.2606 Y-2.4705
N1595 X0.2584 Y-2.4344
N1600 X0.2567 Y-2.3983
N1605 X0.2555 Y-2.3621
N1610 X0.2546 Y-2.326
N1615 X0.2539 Y-2.2898
N1620 X0.2534 Y-2.2536
N1625 X0.2531 Y-2.2174
N1630 X0.2528 Y-2.1812
N1635 X0.2526 Y-2.1451
N1640 X0.2523 Y-2.0727
N1645 X0.2522 Y-2.0003
N1650 X0.2521 Y-1.8556
N1655 Y-1.3852
N1660 Y-0.4445
N1665 X0.2576 Y-0.4088
N1670 X0.2737 Y-0.3763
N1675 X0.2973 Y-0.3489
N1680 X0.3259 Y-0.3267
N1685 X0.3575 Y-0.3092
N1690 X0.391 Y-0.2954
N1695 X0.4256 Y-0.2849
N1700 X0.4608 Y-0.2768
N1705 X0.4965 Y-0.2706
N1710 X0.5324 Y-0.266
N1715 X0.5684 Y-0.2625
N1720 X0.6045 Y-0.2598
N1725 X0.6406 Y-0.2578
N1730 X0.6768 Y-0.2564
N1735 X0.7129 Y-0.2553
N1740 X0.7491 Y-0.2544
N1745 X0.7853 Y-0.2538
N1750 X0.8215 Y-0.2534
N1755 X0.8576 Y-0.253
N1760 X0.8938 Y-0.2528
N1765 X0.93 Y-0.2526
N1770 X1.0024 Y-0.2523
N1775 X1.1109 Y-0.2522
N1780 X1.2918 Y-0.2521
N1785 X2.4858
N1790 X2.522 Y-0.2522
N1795 X2.5568 Y-0.262
N1800 X2.5874 Y-0.2814
N1805 X2.6128 Y-0.3072
N1810 X2.6332 Y-0.337
N1815 X2.6492 Y-0.3695
N1820 X2.6616 Y-0.4035
N1825 X2.6712 Y-0.4384
N1830 X2.6785 Y-0.4738
N1835 X2.684 Y-0.5096
N1840 X2.6882 Y-0.5455
N1845 X2.6914 Y-0.5815
N1850 X2.6937 Y-0.6176
N1855 X2.6955 Y-0.6538
N1860 X2.6968 Y-0.6899
N1865 X2.6978 Y-0.7261
N1870 X2.6986 Y-0.7623
N1875 X2.6991 Y-0.7985
N1880 X2.6995 Y-0.8346
N1885 X2.6998 Y-0.8708
N1890 X2.7001 Y-0.907
N1895 X2.7002 Y-0.9432
N1900 X2.7004 Y-1.0155
N1905 X2.7006 Y-1.1241
N1910 X2.7007 Y-1.3412
N1915 Y-2.2457
N1920 Y-2.499
N1925 X2.6979 Y-2.5351
N1930 X2.6843 Y-2.5686
N1935 X2.6623 Y-2.5973
N1940 X2.6348 Y-2.6208
N1945 X2.6038 Y-2.6395
N1950 X2.5707 Y-2.6541
N1955 X2.5363 Y-2.6655
N1960 X2.5012 Y-2.6741
N1965 X2.4656 Y-2.6807
N1970 X2.4298 Y-2.6857
N1975 X2.3938 Y-2.6895
N1980 X2.3577 Y-2.6923
N1985 X2.3216 Y-2.6945
N1990 X2.2855 Y-2.6961
N1995 X2.2493 Y-2.6972
N2000 X2.2131 Y-2.6981
N2005 X2.177 Y-2.6988
N2010 X2.1408 Y-2.6993
N2015 X2.1046 Y-2.6997
N2020 X2.0684 Y-2.6999
N2025 X2.0322 Y-2.7001
N2030 X1.9599 Y-2.7004
N2035 X1.8513 Y-2.7006
N2040 X1.6704 Y-2.7007
N2045 X1.0553
N2050 X0.5488
N2055 X0.5129 Y-2.6962
N2060 X0.48 Y-2.681
N2065 X0.4521 Y-2.6581
N2070 X0.4293 Y-2.6299
N2075 X0.4112 Y-2.5986
N2080 X0.3971 Y-2.5653
N2085 X0.3862 Y-2.5308
N2090 X0.3778 Y-2.4956
N2095 X0.3714 Y-2.46
N2100 X0.3666 Y-2.4241
N2105 X0.363 Y-2.3881
N2110 X0.3602 Y-2.352
N2115 X0.3582 Y-2.3159
N2120 X0.3566 Y-2.2798
N2125 X0.3554 Y-2.2436
N2130 X0.3546 Y-2.2074
N2135 X0.3539 Y-2.1713
N2140 X0.3534 Y-2.1351
N2145 X0.3531 Y-2.0989
N2150 X0.3528 Y-2.0627
N2155 X0.3526 Y-2.0265
N2160 X0.3524 Y-1.9542
N2165 X0.3522 Y-1.8456
N2170 X0.3521 Y-1.6647
N2175 Y-1.3029
N2180 Y-0.5431
N2185 X0.3593 Y-0.5076
N2190 X0.3764 Y-0.4757
N2195 X0.4005 Y-0.4488
N2200 X0.4294 Y-0.4269
N2205 X0.4611 Y-0.4095
N2210 X0.4946 Y-0.3959
N2215 X0.5292 Y-0.3854
N2220 X0.5645 Y-0.3773
N2225 X0.6001 Y-0.3711
N2230 X0.636 Y-0.3664
N2235 X0.672 Y-0.3629
N2240 X0.7081 Y-0.3602
N2245 X0.7442 Y-0.3582
N2250 X0.7804 Y-0.3566
N2255 X0.8165 Y-0.3555
N2260 X0.8527 Y-0.3546
N2265 X0.8889 Y-0.354
N2270 X0.9251 Y-0.3535
N2275 X0.9613 Y-0.3531
N2280 X0.9974 Y-0.3529
N2285 X1.0336 Y-0.3526
N2290 X1.106 Y-0.3524
N2295 X1.2145 Y-0.3522
N2300 X1.3954 Y-0.3521
N2305 X1.504
N2310 X2.4085
N2315 X2.4441 Y-0.3588
N2320 X2.4762 Y-0.3755
N2325 X2.5032 Y-0.3995
N2330 X2.5252 Y-0.4283
N2335 X2.5427 Y-0.4599
N2340 X2.5564 Y-0.4934
N2345 X2.5671 Y-0.528
N2350 X2.5752 Y-0.5632
N2355 X2.5814 Y-0.5989
N2360 X2.5862 Y-0.6348
N2365 X2.5898 Y-0.6708
N2370 X2.5925 Y-0.7068
N2375 X2.5945 Y-0.743
N2380 X2.5961 Y-0.7791
N2385 X2.5972 Y-0.8153
N2390 X2.5981 Y-0.8515
N2395 X2.5988 Y-0.8876
N2400 X2.5993 Y-0.9238
N2405 X2.5996 Y-0.96
N2410 X2.5999 Y-0.9962
N2415 X2.6001 Y-1.0323
N2420 X2.6004 Y-1.1047
N2425 X2.6006 Y-1.2133
N2430 Y-1.358
N2435 X2.6007 Y-1.9369
N2440 Y-2.4073
N2445 X2.5942 Y-2.4429
N2450 X2.5777 Y-2.4751
N2455 X2.554 Y-2.5024
N2460 X2.5254 Y-2.5246
N2465 X2.4938 Y-2.5422
N2470 X2.4604 Y-2.556
N2475 X2.4258 Y-2.5667
N2480 X2.3906 Y-2.575
N2485 X2.355 Y-2.5813
N2490 X2.3191 Y-2.586
N2495 X2.2831 Y-2.5897
N2500 X2.247 Y-2.5924
N2505 X2.2109 Y-2.5945
N2510 X2.1748 Y-2.596
N2515 X2.1386 Y-2.5972
N2520 X2.1024 Y-2.5981
N2525 X2.0662 Y-2.5987
N2530 X2.0301 Y-2.5992
N2535 X1.9939 Y-2.5996
N2540 X1.9577 Y-2.5999
N2545 X1.9215 Y-2.6001
N2550 X1.8492 Y-2.6004
N2555 X1.7768 Y-2.6005
N2560 X1.7406 Y-2.6006
N2565 X1.5597 Y-2.6007
N2570 X0.6552
N2575 X0.6192 Y-2.5969
N2580 X0.5859 Y-2.5827
N2585 X0.5573 Y-2.5606
N2590 X0.5338 Y-2.533
N2595 X0.515 Y-2.5021
N2600 X0.5002 Y-2.4691
N2605 X0.4887 Y-2.4348
N2610 X0.4799 Y-2.3997
N2615 X0.4731 Y-2.3642
N2620 X0.4679 Y-2.3283
N2625 X0.464 Y-2.2924
N2630 X0.4611 Y-2.2563
N2635 X0.4588 Y-2.2202
N2640 X0.4571 Y-2.1841
N2645 X0.4559 Y-2.1479
N2650 X0.4549 Y-2.1117
N2655 X0.4542 Y-2.0756
N2660 X0.4537 Y-2.0394
N2665 X0.4532 Y-2.0032
N2670 X0.4529 Y-1.967
N2675 X0.4527 Y-1.9308
N2680 X0.4526 Y-1.8947
N2685 X0.4523 Y-1.8223
N2690 Y-1.7861
N2695 X0.4521 Y-1.6776
N2700 Y-1.4243
N2705 Y-0.6645
N2710 X0.454 Y-0.6283
N2715 X0.4661 Y-0.5942
N2720 X0.4867 Y-0.5645
N2725 X0.5131 Y-0.5398
N2730 X0.5433 Y-0.5199
N2735 X0.5759 Y-0.5042
N2740 X0.61 Y-0.4919
N2745 X0.6449 Y-0.4824
N2750 X0.6803 Y-0.4751
N2755 X0.7161 Y-0.4695
N2760 X0.752 Y-0.4653
N2765 X0.788 Y-0.462
N2770 X0.8241 Y-0.4596
N2775 X0.8603 Y-0.4577
N2780 X0.8964 Y-0.4563
N2785 X0.9326 Y-0.4553
N2790 X0.9688 Y-0.4545
N2795 X1.0049 Y-0.4539
N2800 X1.0411 Y-0.4534
N2805 X1.0773 Y-0.4531
N2810 X1.1135 Y-0.4528
N2815 X1.1497 Y-0.4526
N2820 X1.222 Y-0.4524
N2825 X1.3306 Y-0.4522
N2830 X1.5115 Y-0.4521
N2835 X2.3075
N2840 X2.3429 Y-0.4593
N2845 X2.3749 Y-0.4762
N2850 X2.402 Y-0.5002
N2855 X2.4241 Y-0.5289
N2860 X2.4417 Y-0.5605
N2865 X2.4555 Y-0.5939
N2870 X2.4662 Y-0.6285
N2875 X2.4745 Y-0.6637
N2880 X2.4808 Y-0.6993
N2885 X2.4857 Y-0.7352
N2890 X2.4893 Y-0.7712
N2895 X2.4921 Y-0.8072
N2900 X2.4942 Y-0.8434
N2905 X2.4958 Y-0.8795
N2910 X2.497 Y-0.9157
N2915 X2.498 Y-0.9518
N2920 X2.4986 Y-0.988
N2925 X2.4992 Y-1.0242
N2930 X2.4995 Y-1.0604
N2935 X2.4998 Y-1.0966
N2940 X2.5 Y-1.1327
N2945 X2.5002 Y-1.1689
N2950 X2.5004 Y-1.2413
N2955 X2.5005 Y-1.2775
N2960 X2.5006 Y-1.4222
N2965 X2.5007 Y-1.784
N2970 Y-2.2906
N2975 X2.4983 Y-2.3267
N2980 X2.4856 Y-2.3605
N2985 X2.4646 Y-2.39
N2990 X2.4378 Y-2.4143
N2995 X2.4074 Y-2.4339
N3000 X2.3747 Y-2.4494
N3005 X2.3406 Y-2.4615
N3010 X2.3056 Y-2.4709
N3015 X2.2702 Y-2.478
N3020 X2.2344 Y-2.4835
N3025 X2.1985 Y-2.4877
N3030 X2.1624 Y-2.4909
N3035 X2.1263 Y-2.4933
N3040 X2.0902 Y-2.4951
N3045 X2.054 Y-2.4965
N3050 X2.0179 Y-2.4976
N3055 X1.9817 Y-2.4983
N3060 X1.9455 Y-2.4989
N3065 X1.9093 Y-2.4994
N3070 X1.8732 Y-2.4997
N3075 X1.837 Y-2.4999
N3080 X1.8008 Y-2.5001
N3085 X1.7284 Y-2.5004
N3090 X1.6199 Y-2.5006
N3095 X1.439 Y-2.5007
N3100 X0.7515
N3105 X0.7158 Y-2.4952
N3110 X0.683 Y-2.4798
N3115 X0.6551 Y-2.4567
N3120 X0.6322 Y-2.4287
N3125 X0.6139 Y-2.3975
N3130 X0.5995 Y-2.3643
N3135 X0.5883 Y-2.3299
N3140 X0.5796 Y-2.2948
N3145 X0.573 Y-2.2592
N3150 X0.5679 Y-2.2234
N3155 X0.564 Y-2.1874
N3160 X0.5611 Y-2.1514
N3165 X0.5589 Y-2.1153
N3170 X0.5572 Y-2.0791
N3175 X0.5559 Y-2.043
N3180 X0.555 Y-2.0068
N3185 X0.5542 Y-1.9706
N3190 X0.5537 Y-1.9344
N3195 X0.5533 Y-1.8983
N3200 X0.553 Y-1.8621
N3205 X0.5528 Y-1.8259
N3210 X0.5526 Y-1.7897
N3215 X0.5524 Y-1.7174
N3220 X0.5522 Y-1.6006
N3225 X0.5521 Y-1.5985
N3230 X0.552 Y-1.5963
N3235 X0.5518 Y-1.5942
N3240 X0.5493 Y-1.5709
N3245 X0.5475 Y-1.5545
N3250 X0.5469 Y-1.5463
N3255 X0.5458 Y-1.5298
N3260 X0.5446 Y-1.4969
N3265 X0.5441 Y-1.4805
N3270 Y-1.4723
N3275 X0.5449 Y-1.4476
N3280 X0.5458 Y-1.4229
N3285 X0.5464 Y-1.4147
N3290 X0.547 Y-1.3785
N3295 X0.5485 Y-1.3424
N3300 X0.5495 Y-1.3062
N3305 X0.5503 Y-1.2701
N3310 X0.5508 Y-1.2339
N3315 X0.5512 Y-1.1977
N3320 X0.5515 Y-1.1615
N3325 X0.5516 Y-1.1253
N3330 X0.5519 Y-1.053
N3335 X0.552 Y-0.9444
N3340 X0.5521 Y-0.7635
N3345 X0.5546 Y-0.7274
N3350 X0.5672 Y-0.6935
N3355 X0.5882 Y-0.664
N3360 X0.6149 Y-0.6396
N3365 X0.6452 Y-0.6198
N3370 X0.6778 Y-0.6042
N3375 X0.7119 Y-0.592
N3380 X0.7468 Y-0.5825
N3385 X0.7823 Y-0.5753
N3390 X0.818 Y-0.5697
N3395 X0.8539 Y-0.5654
N3400 X0.89 Y-0.5622
N3405 X0.9261 Y-0.5597
N3410 X0.9622 Y-0.5578
N3415 X0.9984 Y-0.5564
N3420 X1.0345 Y-0.5553
N3425 X1.0707 Y-0.5545
N3430 X1.1069 Y-0.5539
N3435 X1.1431 Y-0.5535
N3440 X1.1792 Y-0.5531
N3445 X1.2154 Y-0.5529
N3450 X1.2516 Y-0.5527
N3455 X1.324 Y-0.5524
N3460 X1.3495 Y-0.5523
N3465 X1.3519
N3470 X1.3542 Y-0.5521
N3475 X1.3565 Y-0.5519
N3480 X1.3654 Y-0.5508
N3485 X1.3736 Y-0.5499
N3490 X1.3983 Y-0.5475
N3495 X1.4065 Y-0.5469
N3500 X1.4229 Y-0.5458
N3505 X1.4558 Y-0.5446
N3510 X1.4723 Y-0.5441
N3515 X1.4805
N3520 X1.4969 Y-0.5443
N3525 X1.5051 Y-0.5446
N3530 X1.5298 Y-0.5458
N3535 X1.538 Y-0.5464
N3540 X1.5742 Y-0.547
N3545 X1.6104 Y-0.5485
N3550 X1.6465 Y-0.5495
N3555 X1.6827 Y-0.5503
N3560 X1.7189 Y-0.5508
N3565 X1.7551 Y-0.5512
N3570 X1.7912 Y-0.5515
N3575 X1.8274 Y-0.5516
N3580 X1.8998 Y-0.5519
N3585 X2.0083 Y-0.552
N3590 X2.1892 Y-0.5521
N3595 X2.2253 Y-0.5546
N3600 X2.2592 Y-0.5672
N3605 X2.2887 Y-0.5881
N3610 X2.3132 Y-0.6148
N3615 X2.3329 Y-0.6451
N3620 X2.3485 Y-0.6778
N3625 X2.3607 Y-0.7118
N3630 X2.3702 Y-0.7468
N3635 X2.3775 Y-0.7822
N3640 X2.3831 Y-0.8179
N3645 X2.3873 Y-0.8539
N3650 X2.3906 Y-0.8899
N3655 X2.3931 Y-0.926
N3660 X2.3949 Y-0.9621
N3665 X2.3963 Y-0.9983
N3670 X2.3974 Y-1.0345
N3675 X2.3982 Y-1.0706
N3680 X2.3988 Y-1.1068
N3685 X2.3993 Y-1.143
N3690 X2.3996 Y-1.1792
N3695 X2.3999 Y-1.2154
N3700 X2.4001 Y-1.2515
N3705 X2.4004 Y-1.3239
N3710 Y-1.3508
N3715 X2.4005 Y-1.3529
N3720 X2.4006 Y-1.355
N3725 X2.4008 Y-1.3571
N3730 X2.4035 Y-1.3818
N3735 X2.4053 Y-1.3983
N3740 X2.4059 Y-1.4065
N3745 X2.407 Y-1.4229
N3750 X2.4081 Y-1.4558
N3755 X2.4086 Y-1.4723
N3760 Y-1.4805
N3765 X2.4078 Y-1.5051
N3770 X2.407 Y-1.5298
N3775 X2.4064 Y-1.538
N3780 X2.4058 Y-1.5742
N3785 X2.4043 Y-1.6104
N3790 X2.4032 Y-1.6465
N3795 X2.4025 Y-1.6827
N3800 X2.4019 Y-1.7189
N3805 X2.4016 Y-1.7551
N3810 X2.4013 Y-1.7912
N3815 X2.4011 Y-1.8274
N3820 X2.4009 Y-1.8998
N3825 X2.4007 Y-2.0083
N3830 Y-2.1892
N3835 X2.3981 Y-2.2253
N3840 X2.3855 Y-2.2592
N3845 X2.3645 Y-2.2887
N3850 X2.3379 Y-2.3132
N3855 X2.3075 Y-2.3329
N3860 X2.2749 Y-2.3485
N3865 X2.2409 Y-2.3608
N3870 X2.2059 Y-2.3702
N3875 X2.1705 Y-2.3775
N3880 X2.1347 Y-2.3831
N3885 X2.0988 Y-2.3874
N3890 X2.0628 Y-2.3906
N3895 X2.0267 Y-2.3931
N3900 X1.9905 Y-2.3949
N3905 X1.9544 Y-2.3963
N3910 X1.9182 Y-2.3974
N3915 X1.8821 Y-2.3982
N3920 X1.8459 Y-2.3988
N3925 X1.8097 Y-2.3993
N3930 X1.7735 Y-2.3996
N3935 X1.7373 Y-2.3999
N3940 X1.7012 Y-2.4001
N3945 X1.6288 Y-2.4004
N3950 X1.602
N3955 X1.5998 Y-2.4005
N3960 X1.5977 Y-2.4006
N3965 X1.5956 Y-2.4008
N3970 X1.5709 Y-2.4035
N3975 X1.5545 Y-2.4053
N3980 X1.5463 Y-2.4059
N3985 X1.5298 Y-2.407
N3990 X1.5051 Y-2.4082
N3995 X1.4969 Y-2.4084
N4000 X1.4805 Y-2.4087
N4005 X1.4723 Y-2.4086
N4010 X1.4476 Y-2.4078
N4015 X1.4229 Y-2.407
N4020 X1.4147 Y-2.4064
N4025 X1.3785 Y-2.4058
N4030 X1.3424 Y-2.4043
N4035 X1.3062 Y-2.4032
N4040 X1.2701 Y-2.4025
N4045 X1.2339 Y-2.4019
N4050 X1.1977 Y-2.4016
N4055 X1.1615 Y-2.4013
N4060 X1.1253 Y-2.4011
N4065 X1.053 Y-2.4009
N4070 X0.9444 Y-2.4007
N4075 X0.8721
N4080 X0.8359 Y-2.3999
N4085 X0.8012 Y-2.3896
N4090 X0.7706 Y-2.3703
N4095 X0.745 Y-2.3448
N4100 X0.7242 Y-2.3151
N4105 X0.7077 Y-2.2829
N4110 X0.6947 Y-2.2492
N4115 X0.6847 Y-2.2144
N4120 X0.6769 Y-2.1791
N4125 X0.6709 Y-2.1434
N4130 X0.6664 Y-2.1075
N4135 X0.6629 Y-2.0715
N4140 X0.6603 Y-2.0354
N4145 X0.6583 Y-1.9993
N4150 X0.6568 Y-1.9631
N4155 X0.6557 Y-1.931
N4160 X0.6549 Y-1.9228
N4165 X0.6529 Y-1.9149
N4170 X0.6498 Y-1.9072
N4175 X0.6462 Y-1.8997
N4180 X0.6338 Y-1.875
N4185 X0.6298 Y-1.8669
N4190 X0.6261 Y-1.8586
N4195 X0.6124 Y-1.8257
N4200 X0.6091 Y-1.8175
N4205 X0.6009 Y-1.797
N4210 X0.5994 Y-1.7929
N4215 X0.5913 Y-1.7682
N4220 X0.5832 Y-1.7435
N4225 X0.5809 Y-1.7353
N4230 X0.5762 Y-1.7178
N4235 X0.5702 Y-1.6942
N4240 X0.568 Y-1.6852
N4245 X0.5645 Y-1.6696
N4250 X0.5627 Y-1.6613
N4255 X0.554 Y-1.612
N4260 X0.5529 Y-1.6038
N4265 X0.5518 Y-1.5942
N4270 G3 X0.5486 Y-1.5845 Z-0.1229 I-0.0248 J-0.0028
N4275 G2 X0.5455 Y-1.575 Z-0.1209 I0.0217 J0.0125
N4280 G1 X0.5443 Y-1.5651 Z-0.1188
N4285 X0.5432 Y-1.5562 Z-0.117
N4290 X0.5314 Y-1.461
N4295 G2 X0.5323 Y-1.4509 I0.0248 J0.0031
N4300 G1 X0.5331 Y-1.4484 Z-0.1175
N4305 X0.5343 Y-1.446 Z-0.1181
N4310 X0.5357 Y-1.4437 Z-0.1186
N4315 G3 X0.5464 Y-1.4147 Z-0.125 I-0.0513 J0.0354
N4320 G1 X0.5469 Y-1.4065
N4325 X0.5475 Y-1.3983
N4330 X0.5511 Y-1.3654
N4335 X0.5529 Y-1.349
N4340 X0.554 Y-1.3407
N4345 X0.5627 Y-1.2914
N4350 X0.5645 Y-1.2832
N4355 X0.5682 Y-1.2668
N4360 X0.5702 Y-1.2585
N4365 X0.5762 Y-1.235
N4370 X0.5809 Y-1.2174
N4375 X0.5832 Y-1.2092
N4380 X0.5927 Y-1.1805
N4385 X0.5994 Y-1.1599
N4390 X0.6009 Y-1.1557
N4395 X0.6091 Y-1.1352
N4400 X0.6208 Y-1.101
N4405 X0.6255 Y-1.0835
N4410 X0.6335 Y-1.0482
N4415 X0.6391 Y-1.0125
N4420 X0.6429 Y-0.9765
N4425 X0.6457 Y-0.9404
N4430 X0.6476 Y-0.9043
N4435 X0.6489 Y-0.8681
N4440 X0.6513 Y-0.8321
N4445 X0.6633 Y-0.7979
N4450 X0.6836 Y-0.7679
N4455 X0.7098 Y-0.7429
N4460 X0.7397 Y-0.7227
N4465 X0.7721 Y-0.7066
N4470 X0.806 Y-0.6939
N4475 X0.8408 Y-0.6841
N4480 X0.8762 Y-0.6765
N4485 X0.9119 Y-0.6706
N4490 X0.9478 Y-0.6662
N4495 X0.9839 Y-0.6628
N4500 X1.0144 Y-0.6606
N4505 X1.022 Y-0.6595
N4510 X1.0295 Y-0.6575
N4515 X1.0366 Y-0.6544
N4520 X1.053 Y-0.6462
N4525 X1.0778 Y-0.6338
N4530 X1.0859 Y-0.6298
N4535 X1.0941 Y-0.6261
N4540 X1.1023 Y-0.6226
N4545 X1.127 Y-0.6121
N4550 X1.1343 Y-0.6091
N4555 X1.156 Y-0.6009
N4560 X1.1599 Y-0.5996
N4565 X1.2092 Y-0.5832
N4570 X1.2174 Y-0.5809
N4575 X1.235 Y-0.5762
N4580 X1.2421 Y-0.5741
N4585 X1.2503 Y-0.5721
N4590 X1.2585 Y-0.5701
N4595 X1.2676 Y-0.568
N4600 X1.2832 Y-0.5646
N4605 X1.2914 Y-0.5628
N4610 X1.3161 Y-0.5584
N4615 X1.3407 Y-0.554
N4620 X1.349 Y-0.5528
N4625 X1.3565 Y-0.5519
N4630 G3 X1.3662 Y-0.5486 Z-0.1229 I-0.003 J0.0248
N4635 G2 X1.3759 Y-0.5453 Z-0.1208 I0.0127 J-0.0215
N4640 G1 X1.3855 Y-0.5442 Z-0.1188
N4645 X1.3944 Y-0.5431 Z-0.117
N4650 X1.4919 Y-0.5314
N4655 G2 X1.5018 Y-0.5323 I0.003 J-0.0248
N4660 G1 X1.5043 Y-0.5331 Z-0.1175
N4665 X1.5067 Y-0.5343 Z-0.1181
N4670 X1.509 Y-0.5357 Z-0.1186
N4675 G3 X1.538 Y-0.5464 Z-0.125 I0.0354 J0.0513
N4680 G1 X1.5463 Y-0.5469
N4685 X1.5545 Y-0.5475
N4690 X1.5874 Y-0.5511
N4695 X1.6038 Y-0.5529
N4700 X1.612 Y-0.5539
N4705 X1.6285 Y-0.5566
N4710 X1.6367 Y-0.5579
N4715 X1.6613 Y-0.5628
N4720 X1.686 Y-0.5682
N4725 X1.6942 Y-0.5702
N4730 X1.7178 Y-0.5762
N4735 X1.7353 Y-0.5809
N4740 X1.7435 Y-0.5831
N4745 X1.7682 Y-0.5909
N4750 X1.7929 Y-0.5995
N4755 X1.7967 Y-0.6009
N4760 X1.8175 Y-0.6091
N4765 X1.8518 Y-0.6206
N4770 X1.8693 Y-0.6254
N4775 X1.9045 Y-0.6334
N4780 X1.9403 Y-0.639
N4785 X1.9763 Y-0.6429
N4790 X2.0123 Y-0.6456
N4795 X2.0485 Y-0.6475
N4800 X2.0846 Y-0.6489
N4805 X2.1207 Y-0.6513
N4810 X2.1549 Y-0.6633
N4815 X2.1848 Y-0.6836
N4820 X2.2098 Y-0.7098
N4825 X2.2301 Y-0.7397
N4830 X2.2462 Y-0.7721
N4835 X2.2589 Y-0.806
N4840 X2.2687 Y-0.8408
N4845 X2.2763 Y-0.8762
N4850 X2.2821 Y-0.9119
N4855 X2.2866 Y-0.9478
N4860 X2.29 Y-0.9839
N4865 X2.2922 Y-1.0144
N4870 X2.2932 Y-1.022
N4875 X2.2953 Y-1.0295
N4880 X2.2983 Y-1.0366
N4885 X2.3066 Y-1.053
N4890 X2.319 Y-1.0778
N4895 X2.3229 Y-1.0859
N4900 X2.3267 Y-1.0941
N4905 X2.3303 Y-1.1023
N4910 X2.3354 Y-1.1148
N4915 X2.3404 Y-1.127
N4920 X2.3437 Y-1.1352
N4925 X2.3519 Y-1.156
N4930 X2.3532 Y-1.1599
N4935 X2.3696 Y-1.2092
N4940 X2.3719 Y-1.2174
N4945 X2.3765 Y-1.235
N4950 X2.3826 Y-1.2585
N4955 X2.3847 Y-1.2676
N4960 X2.3882 Y-1.2832
N4965 X2.39 Y-1.2914
N4970 X2.3944 Y-1.3161
N4975 X2.3988 Y-1.3407
N4980 X2.3999 Y-1.349
N4985 X2.4008 Y-1.3571
N4990 G3 X2.404 Y-1.3669 Z-0.1229 I0.0248 J0.0028
N4995 G2 X2.4071 Y-1.3763 Z-0.1209 I-0.0217 J-0.0125
N5000 G1 X2.4083 Y-1.3862 Z-0.1188
N5005 X2.4094 Y-1.3951 Z-0.117
N5010 X2.4213 Y-1.4918
N5015 G2 X2.4205 Y-1.5018 I-0.0248 J-0.003
N5020 G1 X2.4196 Y-1.5043 Z-0.1175
N5025 X2.4185 Y-1.5067 Z-0.1181
N5030 X2.4171 Y-1.509 Z-0.1186
N5035 G3 X2.4064 Y-1.538 Z-0.125 I0.0513 J-0.0354
N5040 G1 X2.4059 Y-1.5463
N5045 X2.4053 Y-1.5545
N5050 X2.4017 Y-1.5874
N5055 X2.3999 Y-1.6038
N5060 X2.3988 Y-1.612
N5065 X2.3944 Y-1.6367
N5070 X2.39 Y-1.6613
N5075 X2.3864 Y-1.6778
N5080 X2.3846 Y-1.686
N5085 X2.3826 Y-1.6942
N5090 X2.3765 Y-1.7178
N5095 X2.3719 Y-1.7353
N5100 X2.3696 Y-1.7435
N5105 X2.3532 Y-1.7929
N5110 X2.3519 Y-1.7967
N5115 X2.3437 Y-1.8175
N5120 X2.3321 Y-1.8518
N5125 X2.3274 Y-1.8693
N5130 X2.3193 Y-1.9045
N5135 X2.3137 Y-1.9403
N5140 X2.3099 Y-1.9763
N5145 X2.3071 Y-2.0123
N5150 X2.3052 Y-2.0485
N5155 X2.3039 Y-2.0846
N5160 X2.3014 Y-2.1207
N5165 X2.2894 Y-2.1549
N5170 X2.2691 Y-2.1848
N5175 X2.243 Y-2.2098
N5180 X2.213 Y-2.2301
N5185 X2.1806 Y-2.2462
N5190 X2.1467 Y-2.2589
N5195 X2.1119 Y-2.2687
N5200 X2.0765 Y-2.2763
N5205 X2.0408 Y-2.2821
N5210 X2.0049 Y-2.2866
N5215 X1.9689 Y-2.29
N5220 X1.9384 Y-2.2922
N5225 X1.9307 Y-2.2932
N5230 X1.9233 Y-2.2953
N5235 X1.9162 Y-2.2983
N5240 X1.8997 Y-2.3066
N5245 X1.875 Y-2.319
N5250 X1.8669 Y-2.3229
N5255 X1.8586 Y-2.3267
N5260 X1.8257 Y-2.3403
N5265 X1.8175 Y-2.3437
N5270 X1.7967 Y-2.3519
N5275 X1.7929 Y-2.3532
N5280 X1.7682 Y-2.3619
N5285 X1.7435 Y-2.3696
N5290 X1.7353 Y-2.3719
N5295 X1.7178 Y-2.3765
N5300 X1.6942 Y-2.3826
N5305 X1.6852 Y-2.3847
N5310 X1.6613 Y-2.39
N5315 X1.6367 Y-2.3948
N5320 X1.6285 Y-2.3962
N5325 X1.612 Y-2.3988
N5330 X1.6038 Y-2.3999
N5335 X1.5956 Y-2.4008
N5340 G3 X1.5859 Y-2.404 Z-0.1229 I0.0028 J-0.0248
N5345 G2 X1.5765 Y-2.4071 Z-0.1209 I-0.0125 J0.0217
N5350 G1 X1.5666 Y-2.4083 Z-0.1188
N5355 X1.5577 Y-2.4094 Z-0.117
N5360 X1.461 Y-2.4213
N5365 G2 X1.4509 Y-2.4205 I-0.003 J0.0248
N5370 G1 X1.4484 Y-2.4196 Z-0.1175
N5375 X1.446 Y-2.4185 Z-0.1181
N5380 X1.4437 Y-2.4171 Z-0.1186
N5385 G3 X1.4147 Y-2.4064 Z-0.125 I-0.0354 J-0.0513
N5390 G1 X1.4065 Y-2.4059
N5395 X1.3983 Y-2.4053
N5400 X1.3736 Y-2.4028
N5405 X1.3654 Y-2.4019
N5410 X1.349 Y-2.3999
N5415 X1.3407 Y-2.3988
N5420 X1.3161 Y-2.3944
N5425 X1.2914 Y-2.39
N5430 X1.275 Y-2.3864
N5435 X1.2668 Y-2.3846
N5440 X1.2585 Y-2.3826
N5445 X1.2503 Y-2.3807
N5450 X1.2421 Y-2.3786
N5455 X1.235 Y-2.3765
N5460 X1.2174 Y-2.3719
N5465 X1.2092 Y-2.3696
N5470 X1.1599 Y-2.3532
N5475 X1.156 Y-2.3519
N5480 X1.1343 Y-2.3436
N5485 X1.127 Y-2.3407
N5490 X1.1065 Y-2.3331
N5495 X1.074 Y-2.3239
N5500 X1.0385 Y-2.3169
N5505 X1.0027 Y-2.3121
N5510 X0.9666 Y-2.3087
N5515 X0.9307 Y-2.3048
N5520 X0.8969 Y-2.2919
N5525 X0.8672 Y-2.2711
N5530 X0.8425 Y-2.2447
N5535 X0.8224 Y-2.2146
N5540 X0.8064 Y-2.1822
N5545 X0.7938 Y-2.1483
N5550 X0.7841 Y-2.1134
N5555 X0.7837 Y-2.1116
N5560 X0.7809 Y-2.1025
N5565 X0.7768 Y-2.094
N5570 X0.7713 Y-2.0863
N5575 X0.7665 Y-2.0806
N5580 X0.7571 Y-2.069
N5585 X0.7324 Y-2.0383
N5590 X0.7272 Y-2.0313
N5595 X0.7078 Y-2.0033
N5600 X0.693 Y-1.9819
N5605 X0.6913 Y-1.9793
N5610 X0.6781 Y-1.9573
N5615 X0.6635 Y-1.9326
N5620 X0.6584 Y-1.9238
N5625 X0.6542 Y-1.9162
N5630 X0.6498 Y-1.9072
N5635 G3 X0.6239 Y-1.8943 I-0.0221 J-0.0118
N5640 G1 X0.62 Y-1.8949 Z-0.1247
N5645 X0.6163 Y-1.8955 Z-0.1238
N5650 X0.6127 Y-1.8961 Z-0.1223
N5655 X0.6094 Y-1.8966 Z-0.1202
N5660 X0.6064 Y-1.897 Z-0.1177
N5665 X0.6039 Y-1.8974 Z-0.1147
N5670 X0.6019 Y-1.8978 Z-0.1113
N5675 X0.6004 Y-1.898 Z-0.1077
N5680 X0.5995 Y-1.8981 Z-0.1039
N5685 X0.5992 Y-1.8982 Z-0.1
N5690 Z0.2
N5695 X1.1656 Y-2.3806
N5700 Z-0.075
N5705 Z-0.1
N5710 X1.1654 Y-2.3803 Z-0.1039
N5715 X1.1648 Y-2.3796 Z-0.1077
N5720 X1.164 Y-2.3784 Z-0.1113
N5725 X1.1628 Y-2.3767 Z-0.1147
N5730 X1.1613 Y-2.3747 Z-0.1177
N5735 X1.1595 Y-2.3722 Z-0.1202
N5740 X1.1575 Y-2.3695 Z-0.1223
N5745 X1.1554 Y-2.3666 Z-0.1238
N5750 X1.1531 Y-2.3635 Z-0.1247
N5755 X1.1508 Y-2.3604 Z-0.125
N5760 G3 X1.127 Y-2.3407 I-0.0504 J-0.0367
N5765 G1 X1.1023 Y-2.3301
N5770 X1.0941 Y-2.3267
N5775 X1.0859 Y-2.3229
N5780 X1.0777 Y-2.3189
N5785 X1.0448 Y-2.3025
N5790 X1.0366 Y-2.2983
N5795 X1.0284 Y-2.294
N5800 X1.0201 Y-2.2893
N5805 X0.9955 Y-2.2747
N5810 X0.9734 Y-2.2614
N5815 X0.9708 Y-2.2598
N5820 X0.9462 Y-2.2427
N5825 X0.9215 Y-2.2256
N5830 X0.9144 Y-2.2203
N5835 X0.8939 Y-2.2039
N5840 X0.8722 Y-2.1862
N5845 X0.8638 Y-2.1792
N5850 X0.846 Y-2.1628
N5855 X0.8229 Y-2.1412
N5860 X0.8197 Y-2.1381
N5865 X0.8146 Y-2.1331
N5870 X0.8116 Y-2.1299
N5875 X0.7886 Y-2.1052
N5880 X0.7734 Y-2.0888
N5885 X0.7713 Y-2.0863
N5890 G3 X0.743 Y-2.08 I-0.0186 J-0.0167
N5895 G1 X0.7394 Y-2.0815 Z-0.1247
N5900 X0.7359 Y-2.083 Z-0.1238
N5905 X0.7325 Y-2.0844 Z-0.1223
N5910 X0.7295 Y-2.0857 Z-0.1202
N5915 X0.7267 Y-2.0868 Z-0.1177
N5920 X0.7244 Y-2.0878 Z-0.1147
N5925 X0.7225 Y-2.0886 Z-0.1113
N5930 X0.7211 Y-2.0892 Z-0.1077
N5935 X0.7202 Y-2.0896 Z-0.1039
N5940 X0.72 Y-2.0897 Z-0.1
N5945 Z0.2
N5950 X0.5702 Y-1.1748
N5955 Z-0.075
N5960 Z-0.1
N5965 X0.5704 Y-1.1746 Z-0.1039
N5970 X0.5711 Y-1.174 Z-0.1077
N5975 X0.5723 Y-1.1731 Z-0.1113
N5980 X0.5739 Y-1.1719 Z-0.1147
N5985 X0.576 Y-1.1703 Z-0.1177
N5990 X0.5783 Y-1.1685 Z-0.1202
N5995 X0.581 Y-1.1665 Z-0.1223
N6000 X0.5839 Y-1.1643 Z-0.1238
N6005 X0.5869 Y-1.1619 Z-0.1247
N6010 X0.59 Y-1.1596 Z-0.125
N6015 G3 X0.6091 Y-1.1352 I-0.038 J0.0494
N6020 G1 X0.6124 Y-1.127
N6025 X0.6261 Y-1.0941
N6030 X0.6298 Y-1.0859
N6035 X0.6338 Y-1.0777
N6040 X0.6462 Y-1.053
N6045 X0.6542 Y-1.0366
N6050 X0.6587 Y-1.0284
N6055 X0.6635 Y-1.0201
N6060 X0.6781 Y-0.9955
N6065 X0.6913 Y-0.9734
N6070 X0.7 Y-0.9583
N6075 X0.7154 Y-0.9256
N6080 X0.7339 Y-0.8945
N6085 X0.7574 Y-0.8669
N6090 X0.785 Y-0.8435
N6095 X0.7967 Y-0.8361
N6100 X0.8007 Y-0.8332
N6105 X0.8046 Y-0.8301
N6110 X0.8081 Y-0.8266
N6115 G3 X0.8056 Y-0.7913 Z-0.117 I-0.0189 J0.0164
N6120 X0.7696 Y-0.7946 I-0.0164 J-0.0189
N6125 G1 X0.6512 Y-0.9436
N6130 G3 X0.6566 Y-0.9798 I0.0196 J-0.0156
N6135 X0.6913 Y-0.9734 Z-0.125 I0.0142 J0.0206
N6140 G1 X0.693 Y-0.9708
N6145 X0.71 Y-0.9462
N6150 X0.7272 Y-0.9215
N6155 X0.7324 Y-0.9144
N6160 X0.7598 Y-0.8804
N6165 X0.7665 Y-0.8722
N6170 X0.7735 Y-0.8638
N6175 X0.79 Y-0.846
N6180 X0.8116 Y-0.8229
N6185 X0.8146 Y-0.8197
N6190 X0.8197 Y-0.8146
N6195 X0.8229 Y-0.8116
N6200 X0.8475 Y-0.7886
N6205 X0.864 Y-0.7734
N6210 X0.8722 Y-0.7665
N6215 X0.8939 Y-0.7489
N6220 X0.9144 Y-0.7324
N6225 X0.9215 Y-0.7272
N6230 X0.9494 Y-0.7078
N6235 X0.9708 Y-0.693
N6240 X0.9734 Y-0.6913
N6245 X1.0009 Y-0.6749
N6250 X1.0201 Y-0.6635
N6255 X1.0284 Y-0.6588
N6260 X1.0366 Y-0.6544
N6265 G3 X1.0486 Y-0.6281 I-0.0125 J0.0217
N6270 G1 X1.0479 Y-0.6242 Z-0.1247
N6275 X1.0472 Y-0.6205 Z-0.1238
N6280 X1.0465 Y-0.6169 Z-0.1223
N6285 X1.0459 Y-0.6136 Z-0.1202
N6290 X1.0453 Y-0.6107 Z-0.1177
N6295 X1.0448 Y-0.6082 Z-0.1147
N6300 X1.0444 Y-0.6062 Z-0.1113
N6305 X1.0442 Y-0.6047 Z-0.1077
N6310 X1.044 Y-0.6038 Z-0.1039
N6315 X1.0439 Y-0.6035 Z-0.1
N6320 Z0.2
N6325 X1.7778 Y-0.5704
N6330 Z-0.075
N6335 Z-0.1
N6340 X1.778 Y-0.5706 Z-0.1039
N6345 X1.7785 Y-0.5713 Z-0.1077
N6350 X1.7795 Y-0.5725 Z-0.1113
N6355 X1.7807 Y-0.5741 Z-0.1147
N6360 X1.7823 Y-0.5761 Z-0.1177
N6365 X1.7841 Y-0.5785 Z-0.1202
N6370 X1.7862 Y-0.5811 Z-0.1223
N6375 X1.7884 Y-0.584 Z-0.1238
N6380 X1.7907 Y-0.587 Z-0.1247
N6385 X1.7931 Y-0.5901 Z-0.125
N6390 G3 X1.8175 Y-0.6091 I0.0492 J0.0382
N6395 G1 X1.8257 Y-0.6124
N6400 X1.8586 Y-0.6261
N6405 X1.8669 Y-0.6298
N6410 X1.8751 Y-0.6338
N6415 X1.908 Y-0.6503
N6420 X1.9162 Y-0.6544
N6425 X1.9244 Y-0.6588
N6430 X1.9326 Y-0.6635
N6435 X1.9573 Y-0.6781
N6440 X1.9793 Y-0.6913
N6445 X2.0109 Y-0.709
N6450 X2.0433 Y-0.7251
N6455 X2.0728 Y-0.746
N6460 X2.0983 Y-0.7717
N6465 X2.119 Y-0.8
N6470 X2.1213 Y-0.8029
N6475 X2.1237 Y-0.8057
N6480 X2.1264 Y-0.8083
N6485 G3 X2.1616 Y-0.8058 Z-0.117 I0.0164 J0.0189
N6490 X2.1583 Y-0.7698 I-0.0189 J0.0164
N6495 G1 X2.0089 Y-0.6511
N6500 G3 X1.9726 Y-0.6566 I-0.0156 J-0.0196
N6505 X1.9793 Y-0.6913 Z-0.125 I0.0207 J-0.014
N6510 G1 X1.9819 Y-0.693
N6515 X1.9984 Y-0.7039
N6520 X2.0039 Y-0.7078
N6525 X2.0066 Y-0.7098
N6530 X2.0313 Y-0.7272
N6535 X2.0383 Y-0.7324
N6540 X2.0724 Y-0.7598
N6545 X2.0806 Y-0.7665
N6550 X2.089 Y-0.7735
N6555 X2.0982 Y-0.7817
N6560 X2.1052 Y-0.7882
N6565 X2.1135 Y-0.7963
N6570 X2.1299 Y-0.8116
N6575 X2.1331 Y-0.8146
N6580 X2.1381 Y-0.8197
N6585 X2.1412 Y-0.8229
N6590 X2.1642 Y-0.8475
N6595 X2.1793 Y-0.864
N6600 X2.1874 Y-0.8734
N6605 X2.1933 Y-0.8804
N6610 X2.1997 Y-0.8886
N6615 X2.2039 Y-0.894
N6620 X2.2203 Y-0.9144
N6625 X2.2256 Y-0.9215
N6630 X2.245 Y-0.9494
N6635 X2.2598 Y-0.9708
N6640 X2.2614 Y-0.9734
N6645 X2.2698 Y-0.9873
N6650 X2.2747 Y-0.9955
N6655 X2.2795 Y-1.0037
N6660 X2.2893 Y-1.0201
N6665 X2.294 Y-1.0284
N6670 X2.2983 Y-1.0366
N6675 G3 X2.3247 Y-1.0486 I0.0217 J0.0125
N6680 G1 X2.3285 Y-1.0479 Z-0.1247
N6685 X2.3323 Y-1.0472 Z-0.1238
N6690 X2.3358 Y-1.0465 Z-0.1223
N6695 X2.3391 Y-1.0459 Z-0.1202
N6700 X2.342 Y-1.0453 Z-0.1177
N6705 X2.3445 Y-1.0448 Z-0.1147
N6710 X2.3466 Y-1.0444 Z-0.1113
N6715 X2.348 Y-1.0442 Z-0.1077
N6720 X2.3489 Y-1.044 Z-0.1039
N6725 X2.3492 Y-1.0439 Z-0.1
N6730 Z0.2
N6735 X2.3824 Y-1.7778
N6740 Z-0.075
N6745 Z-0.1
N6750 X2.3821 Y-1.778 Z-0.1039
N6755 X2.3814 Y-1.7785 Z-0.1077
N6760 X2.3802 Y-1.7795 Z-0.1113
N6765 X2.3786 Y-1.7807 Z-0.1147
N6770 X2.3766 Y-1.7823 Z-0.1177
N6775 X2.3742 Y-1.7841 Z-0.1202
N6780 X2.3716 Y-1.7862 Z-0.1223
N6785 X2.3687 Y-1.7884 Z-0.1238
N6790 X2.3657 Y-1.7907 Z-0.1247
N6795 X2.3626 Y-1.7931 Z-0.125
N6800 G3 X2.3437 Y-1.8175 I0.0382 J-0.0492
N6805 G1 X2.3404 Y-1.8257
N6810 X2.3337 Y-1.8422
N6815 X2.3303 Y-1.8504
N6820 X2.3267 Y-1.8586
N6825 X2.3229 Y-1.8669
N6830 X2.3189 Y-1.8751
N6835 X2.3025 Y-1.908
N6840 X2.2983 Y-1.9162
N6845 X2.294 Y-1.9244
N6850 X2.2893 Y-1.9326
N6855 X2.2779 Y-1.9518
N6860 X2.2747 Y-1.9573
N6865 X2.2697 Y-1.9658
N6870 X2.2614 Y-1.9793
N6875 X2.2533 Y-1.9934
N6880 X2.2377 Y-2.0261
N6885 X2.2194 Y-2.0573
N6890 X2.1961 Y-2.085
N6895 X2.1686 Y-2.1086
N6900 X2.156 Y-2.1166
N6905 X2.1521 Y-2.1194
N6910 X2.1483 Y-2.1226
N6915 X2.1448 Y-2.126
N6920 G3 X2.1473 Y-2.1612 Z-0.117 I0.0189 J-0.0164
N6925 X2.1833 Y-2.1579 I0.0164 J0.0189
N6930 G1 X2.3015 Y-2.0092
N6935 G3 X2.2962 Y-1.9732 I-0.0196 J0.0156
N6940 X2.2614 Y-1.9793 Z-0.125 I-0.0143 J-0.0205
N6945 G1 X2.2598 Y-1.9819
N6950 X2.2427 Y-2.0066
N6955 X2.2256 Y-2.0313
N6960 X2.2203 Y-2.0383
N6965 X2.2039 Y-2.0588
N6970 X2.1997 Y-2.0641
N6975 X2.1933 Y-2.0724
N6980 X2.1864 Y-2.0806
N6985 X2.1792 Y-2.0889
N6990 X2.1628 Y-2.1067
N6995 X2.1412 Y-2.1299
N7000 X2.1381 Y-2.1331
N7005 X2.1331 Y-2.1381
N7010 X2.1299 Y-2.1412
N7015 X2.1135 Y-2.1565
N7020 X2.1052 Y-2.1646
N7025 X2.0982 Y-2.171
N7030 X2.0888 Y-2.1794
N7035 X2.0791 Y-2.1874
N7040 X2.069 Y-2.1957
N7045 X2.0383 Y-2.2203
N7050 X2.0313 Y-2.2256
N7055 X2.0066 Y-2.2429
N7060 X2.0039 Y-2.245
N7065 X1.9984 Y-2.2488
N7070 X1.9819 Y-2.2598
N7075 X1.9793 Y-2.2614
N7080 X1.9573 Y-2.2746
N7085 X1.9326 Y-2.2893
N7090 X1.9244 Y-2.294
N7095 X1.9162 Y-2.2983
N7100 X1.9137 Y-2.2999
N7105 X1.9114 Y-2.3019
N7110 X1.9097 Y-2.3043 Z-0.1248
N7115 X1.9079 Y-2.3066 Z-0.1243
N7120 X1.9062 Y-2.3089 Z-0.1234
N7125 X1.9054 Y-2.312 Z-0.1219
N7130 X1.9045 Y-2.3148 Z-0.12
N7135 X1.9038 Y-2.3174 Z-0.1177
N7140 X1.9037 Y-2.3187 Z-0.1162
N7145 Y-2.32 Z-0.1146
N7150 X1.9039 Y-2.322 Z-0.1113
N7155 X1.904 Y-2.3235 Z-0.1077
N7160 X1.9041 Y-2.3244 Z-0.1039
N7165 Y-2.3247 Z-0.1
N7170 Z0.2
N7175 X1.4079 Y-1.5778
N7180 Z0.1
N7185 G3 X1.5808 Y-1.5401 Z0.0827 I0.0685 J0.1014 F10.
N7190 X1.5354 Y-1.3695 Z0.0654 I-0.1042 J0.0636
N7195 X1.3675 Y-1.4226 Z0.0481 I-0.0586 J-0.1067
N7200 X1.428 Y-1.5875 Z0.0308 I0.109 J-0.0536
N7205 X1.5896 Y-1.5197 Z0.0135 I0.0484 J0.1111
N7210 X1.5147 Y-1.3618 Z-0.0038 I-0.1129 J0.0432
N7215 X1.3607 Y-1.4436 Z-0.0212 I-0.0379 J-0.1145
N7220 X1.4492 Y-1.5933 Z-0.0385 I0.1158 J-0.0326
N7225 X1.5944 Y-1.4982 Z-0.0558 I0.0272 J0.1169
N7230 X1.493 Y-1.358 Z-0.0731 I-0.1177 J0.0217
N7235 X1.3579 Y-1.4653 Z-0.0904 I-0.0163 J-0.1182
N7240 X1.471 Y-1.5951 Z-0.1077 I0.1186 J-0.0109
N7245 X1.5952 Y-1.4765 Z-0.125 I0.0054 J0.1186
N7250 X1.3577 I-0.1188 J0.
N7255 X1.5952 I0.1188 J0.
N7260 G1 X1.5953 Y-1.4674 F15.
N7265 X1.6015 Y-1.4318
N7270 X1.6031 Y-1.4275
N7275 X1.6047 Y-1.4218
N7280 X1.6057 Y-1.4159
N7285 X1.6062 Y-1.4099
N7290 X1.6061 Y-1.4037
N7295 X1.6055 Y-1.3971
N7300 X1.6043 Y-1.3901
N7305 X1.6025 Y-1.3828
N7310 X1.5998 Y-1.3752
N7315 X1.5965 Y-1.3675
N7320 X1.5923 Y-1.3596
N7325 X1.5872 Y-1.3518
N7330 X1.5813 Y-1.344
N7335 X1.5744 Y-1.3364
N7340 X1.5667 Y-1.3292
N7345 X1.5582 Y-1.3223
N7350 X1.5488 Y-1.3159
N7355 X1.5386 Y-1.3101
N7360 X1.5277 Y-1.305
N7365 X1.5161 Y-1.3007
N7370 X1.504 Y-1.2973
N7375 X1.4913 Y-1.2948
N7380 X1.4783 Y-1.2933
N7385 X1.4649 Y-1.2928
N7390 X1.4514 Y-1.2935
N7395 X1.4377 Y-1.2952
N7400 X1.4241 Y-1.2981
N7405 X1.4106 Y-1.3021
N7410 X1.3973 Y-1.3072
N7415 X1.3843 Y-1.3134
N7420 X1.3719 Y-1.3207
N7425 X1.3599 Y-1.329
N7430 X1.3486 Y-1.3383
N7435 X1.338 Y-1.3485
N7440 X1.3283 Y-1.3596
N7445 X1.3194 Y-1.3715
N7450 X1.3115 Y-1.3841
N7455 X1.3046 Y-1.3974
N7460 X1.2987 Y-1.4112
N7465 X1.294 Y-1.4255
N7470 X1.2904 Y-1.4401
N7475 X1.2881 Y-1.455
N7480 X1.2869 Y-1.47
N7485 Y-1.4852
N7490 X1.2881 Y-1.5003
N7495 X1.2906 Y-1.5152
N7500 X1.2942 Y-1.53
N7505 X1.2991 Y-1.5444
N7510 X1.305 Y-1.5583
N7515 X1.3121 Y-1.5718
N7520 X1.3202 Y-1.5847
N7525 X1.3294 Y-1.5968
N7530 X1.3395 Y-1.6082
N7535 X1.3505 Y-1.6188
N7540 X1.3623 Y-1.6284
N7545 X1.3748 Y-1.6371
N7550 X1.388 Y-1.6447
N7555 X1.4018 Y-1.6513
N7560 X1.416 Y-1.6567
N7565 X1.4307 Y-1.661
N7570 X1.4456 Y-1.6641
N7575 X1.4608 Y-1.666
N7580 X1.476 Y-1.6666
N7585 X1.4913 Y-1.666
N7590 X1.5064 Y-1.6642
N7595 X1.5214 Y-1.6612
N7600 X1.5361 Y-1.657
N7605 X1.5504 Y-1.6516
N7610 X1.5642 Y-1.6451
N7615 X1.5775 Y-1.6376
N7620 X1.5901 Y-1.6289
N7625 X1.6019 Y-1.6193
N7630 X1.613 Y-1.6088
N7635 X1.6232 Y-1.5974
N7640 X1.6324 Y-1.5852
N7645 X1.6414 Y-1.5712
N7650 X1.657 Y-1.5418
N7655 X1.6681 Y-1.5162
N7660 X1.6754 Y-1.4947
N7665 X1.6803 Y-1.4753
N7670 X1.6834 Y-1.4569
N7675 X1.6849 Y-1.4391
N7680 X1.685 Y-1.4219
N7685 X1.6838 Y-1.4051
N7690 X1.6813 Y-1.3887
N7695 X1.6774 Y-1.3727
N7700 X1.6723 Y-1.357
N7705 X1.666 Y-1.3418
N7710 X1.6584 Y-1.3271
N7715 X1.6496 Y-1.3129
N7720 X1.6396 Y-1.2994
N7725 X1.6284 Y-1.2865
N7730 X1.6161 Y-1.2745
N7735 X1.6027 Y-1.2634
N7740 X1.5882 Y-1.2532
N7745 X1.5728 Y-1.2441
N7750 X1.5565 Y-1.2362
N7755 X1.5393 Y-1.2295
N7760 X1.5214 Y-1.2241
N7765 X1.503 Y-1.2201
N7770 X1.484 Y-1.2176
N7775 X1.4647 Y-1.2166
N7780 X1.4452 Y-1.2172
N7785 X1.4255 Y-1.2194
N7790 X1.406 Y-1.2231
N7795 X1.3867 Y-1.2285
N7800 X1.3677 Y-1.2355
N7805 X1.3492 Y-1.244
N7810 X1.3314 Y-1.254
N7815 X1.3143 Y-1.2655
N7820 X1.2981 Y-1.2784
N7825 X1.2829 Y-1.2926
N7830 X1.2689 Y-1.308
N7835 X1.256 Y-1.3246
N7840 X1.2446 Y-1.3423
N7845 X1.2345 Y-1.3609
N7850 X1.2259 Y-1.3803
N7855 X1.2189 Y-1.4003
N7860 X1.2135 Y-1.4209
N7865 X1.2098 Y-1.4419
N7870 X1.2078 Y-1.4632
N7875 X1.2074 Y-1.4846
N7880 X1.2089 Y-1.5061
N7885 X1.212 Y-1.5273
N7890 X1.2168 Y-1.5483
N7895 X1.2233 Y-1.5688
N7900 X1.2314 Y-1.5887
N7905 X1.2411 Y-1.608
N7910 X1.2524 Y-1.6264
N7915 X1.2651 Y-1.6439
N7920 X1.2791 Y-1.6603
N7925 X1.2945 Y-1.6755
N7930 X1.311 Y-1.6895
N7935 X1.3285 Y-1.7021
N7940 X1.3471 Y-1.7132
N7945 X1.3665 Y-1.7228
N7950 X1.3866 Y-1.7308
N7955 X1.4072 Y-1.7372
N7960 X1.4284 Y-1.742
N7965 X1.4498 Y-1.745
N7970 X1.4714 Y-1.7462
N7975 X1.4931 Y-1.7458
N7980 X1.5146 Y-1.7436
N7985 X1.536 Y-1.7397
N7990 X1.5569 Y-1.734
N7995 X1.5773 Y-1.7268
N8000 X1.597 Y-1.7179
N8005 X1.616 Y-1.7074
N8010 X1.6341 Y-1.6955
N8015 X1.6514 Y-1.6819
N8020 X1.6701 Y-1.6647
N8025 X1.6881 Y-1.6452
N8030 X1.7051 Y-1.6236
N8035 X1.7205 Y-1.6003
N8040 X1.7338 Y-1.5762
N8045 X1.7449 Y-1.5517
N8050 X1.7538 Y-1.527
N8055 X1.7605 Y-1.5023
N8060 X1.765 Y-1.4776
N8065 X1.7676 Y-1.4531
N8070 X1.7681 Y-1.4287
N8075 X1.7668 Y-1.4047
N8080 X1.7635 Y-1.381
N8085 X1.7583 Y-1.3578
N8090 X1.7514 Y-1.3351
N8095 X1.7426 Y-1.3131
N8100 X1.7321 Y-1.2919
N8105 X1.7199 Y-1.2715
N8110 X1.7061 Y-1.2521
N8115 X1.6906 Y-1.2337
N8120 X1.6736 Y-1.2166
N8125 X1.6552 Y-1.2008
N8130 X1.6354 Y-1.1864
N8135 X1.6144 Y-1.1735
N8140 X1.5922 Y-1.1622
N8145 X1.5689 Y-1.1527
N8150 X1.5448 Y-1.145
N8155 X1.52 Y-1.1393
N8160 X1.4945 Y-1.1355
N8165 X1.4687 Y-1.1337
N8170 X1.4426 Y-1.1341
N8175 X1.4164 Y-1.1365
N8180 X1.3904 Y-1.1411
N8185 X1.3646 Y-1.1478
N8190 X1.3394 Y-1.1566
N8195 X1.3147 Y-1.1674
N8200 X1.2909 Y-1.1803
N8205 X1.2681 Y-1.1951
N8210 X1.2465 Y-1.2117
N8215 X1.2261 Y-1.2302
N8220 X1.2073 Y-1.2502
N8225 X1.19 Y-1.2719
N8230 X1.1745 Y-1.2948
N8235 X1.1608 Y-1.3191
N8240 X1.1491 Y-1.3444
N8245 X1.1395 Y-1.3707
N8250 X1.1331 Y-1.3936
N8255 X1.1319 Y-1.3983
N8260 X1.1278 Y-1.4147
N8265 X1.127 Y-1.4186
N8270 X1.1244 Y-1.4476
N8275 X1.1223 Y-1.4723
N8280 Y-1.4805
N8285 X1.1266 Y-1.5298
N8290 X1.127 Y-1.5341
N8295 X1.1278 Y-1.538
N8300 X1.134 Y-1.5627
N8305 X1.1362 Y-1.5709
N8310 X1.1428 Y-1.5956
N8315 X1.1434 Y-1.5977
N8320 X1.1462 Y-1.6038
N8325 X1.1681 Y-1.6508
N8330 X1.1693 Y-1.6531
N8335 X1.1748 Y-1.6613
N8340 X1.2036 Y-1.7024
N8345 X1.2092 Y-1.7086
N8350 X1.2442 Y-1.7435
N8355 X1.2503 Y-1.7491
N8360 X1.2914 Y-1.7779
N8365 X1.2996 Y-1.7835
N8370 X1.302 Y-1.7846
N8375 X1.349 Y-1.8066
N8380 X1.3551 Y-1.8093
N8385 X1.3572 Y-1.81
N8390 X1.3853 Y-1.8175
N8395 X1.3901 Y-1.8188
N8400 X1.4147 Y-1.8249
N8405 X1.4186 Y-1.8257
N8410 X1.4476 Y-1.8283
N8415 X1.4723 Y-1.8305
N8420 X1.4805
N8425 X1.5298 Y-1.8261
N8430 X1.5341 Y-1.8257
N8435 X1.538 Y-1.8249
N8440 X1.5627 Y-1.8188
N8445 X1.5709 Y-1.8166
N8450 X1.5956 Y-1.81
N8455 X1.5977 Y-1.8093
N8460 X1.6038 Y-1.8066
N8465 X1.6508 Y-1.7846
N8470 X1.6531 Y-1.7835
N8475 X1.6613 Y-1.7779
N8480 X1.7024 Y-1.7491
N8485 X1.7086 Y-1.7435
N8490 X1.7435 Y-1.7086
N8495 X1.7491 Y-1.7024
N8500 X1.7779 Y-1.6613
N8505 X1.7835 Y-1.6531
N8510 X1.7846 Y-1.6508
N8515 X1.8066 Y-1.6038
N8520 X1.8093 Y-1.5977
N8525 X1.81 Y-1.5956
N8530 X1.8175 Y-1.5675
N8535 X1.8188 Y-1.5627
N8540 X1.8249 Y-1.538
N8545 X1.8257 Y-1.5341
N8550 X1.8283 Y-1.5051
N8555 X1.8305 Y-1.4805
N8560 Y-1.4723
N8565 X1.8261 Y-1.4229
N8570 X1.8257 Y-1.4186
N8575 X1.8249 Y-1.4147
N8580 X1.8188 Y-1.3901
N8585 X1.8166 Y-1.3818
N8590 X1.81 Y-1.3572
N8595 X1.8093 Y-1.3551
N8600 X1.8066 Y-1.349
N8605 X1.7846 Y-1.302
N8610 X1.7835 Y-1.2996
N8615 X1.7779 Y-1.2914
N8620 X1.7491 Y-1.2503
N8625 X1.7435 Y-1.2442
N8630 X1.7086 Y-1.2092
N8635 X1.7024 Y-1.2036
N8640 X1.6613 Y-1.1748
N8645 X1.6531 Y-1.1693
N8650 X1.6508 Y-1.1681
N8655 X1.6038 Y-1.1462
N8660 X1.5977 Y-1.1434
N8665 X1.5956 Y-1.1428
N8670 X1.5675 Y-1.1352
N8675 X1.5627 Y-1.134
N8680 X1.538 Y-1.1278
N8685 X1.5341 Y-1.127
N8690 X1.5051 Y-1.1244
N8695 X1.4805 Y-1.1223
N8700 X1.4723
N8705 X1.4229 Y-1.1266
N8710 X1.4186 Y-1.127
N8715 X1.4147 Y-1.1278
N8720 X1.3901 Y-1.134
N8725 X1.3818 Y-1.1362
N8730 X1.3572 Y-1.1428
N8735 X1.3551 Y-1.1434
N8740 X1.349 Y-1.1462
N8745 X1.302 Y-1.1681
N8750 X1.2996 Y-1.1693
N8755 X1.2914 Y-1.1748
N8760 X1.2503 Y-1.2036
N8765 X1.2442 Y-1.2092
N8770 X1.2092 Y-1.2442
N8775 X1.2036 Y-1.2503
N8780 X1.1748 Y-1.2914
N8785 X1.1693 Y-1.2996
N8790 X1.1681 Y-1.302
N8795 X1.1462 Y-1.349
N8800 X1.1434 Y-1.3551
N8805 X1.1428 Y-1.3572
N8810 X1.1352 Y-1.3853
N8815 X1.1335 Y-1.392
N8820 X1.1331 Y-1.3936
N8825 G3 X1.1446 Y-1.4202 I0.0244 J-0.0052
N8830 G1 X1.1479 Y-1.4222 Z-0.1247
N8835 X1.1512 Y-1.4242 Z-0.1238
N8840 X1.1543 Y-1.4261 Z-0.1223
N8845 X1.1572 Y-1.4278 Z-0.1202
N8850 X1.1597 Y-1.4294 Z-0.1177
N8855 X1.1619 Y-1.4307 Z-0.1147
N8860 X1.1637 Y-1.4317 Z-0.1113
N8865 X1.1649 Y-1.4325 Z-0.1077
N8870 X1.1657 Y-1.433 Z-0.1039
N8875 X1.166 Y-1.4332 Z-0.1
N8880 Z0.6
(WHEN USING FUSION FOR PERSONAL USE, THE FEEDRATE OF RAPID)
(MOVES IS REDUCED TO MATCH THE FEEDRATE OF CUTTING MOVES,)
(WHICH CAN INCREASE MACHINING TIME. UNRESTRICTED RAPID MOVES)
(ARE AVAILABLE WITH A FUSION SUBSCRIPTION.)
(ADAPTIVE1 2)
N8885 G0 X1.517 Y-1.3577
N8890 G1 Z0.6 F15.
N8895 Z0.2
N8900 Z-0.025
N8905 G3 X1.3514 Y-1.4666 Z-0.045 I-0.0406 J-0.1186 F10.
N8910 X1.4977 Y-1.5995 Z-0.065 I0.1247 J-0.0097
N8915 X1.5896 Y-1.4251 Z-0.085 I-0.0216 J0.1228
N8920 X1.3984 Y-1.3797 Z-0.105 I-0.1132 J-0.0514
N8925 X1.4021 Y-1.5757 Z-0.125 I0.0778 J-0.0965
N8930 X1.5904 Y-1.5234 Z-0.145 I0.0739 J0.0992
N8935 X1.493 Y-1.3545 Z-0.165 I-0.1141 J0.0467
N8940 X1.3542 Y-1.4906 Z-0.185 I-0.0167 J-0.1218
N8945 X1.5201 Y-1.5908 Z-0.205 I0.1218 J0.0142
N8950 X1.5756 Y-1.4056 Z-0.225 I-0.044 J0.1141
N8955 X1.383 Y-1.3981 Z-0.245 I-0.0992 J-0.0709
N8960 X1.4237 Y-1.5859 Z-0.265 I0.0931 J-0.0782
N8965 X1.5949 Y-1.5 Z-0.285 I0.0523 J0.1093
N8970 X1.4693 Y-1.356 Z-0.305 I-0.1186 J0.0233
N8975 X1.3616 Y-1.5131 Z-0.325 I0.007 J-0.1203
N8980 X1.5401 Y-1.5781 Z-0.345 I0.1144 J0.0367
N8985 X1.5584 Y-1.3896 Z-0.365 I-0.0639 J0.1014
N8990 X1.3718 Y-1.4187 Z-0.385 I-0.082 J-0.0869
N8995 X1.4464 Y-1.5917 Z-0.405 I0.1043 J-0.0576
N9000 X1.5948 Y-1.4766 Z-0.425 I0.0296 J0.115
N9005 X1.3572 I-0.1188 J0.
N9010 X1.5948 I0.1188 J0.
N9015 G1 X1.5949 Y-1.4676 F15.
N9020 X1.6011 Y-1.4319
N9025 X1.6033 Y-1.4263
N9030 X1.6047 Y-1.4205
N9035 X1.6056 Y-1.4146
N9040 X1.6059 Y-1.4086
N9045 X1.6057 Y-1.4023
N9050 X1.605 Y-1.3956
N9055 X1.6036 Y-1.3885
N9060 X1.6015 Y-1.3811
N9065 X1.5987 Y-1.3735
N9070 X1.5952 Y-1.3657
N9075 X1.5907 Y-1.3578
N9080 X1.5855 Y-1.35
N9085 X1.5793 Y-1.3423
N9090 X1.5723 Y-1.3347
N9095 X1.5643 Y-1.3276
N9100 X1.5556 Y-1.3208
N9105 X1.546 Y-1.3145
N9110 X1.5356 Y-1.3089
N9115 X1.5245 Y-1.304
N9120 X1.5128 Y-1.2999
N9125 X1.5005 Y-1.2967
N9130 X1.4877 Y-1.2945
N9135 X1.4746 Y-1.2932
N9140 X1.4612 Y-1.293
N9145 X1.4476 Y-1.2939
N9150 X1.4339 Y-1.296
N9155 X1.4203 Y-1.2991
N9160 X1.4068 Y-1.3034
N9165 X1.3936 Y-1.3087
N9170 X1.3808 Y-1.3152
N9175 X1.3684 Y-1.3228
N9180 X1.3566 Y-1.3313
N9185 X1.3455 Y-1.3409
N9190 X1.3351 Y-1.3514
N9195 X1.3256 Y-1.3627
N9200 X1.3169 Y-1.3748
N9205 X1.3092 Y-1.3875
N9210 X1.3026 Y-1.4009
N9215 X1.297 Y-1.4149
N9220 X1.2926 Y-1.4292
N9225 X1.2893 Y-1.4439
N9230 X1.2872 Y-1.4589
N9235 X1.2863 Y-1.474
N9240 X1.2867 Y-1.4891
N9245 X1.2882 Y-1.5042
N9250 X1.291 Y-1.5191
N9255 X1.2949 Y-1.5337
N9260 X1.3 Y-1.5481
N9265 X1.3063 Y-1.5619
N9270 X1.3136 Y-1.5752
N9275 X1.322 Y-1.5879
N9280 X1.3314 Y-1.5999
N9285 X1.3417 Y-1.6111
N9290 X1.3529 Y-1.6215
N9295 X1.3649 Y-1.6309
N9300 X1.3776 Y-1.6393
N9305 X1.391 Y-1.6467
N9310 X1.4049 Y-1.6529
N9315 X1.4192 Y-1.6581
N9320 X1.434 Y-1.6621
N9325 X1.449 Y-1.6648
N9330 X1.4642 Y-1.6664
N9335 X1.4794 Y-1.6668
N9340 X1.4947 Y-1.6659
N9345 X1.5098 Y-1.6638
N9350 X1.5247 Y-1.6605
N9355 X1.5393 Y-1.656
N9360 X1.5535 Y-1.6503
N9365 X1.5672 Y-1.6435
N9370 X1.5803 Y-1.6357
N9375 X1.5927 Y-1.6268
N9380 X1.6044 Y-1.617
N9385 X1.6152 Y-1.6062
N9390 X1.6252 Y-1.5946
N9395 X1.6342 Y-1.5823
N9400 X1.6441 Y-1.566
N9405 X1.66 Y-1.5345
N9410 X1.6698 Y-1.5107
N9415 X1.6764 Y-1.4898
N9420 X1.6808 Y-1.4708
N9425 X1.6835 Y-1.4525
N9430 X1.6847 Y-1.4349
N9435 X1.6845 Y-1.4178
N9440 X1.6829 Y-1.4011
N9445 X1.6801 Y-1.3848
N9450 X1.677 Y-1.3729
N9455 X1.6751 Y-1.367
N9460 X1.6726 Y-1.3614
N9465 X1.6696 Y-1.3561
N9470 X1.6624 Y-1.3448
N9475 X1.6573 Y-1.3371
N9480 X1.649 Y-1.3274
N9485 X1.6424 Y-1.3202
N9490 X1.6326 Y-1.3103
N9495 X1.6253 Y-1.3037
N9500 X1.6153 Y-1.2955
N9505 X1.6038 Y-1.2873
N9510 X1.5997 Y-1.2845
N9515 X1.5909 Y-1.2791
N9520 X1.5833 Y-1.2748
N9525 X1.5557 Y-1.2626
N9530 X1.5504 Y-1.2608
N9535 X1.5257 Y-1.2536
N9540 X1.5175 Y-1.252
N9545 X1.5093 Y-1.2507
N9550 X1.501 Y-1.2497
N9555 X1.4928 Y-1.2489
N9560 X1.4846 Y-1.2487
N9565 X1.4682
N9570 X1.4599 Y-1.2489
N9575 X1.4517 Y-1.2497
N9580 X1.4435 Y-1.2507
N9585 X1.4353 Y-1.252
N9590 X1.427 Y-1.2536
N9595 X1.4024 Y-1.2608
N9600 X1.3971 Y-1.2626
N9605 X1.3695 Y-1.2748
N9610 X1.3619 Y-1.2791
N9615 X1.3531 Y-1.2845
N9620 X1.349 Y-1.2873
N9625 X1.3374 Y-1.2955
N9630 X1.3275 Y-1.3037
N9635 X1.3202 Y-1.3103
N9640 X1.3103 Y-1.3202
N9645 X1.3037 Y-1.3274
N9650 X1.2955 Y-1.3371
N9655 X1.2904 Y-1.3448
N9660 X1.2791 Y-1.3625
N9665 X1.2749 Y-1.3695
N9670 X1.2708 Y-1.3778
N9675 X1.267 Y-1.3859
N9680 X1.2626 Y-1.3966
N9685 X1.2606 Y-1.4024
N9690 X1.2538 Y-1.427
N9695 X1.2523 Y-1.4353
N9700 X1.2488 Y-1.4599
N9705 X1.2485 Y-1.4682
N9710 X1.2483 Y-1.4764
N9715 X1.2485 Y-1.4846
N9720 X1.2488 Y-1.4928
N9725 X1.2523 Y-1.5175
N9730 X1.2538 Y-1.5257
N9735 X1.2606 Y-1.5504
N9740 X1.2626 Y-1.5561
N9745 X1.267 Y-1.5668
N9750 X1.2709 Y-1.575
N9755 X1.2749 Y-1.5833
N9760 X1.2791 Y-1.5903
N9765 X1.2904 Y-1.6079
N9770 X1.2955 Y-1.6156
N9775 X1.3037 Y-1.6254
N9780 X1.3103 Y-1.6326
N9785 X1.3202 Y-1.6424
N9790 X1.3275 Y-1.649
N9795 X1.3374 Y-1.6573
N9800 X1.349 Y-1.6655
N9805 X1.3531 Y-1.6683
N9810 X1.3619 Y-1.6737
N9815 X1.3695 Y-1.678
N9820 X1.3971 Y-1.6901
N9825 X1.4024 Y-1.692
N9830 X1.427 Y-1.6992
N9835 X1.4353 Y-1.7008
N9840 X1.4435 Y-1.7021
N9845 X1.4517 Y-1.703
N9850 X1.4599 Y-1.7039
N9855 X1.4682 Y-1.704
N9860 X1.4846
N9865 X1.4928 Y-1.7039
N9870 X1.501 Y-1.703
N9875 X1.5093 Y-1.7021
N9880 X1.5175 Y-1.7008
N9885 X1.5257 Y-1.6992
N9890 X1.5504 Y-1.692
N9895 X1.5557 Y-1.6901
N9900 X1.5833 Y-1.678
N9905 X1.5909 Y-1.6737
N9910 X1.5997 Y-1.6683
N9915 X1.6038 Y-1.6655
N9920 X1.6153 Y-1.6573
N9925 X1.6253 Y-1.649
N9930 X1.6326 Y-1.6424
N9935 X1.6424 Y-1.6326
N9940 X1.649 Y-1.6254
N9945 X1.6573 Y-1.6156
N9950 X1.6624 Y-1.6079
N9955 X1.6737 Y-1.5903
N9960 X1.6779 Y-1.5833
N9965 X1.6819 Y-1.575
N9970 X1.6857 Y-1.5668
N9975 X1.6901 Y-1.5561
N9980 X1.6921 Y-1.5504
N9985 X1.6989 Y-1.5257
N9990 X1.7005 Y-1.5175
N9995 X1.704 Y-1.4928
N10000 X1.7048 Y-1.4846
N10005 X1.7055 Y-1.4764
N10010 X1.7048 Y-1.4682
N10015 X1.704 Y-1.4599
N10020 X1.7005 Y-1.4353
N10025 X1.6989 Y-1.427
N10030 X1.6921 Y-1.4024
N10035 X1.6901 Y-1.3966
N10040 X1.6857 Y-1.3859
N10045 X1.6819 Y-1.3777
N10050 X1.6779 Y-1.3695
N10055 X1.6737 Y-1.3625
N10060 X1.6696 Y-1.3561
N10065 G3 X1.6424 Y-1.3462 I-0.0206 J-0.0142
N10070 G1 X1.6386 Y-1.3473 Z-0.4247
N10075 X1.6349 Y-1.3483 Z-0.4238
N10080 X1.6314 Y-1.3493 Z-0.4223
N10085 X1.6282 Y-1.3502 Z-0.4202
N10090 X1.6253 Y-1.351 Z-0.4177
N10095 X1.6229 Y-1.3516 Z-0.4147
N10100 X1.6209 Y-1.3522 Z-0.4113
N10105 X1.6194 Y-1.3526 Z-0.4077
N10110 X1.6186 Y-1.3528 Z-0.4039
N10115 X1.6183 Y-1.3529 Z-0.4
N10120 Z0.6
(WHEN USING FUSION FOR PERSONAL USE, THE FEEDRATE OF RAPID)
(MOVES IS REDUCED TO MATCH THE FEEDRATE OF CUTTING MOVES,)
(WHICH CAN INCREASE MACHINING TIME. UNRESTRICTED RAPID MOVES)
(ARE AVAILABLE WITH A FUSION SUBSCRIPTION.)
(2D CONTOUR1)
N10125 G64 P0.0004 Q0.0004
N10130 G0 X1.7764 Y-1.5014
N10135 G1 Z0.6 F15.
N10140 Z0.2
N10145 Z0.0394 F10.
N10150 Z-0.1
N10155 G18 G2 X1.8014 Z-0.125 I0.025 K0. F15.
N10160 G1 X1.8264
N10165 G17 G3 X1.8514 Y-1.4764 I0. J0.025
N10170 X1.1014 I-0.375 J0.
N10175 X1.8514 I0.375 J0.
N10180 X1.8264 Y-1.4514 I-0.025 J0.
N10185 G1 X1.8014
N10190 G18 G3 X1.7764 Z-0.1 I0. K0.025
N10195 G1 Z0.2
N10200 X2.4638
N10205 Z0.0394 F10.
N10210 Z-0.1
N10215 G3 X2.4388 Z-0.125 I-0.025 K0. F15.
N10220 G1 X2.4138
N10225 G17 G3 X2.3888 Y-1.4764 I0. J-0.025
N10230 G2 X0.564 I-0.9124 J0.
N10235 X2.3888 I0.9124 J0.
N10240 G3 X2.4138 Y-1.5014 I0.025 J0.
N10245 G1 X2.4388
N10250 G18 G2 X2.4638 Z-0.1 I0. K0.025
N10255 G1 Z0.6
N10260 G17
(WHEN USING FUSION FOR PERSONAL USE, THE FEEDRATE OF RAPID)
(MOVES IS REDUCED TO MATCH THE FEEDRATE OF CUTTING MOVES,)
(WHICH CAN INCREASE MACHINING TIME. UNRESTRICTED RAPID MOVES)
(ARE AVAILABLE WITH A FUSION SUBSCRIPTION.)
(BORE1)
N10265 G0 X1.6639 Y-1.5014
N10270 G1 Z0.6 F15.
N10275 Z-0.045
N10280 Z-0.1
N10285 G18 G2 X1.6889 Z-0.125 I0.025 K0.
N10290 G1 X1.7014
N10295 G17 G3 X1.7264 Y-1.4764 I0. J0.025
N10300 X1.2264 Z-0.1911 I-0.25 J0.
N10305 X1.7264 Z-0.2572 I0.25 J0.
N10310 X1.2264 Z-0.3234 I-0.25 J0.
N10315 X1.7264 Z-0.3895 I0.25 J0.
N10320 X1.2264 Z-0.4556 I-0.25 J0.
N10325 X1.3251 Y-1.6754 Z-0.475 I0.25 J0.
N10330 X1.6276 Y-1.2773 I0.1512 J0.1991
N10335 X1.3251 Y-1.6754 I-0.1512 J-0.1991
N10340 X1.3602 Y-1.6707 I0.0151 J0.0199
N10345 G1 X1.3677 Y-1.6607
N10350 X1.3701 Y-1.6576 Z-0.4747
N10355 X1.3724 Y-1.6546 Z-0.4738
N10360 X1.3746 Y-1.6517 Z-0.4723
N10365 X1.3766 Y-1.649 Z-0.4702
N10370 X1.3784 Y-1.6466 Z-0.4677
N10375 X1.38 Y-1.6446 Z-0.4647
N10380 X1.3812 Y-1.643 Z-0.4613
N10385 X1.3821 Y-1.6418 Z-0.4577
N10390 X1.3827 Y-1.641 Z-0.4539
N10395 X1.3829 Y-1.6408 Z-0.45
N10400 Z0.6
(WHEN USING FUSION FOR PERSONAL USE, THE FEEDRATE OF RAPID)
(MOVES IS REDUCED TO MATCH THE FEEDRATE OF CUTTING MOVES,)
(WHICH CAN INCREASE MACHINING TIME. UNRESTRICTED RAPID MOVES)
(ARE AVAILABLE WITH A FUSION SUBSCRIPTION.)
(BORE2)
N10405 G0 X2.5899 Y-0.3628
N10410 G1 Z0.6 F15.
N10415 Z-0.07
N10420 Z-0.125
N10425 X2.5924 Y-0.3653
N10430 X2.5934 Y-0.3651
N10435 X2.5942 Y-0.3646
N10440 X2.5947 Y-0.3638
N10445 X2.5949 Y-0.3628
N10450 G3 X2.5849 Z-0.133 I-0.005 J0.
N10455 X2.5949 Z-0.1409 I0.005 J0.
N10460 X2.5849 Z-0.1489 I-0.005 J0.
N10465 X2.5949 Z-0.1568 I0.005 J0.
N10470 X2.5849 Z-0.1648 I-0.005 J0.
N10475 X2.5949 Z-0.1727 I0.005 J0.
N10480 X2.5849 Z-0.1807 I-0.005 J0.
N10485 X2.5949 Z-0.1886 I0.005 J0.
N10490 X2.5849 Z-0.1966 I-0.005 J0.
N10495 X2.5949 Z-0.2045 I0.005 J0.
N10500 X2.5849 Z-0.2125 I-0.005 J0.
N10505 X2.5949 Z-0.2204 I0.005 J0.
N10510 X2.5849 Z-0.2284 I-0.005 J0.
N10515 X2.5949 Z-0.2363 I0.005 J0.
N10520 X2.5849 Z-0.2443 I-0.005 J0.
N10525 X2.5949 Z-0.2522 I0.005 J0.
N10530 X2.5849 Z-0.2602 I-0.005 J0.
N10535 X2.5949 Z-0.2681 I0.005 J0.
N10540 X2.5849 Z-0.2761 I-0.005 J0.
N10545 X2.5949 Z-0.284 I0.005 J0.
N10550 X2.5849 Z-0.292 I-0.005 J0.
N10555 X2.5949 Z-0.2999 I0.005 J0.
N10560 X2.5849 Z-0.3079 I-0.005 J0.
N10565 X2.5949 Z-0.3158 I0.005 J0.
N10570 X2.5849 Z-0.3238 I-0.005 J0.
N10575 X2.5949 Z-0.3317 I0.005 J0.
N10580 X2.5849 Z-0.3397 I-0.005 J0.
N10585 X2.5949 Z-0.3476 I0.005 J0.
N10590 X2.5849 Z-0.3556 I-0.005 J0.
N10595 X2.5949 Z-0.3635 I0.005 J0.
N10600 X2.5849 Z-0.3715 I-0.005 J0.
N10605 X2.5949 Z-0.3794 I0.005 J0.
N10610 X2.5849 Z-0.3874 I-0.005 J0.
N10615 X2.5949 Z-0.3953 I0.005 J0.
N10620 X2.5849 Z-0.4033 I-0.005 J0.
N10625 X2.5949 Z-0.4112 I0.005 J0.
N10630 X2.5849 Z-0.4192 I-0.005 J0.
N10635 X2.5932 Y-0.3666 Z-0.425 I0.005 J0.
N10640 X2.5866 Y-0.3591 I-0.0033 J0.0037
N10645 X2.5932 Y-0.3666 I0.0033 J-0.0037
N10650 G1 X2.5938 Y-0.3658
N10655 X2.5941 Y-0.3649
N10660 X2.594 Y-0.3639
N10665 X2.5935 Y-0.363
N10670 X2.5899 Y-0.3628
N10675 Z0.2
N10680 X0.3628
N10685 Z-0.07
N10690 Z-0.125
N10695 X0.3653 Y-0.3653
N10700 X0.3663 Y-0.3651
N10705 X0.3671 Y-0.3646
N10710 X0.3676 Y-0.3638
N10715 X0.3678 Y-0.3628
N10720 G3 X0.3578 Z-0.133 I-0.005 J0.
N10725 X0.3678 Z-0.1409 I0.005 J0.
N10730 X0.3578 Z-0.1489 I-0.005 J0.
N10735 X0.3678 Z-0.1568 I0.005 J0.
N10740 X0.3578 Z-0.1648 I-0.005 J0.
N10745 X0.3678 Z-0.1727 I0.005 J0.
N10750 X0.3578 Z-0.1807 I-0.005 J0.
N10755 X0.3678 Z-0.1886 I0.005 J0.
N10760 X0.3578 Z-0.1966 I-0.005 J0.
N10765 X0.3678 Z-0.2045 I0.005 J0.
N10770 X0.3578 Z-0.2125 I-0.005 J0.
N10775 X0.3678 Z-0.2204 I0.005 J0.
N10780 X0.3578 Z-0.2284 I-0.005 J0.
N10785 X0.3678 Z-0.2363 I0.005 J0.
N10790 X0.3578 Z-0.2443 I-0.005 J0.
N10795 X0.3678 Z-0.2522 I0.005 J0.
N10800 X0.3578 Z-0.2602 I-0.005 J0.
N10805 X0.3678 Z-0.2681 I0.005 J0.
N10810 X0.3578 Z-0.2761 I-0.005 J0.
N10815 X0.3678 Z-0.284 I0.005 J0.
N10820 X0.3578 Z-0.292 I-0.005 J0.
N10825 X0.3678 Z-0.2999 I0.005 J0.
N10830 X0.3578 Z-0.3079 I-0.005 J0.
N10835 X0.3678 Z-0.3158 I0.005 J0.
N10840 X0.3578 Z-0.3238 I-0.005 J0.
N10845 X0.3678 Z-0.3317 I0.005 J0.
N10850 X0.3578 Z-0.3397 I-0.005 J0.
N10855 X0.3678 Z-0.3476 I0.005 J0.
N10860 X0.3578 Z-0.3556 I-0.005 J0.
N10865 X0.3678 Z-0.3635 I0.005 J0.
N10870 X0.3578 Z-0.3715 I-0.005 J0.
N10875 X0.3678 Z-0.3794 I0.005 J0.
N10880 X0.3578 Z-0.3874 I-0.005 J0.
N10885 X0.3678 Z-0.3953 I0.005 J0.
N10890 X0.3578 Z-0.4033 I-0.005 J0.
N10895 X0.3678 Z-0.4112 I0.005 J0.
N10900 X0.3578 Z-0.4192 I-0.005 J0.
N10905 X0.3661 Y-0.3666 Z-0.425 I0.005 J0.
N10910 X0.3595 Y-0.3591 I-0.0033 J0.0037
N10915 X0.3661 Y-0.3666 I0.0033 J-0.0037
N10920 G1 X0.3667 Y-0.3658
N10925 X0.367 Y-0.3649
N10930 X0.3668 Y-0.3639
N10935 X0.3664 Y-0.363
N10940 X0.3628 Y-0.3628
N10945 Z0.2
N10950 Y-2.5899
N10955 Z-0.07
N10960 Z-0.125
N10965 X0.3653 Y-2.5924
N10970 X0.3663 Y-2.5922
N10975 X0.3671 Y-2.5917
N10980 X0.3676 Y-2.5909
N10985 X0.3678 Y-2.5899
N10990 G3 X0.3578 Z-0.133 I-0.005 J0.
N10995 X0.3678 Z-0.1409 I0.005 J0.
N11000 X0.3578 Z-0.1489 I-0.005 J0.
N11005 X0.3678 Z-0.1568 I0.005 J0.
N11010 X0.3578 Z-0.1648 I-0.005 J0.
N11015 X0.3678 Z-0.1727 I0.005 J0.
N11020 X0.3578 Z-0.1807 I-0.005 J0.
N11025 X0.3678 Z-0.1886 I0.005 J0.
N11030 X0.3578 Z-0.1966 I-0.005 J0.
N11035 X0.3678 Z-0.2045 I0.005 J0.
N11040 X0.3578 Z-0.2125 I-0.005 J0.
N11045 X0.3678 Z-0.2204 I0.005 J0.
N11050 X0.3578 Z-0.2284 I-0.005 J0.
N11055 X0.3678 Z-0.2363 I0.005 J0.
N11060 X0.3578 Z-0.2443 I-0.005 J0.
N11065 X0.3678 Z-0.2522 I0.005 J0.
N11070 X0.3578 Z-0.2602 I-0.005 J0.
N11075 X0.3678 Z-0.2681 I0.005 J0.
N11080 X0.3578 Z-0.2761 I-0.005 J0.
N11085 X0.3678 Z-0.284 I0.005 J0.
N11090 X0.3578 Z-0.292 I-0.005 J0.
N11095 X0.3678 Z-0.2999 I0.005 J0.
N11100 X0.3578 Z-0.3079 I-0.005 J0.
N11105 X0.3678 Z-0.3158 I0.005 J0.
N11110 X0.3578 Z-0.3238 I-0.005 J0.
N11115 X0.3678 Z-0.3317 I0.005 J0.
N11120 X0.3578 Z-0.3397 I-0.005 J0.
N11125 X0.3678 Z-0.3476 I0.005 J0.
N11130 X0.3578 Z-0.3556 I-0.005 J0.
N11135 X0.3678 Z-0.3635 I0.005 J0.
N11140 X0.3578 Z-0.3715 I-0.005 J0.
N11145 X0.3678 Z-0.3794 I0.005 J0.
N11150 X0.3578 Z-0.3874 I-0.005 J0.
N11155 X0.3678 Z-0.3953 I0.005 J0.
N11160 X0.3578 Z-0.4033 I-0.005 J0.
N11165 X0.3678 Z-0.4112 I0.005 J0.
N11170 X0.3578 Z-0.4192 I-0.005 J0.
N11175 X0.3661 Y-2.5937 Z-0.425 I0.005 J0.
N11180 X0.3595 Y-2.5862 I-0.0033 J0.0037
N11185 X0.3661 Y-2.5937 I0.0033 J-0.0037
N11190 G1 X0.3667 Y-2.5929
N11195 X0.367 Y-2.592
N11200 X0.3668 Y-2.591
N11205 X0.3664 Y-2.5901
N11210 X0.3628 Y-2.5899
N11215 Z0.2
N11220 X2.5899
N11225 Z-0.07
N11230 Z-0.125
N11235 X2.5924 Y-2.5924
N11240 X2.5934 Y-2.5922
N11245 X2.5942 Y-2.5917
N11250 X2.5947 Y-2.5909
N11255 X2.5949 Y-2.5899
N11260 G3 X2.5849 Z-0.133 I-0.005 J0.
N11265 X2.5949 Z-0.1409 I0.005 J0.
N11270 X2.5849 Z-0.1489 I-0.005 J0.
N11275 X2.5949 Z-0.1568 I0.005 J0.
N11280 X2.5849 Z-0.1648 I-0.005 J0.
N11285 X2.5949 Z-0.1727 I0.005 J0.
N11290 X2.5849 Z-0.1807 I-0.005 J0.
N11295 X2.5949 Z-0.1886 I0.005 J0.
N11300 X2.5849 Z-0.1966 I-0.005 J0.
N11305 X2.5949 Z-0.2045 I0.005 J0.
N11310 X2.5849 Z-0.2125 I-0.005 J0.
N11315 X2.5949 Z-0.2204 I0.005 J0.
N11320 X2.5849 Z-0.2284 I-0.005 J0.
N11325 X2.5949 Z-0.2363 I0.005 J0.
N11330 X2.5849 Z-0.2443 I-0.005 J0.
N11335 X2.5949 Z-0.2522 I0.005 J0.
N11340 X2.5849 Z-0.2602 I-0.005 J0.
N11345 X2.5949 Z-0.2681 I0.005 J0.
N11350 X2.5849 Z-0.2761 I-0.005 J0.
N11355 X2.5949 Z-0.284 I0.005 J0.
N11360 X2.5849 Z-0.292 I-0.005 J0.
N11365 X2.5949 Z-0.2999 I0.005 J0.
N11370 X2.5849 Z-0.3079 I-0.005 J0.
N11375 X2.5949 Z-0.3158 I0.005 J0.
N11380 X2.5849 Z-0.3238 I-0.005 J0.
N11385 X2.5949 Z-0.3317 I0.005 J0.
N11390 X2.5849 Z-0.3397 I-0.005 J0.
N11395 X2.5949 Z-0.3476 I0.005 J0.
N11400 X2.5849 Z-0.3556 I-0.005 J0.
N11405 X2.5949 Z-0.3635 I0.005 J0.
N11410 X2.5849 Z-0.3715 I-0.005 J0.
N11415 X2.5949 Z-0.3794 I0.005 J0.
N11420 X2.5849 Z-0.3874 I-0.005 J0.
N11425 X2.5949 Z-0.3953 I0.005 J0.
N11430 X2.5849 Z-0.4033 I-0.005 J0.
N11435 X2.5949 Z-0.4112 I0.005 J0.
N11440 X2.5849 Z-0.4192 I-0.005 J0.
N11445 X2.5932 Y-2.5937 Z-0.425 I0.005 J0.
N11450 X2.5866 Y-2.5862 I-0.0033 J0.0037
N11455 X2.5932 Y-2.5937 I0.0033 J-0.0037
N11460 G1 X2.5938 Y-2.5929
N11465 X2.5941 Y-2.592
N11470 X2.594 Y-2.591
N11475 X2.5935 Y-2.5901
N11480 X2.5899 Y-2.5899
N11485 Z0.6
N11490 M5
N11495 M9
N11500 G53 G0 Z0.
N11505 M30
%
