%
(CLAMP)
(T1 D=0.5 CR=0.25 - ZMIN=-0.6275 - BALL END MILL)
N10 G90 G94 G17 G91.1
N15 G20
(WHEN USING FUSION FOR PERSONAL USE, THE FEEDRATE OF RAPID)
(MOVES IS REDUCED TO MATCH THE FEEDRATE OF CUTTING MOVES,)
(WHICH CAN INCREASE MACHINING TIME. UNRESTRICTED RAPID MOVES)
(ARE AVAILABLE WITH A FUSION SUBSCRIPTION.)
N20 G53 G0 Z0.
(ADAPTIVE1)
N25 T1 M6
N30 S5000 M3
N35 G17 G90 G94
N40 G54
N45 G64 P0.004 Q0.004
N50 M8
N55 G0 X-2.6532 Y0.8901
N60 G43 Z0.64 H1
N65 G1 Z0.24 F30.
N70 Z0.0099
N75 Z-0.0401
N80 Y0.8898 Z-0.0457
N85 Y0.8888 Z-0.0512
N90 Y0.8873 Z-0.0566
N95 X-2.6531 Y0.8851 Z-0.0618
N100 Y0.8824 Z-0.0667
N105 X-2.653 Y0.8792 Z-0.0713
N110 X-2.6529 Y0.8755 Z-0.0754
N115 X-2.6528 Y0.8713 Z-0.0792
N120 X-2.6527 Y0.8667 Z-0.0824
N125 X-2.6526 Y0.8618 Z-0.0851
N130 X-2.6525 Y0.8566 Z-0.0873
N135 X-2.6524 Y0.8512 Z-0.0888
N140 X-2.6523 Y0.8457 Z-0.0898
N145 X-2.6522 Y0.8401 Z-0.0901
N150 G3 X-2.6168 Y0.5674 I1.2762 J0.027
N155 G1 X-2.613 Y0.5538
N160 X-2.6095 Y0.5388
N165 X-2.6084 Y0.5349
N170 X-2.6 Y0.5241
N175 X-2.5888 Y0.5119
N180 X-2.5739 Y0.4984
N185 X-2.5546 Y0.4836
N190 X-2.5295 Y0.4678
N195 X-2.4971 Y0.451
N200 X-2.4542 Y0.4333
N205 X-2.4052 Y0.4179
N210 X-2.3553 Y0.4062
N215 X-2.3049 Y0.3971
N220 X-2.2541 Y0.3901
N225 X-2.2031 Y0.3848
N230 X-2.152 Y0.3806
N235 X-2.1008 Y0.3774
N240 X-2.0496 Y0.375
N245 X-1.9984 Y0.3731
N250 X-1.9471 Y0.3716
N255 X-1.8958 Y0.3704
N260 X-1.8446 Y0.3696
N265 X-1.7933 Y0.3689
N270 X-1.742 Y0.3683
N275 X-1.6908 Y0.3679
N280 X-1.6395 Y0.3676
N285 X-1.5882 Y0.3674
N290 X-1.537 Y0.3672
N295 X-1.4344 Y0.3669
N300 X-1.2806 Y0.3667
N305 X-1.1169 Y0.3666
N310 X-1.1 Y0.3681
N315 X-1.0836 Y0.3725
N320 X-1.0682 Y0.3796
N325 X-1.0543 Y0.3894
N330 X-1.0423 Y0.4014
N335 X-1.0325 Y0.4153
N340 X-1.0254 Y0.4307
N345 X-1.021 Y0.4471
N350 X-1.0195 Y0.464
N355 G3 X-1.0666 Y0.5122 Z-0.0826 I-0.05 J-0.0017
N360 G1 X-1.0711 Y0.5124 Z-0.0821
N365 X-2.5576 Y0.5983
N370 G3 X-2.5701 Y0.5975 I-0.0029 J-0.0499
N375 X-2.6095 Y0.5388 Z-0.0901 I0.0096 J-0.0491
N380 G1 X-2.6094 Y0.5383
N385 X-2.6074 Y0.5239
N390 X-2.6062 Y0.5089
N395 X-2.6055 Y0.4939
N400 Y0.464
N405 X-2.6052 Y0.458
N410 X-2.601 Y0.4441
N415 X-2.5951 Y0.4293
N420 X-2.5871 Y0.4136
N425 X-2.5761 Y0.3958
N430 X-2.5629 Y0.3781
N435 X-2.5453 Y0.3584
N440 X-2.5244 Y0.3387
N445 X-2.4978 Y0.3177
N450 X-2.4647 Y0.296
N455 X-2.4238 Y0.2739
N460 X-2.3768 Y0.2535
N465 X-2.3283 Y0.2369
N470 X-2.2788 Y0.2234
N475 X-2.2287 Y0.2124
N480 X-2.1782 Y0.2035
N485 X-2.1275 Y0.1963
N490 X-2.0765 Y0.1904
N495 X-2.0255 Y0.1857
N500 X-1.9743 Y0.1819
N505 X-1.9232 Y0.1789
N510 X-1.8719 Y0.1764
N515 X-1.8207 Y0.1744
N520 X-1.7695 Y0.1728
N525 X-1.7182 Y0.1716
N530 X-1.6669 Y0.1705
N535 X-1.6157 Y0.1697
N540 X-1.5644 Y0.1691
N545 X-1.5131 Y0.1686
N550 X-1.4619 Y0.1681
N555 X-1.4106 Y0.1678
N560 X-1.3593 Y0.1675
N565 X-1.3081 Y0.1673
N570 X-1.2568 Y0.1677
N575 X-1.2056 Y0.1703
N580 X-1.1606 Y0.1759
N585 X-1.1225 Y0.1841
N590 X-1.0896 Y0.1942
N595 X-1.0747 Y0.2016
N600 X-1.0611 Y0.2111
N605 X-1.0489 Y0.2225
N610 X-1.0387 Y0.2355
N615 X-1.0304 Y0.25
N620 X-1.0244 Y0.2655
N625 X-1.0207 Y0.2817
N630 X-1.0195 Y0.2983
N635 Y0.3293
N640 G3 X-1.0649 Y0.3773 Z-0.0827 I-0.05 J-0.0017
N645 G1 X-1.0711 Y0.3779 Z-0.0821
N650 X-2.551 Y0.512
N655 X-2.5539 Y0.5122
N660 G3 X-2.6055 Y0.464 Z-0.0901 I-0.0017 J-0.05
N665 G1 Y0.3592
N670 X-2.6047 Y0.3428
N675 X-2.6028 Y0.3278
N680 X-2.5994 Y0.3124
N685 X-2.5939 Y0.2947
N690 X-2.5862 Y0.276
N695 X-2.5759 Y0.256
N700 X-2.5623 Y0.2344
N705 X-2.5454 Y0.2122
N710 X-2.5241 Y0.1887
N715 X-2.4976 Y0.164
N720 X-2.4658 Y0.1393
N725 X-2.4262 Y0.1137
N730 X-2.3809 Y0.0897
N735 X-2.3338 Y0.0694
N740 X-2.2855 Y0.0522
N745 X-2.2363 Y0.0378
N750 X-2.1865 Y0.0256
N755 X-2.1362 Y0.0155
N760 X-2.0856 Y0.007
N765 X-2.0349 Y-0.0001
N770 X-1.9839 Y-0.0059
N775 X-1.9329 Y-0.0108
N780 X-1.8818 Y-0.0149
N785 X-1.8306 Y-0.0182
N790 X-1.7794 Y-0.021
N795 X-1.7282 Y-0.0233
N800 X-1.677 Y-0.0251
N805 X-1.6257 Y-0.0267
N810 X-1.5745 Y-0.0279
N815 X-1.5232 Y-0.029
N820 X-1.4719 Y-0.0298
N825 X-1.4207 Y-0.0303
N830 X-1.3694 Y-0.0301
N835 X-1.3181 Y-0.0286
N840 X-1.267 Y-0.0253
N845 X-1.216 Y-0.0198
N850 X-1.1654 Y-0.0112
N855 X-1.1243 Y-0.0006
N860 X-1.0888 Y0.0119
N865 X-1.074 Y0.02
N870 X-1.0604 Y0.0301
N875 X-1.0485 Y0.0421
N880 X-1.0383 Y0.0556
N885 X-1.0302 Y0.0705
N890 X-1.0243 Y0.0863
N895 X-1.0207 Y0.1028
N900 X-1.0195 Y0.1197
N905 Y0.2983
N910 G3 X-1.0674 Y0.3465 Z-0.0825 I-0.05 J-0.0017
N915 G1 X-1.0711 Y0.3467 Z-0.0821
N920 X-2.5535 Y0.4074
N925 X-2.5539
N930 G3 X-2.6055 Y0.3592 Z-0.0901 I-0.0017 J-0.05
N935 G1 Y0.1946
N940 X-2.6052 Y0.1882
N945 X-2.605 Y0.1822
N950 X-2.6045 Y0.1763
N955 X-2.6039 Y0.1703
N960 X-2.603 Y0.1644
N965 X-2.602 Y0.1584
N970 X-2.6008 Y0.1526
N975 X-2.5995 Y0.1467
N980 X-2.5979 Y0.1409
N985 X-2.5963 Y0.1352
N990 X-2.5945 Y0.1294
N995 X-2.5925 Y0.1238
N1000 X-2.5904 Y0.1181
N1005 X-2.5882 Y0.1126
N1010 X-2.5858 Y0.1071
N1015 X-2.5833 Y0.1016
N1020 X-2.5807 Y0.0962
N1025 X-2.578 Y0.0908
N1030 X-2.5752 Y0.0855
N1035 X-2.5723 Y0.0803
N1040 X-2.5693 Y0.0751
N1045 X-2.5661 Y0.07
N1050 X-2.5629 Y0.0649
N1055 X-2.5596 Y0.0599
N1060 X-2.5562 Y0.055
N1065 X-2.5527 Y0.0501
N1070 X-2.5491 Y0.0453
N1075 X-2.5455 Y0.0405
N1080 X-2.5418 Y0.0358
N1085 X-2.538 Y0.0312
N1090 X-2.5341 Y0.0266
N1095 X-2.5301 Y0.0221
N1100 X-2.5261 Y0.0176
N1105 X-2.522 Y0.0132
N1110 X-2.5179 Y0.0089
N1115 X-2.5137 Y0.0046
N1120 X-2.5095 Y0.0003
N1125 X-2.5051 Y-0.0038
N1130 X-2.5008 Y-0.0079
N1135 X-2.4963 Y-0.012
N1140 X-2.4919 Y-0.016
N1145 X-2.4873 Y-0.0199
N1150 X-2.4828 Y-0.0238
N1155 X-2.4781 Y-0.0276
N1160 X-2.4735 Y-0.0314
N1165 X-2.4688 Y-0.0351
N1170 X-2.464 Y-0.0388
N1175 X-2.4592 Y-0.0424
N1180 X-2.4544 Y-0.046
N1185 X-2.4495 Y-0.0495
N1190 X-2.4446 Y-0.0529
N1195 X-2.4397 Y-0.0563
N1200 X-2.4347 Y-0.0597
N1205 X-2.4297 Y-0.063
N1210 X-2.4246 Y-0.0662
N1215 X-2.4196 Y-0.0694
N1220 X-2.4145 Y-0.0726
N1225 X-2.4093 Y-0.0757
N1230 X-2.4042 Y-0.0787
N1235 X-2.399 Y-0.0817
N1240 X-2.3938 Y-0.0847
N1245 X-2.3885 Y-0.0876
N1250 X-2.3832 Y-0.0905
N1255 X-2.3779 Y-0.0933
N1260 X-2.3726 Y-0.0961
N1265 X-2.3673 Y-0.0988
N1270 X-2.3619 Y-0.1015
N1275 X-2.3565 Y-0.1042
N1280 X-2.3481 Y-0.1082
N1285 X-2.3423 Y-0.1109
N1290 X-2.3362 Y-0.1137
N1295 X-2.3299 Y-0.1165
N1300 X-2.3237 Y-0.1193
N1305 X-2.3177 Y-0.1219
N1310 X-2.3114 Y-0.1245
N1315 X-2.3049 Y-0.1272
N1320 X-2.2982 Y-0.1299
N1325 X-2.2912 Y-0.1326
N1330 X-2.284 Y-0.1354
N1335 X-2.2764 Y-0.1382
N1340 X-2.2692 Y-0.1408
N1345 X-2.2619 Y-0.1434
N1350 X-2.2542 Y-0.1461
N1355 X-2.2463 Y-0.1488
N1360 X-2.238 Y-0.1515
N1365 X-2.2293 Y-0.1543
N1370 X-2.2205 Y-0.157
N1375 X-2.212 Y-0.1596
N1380 X-2.203 Y-0.1623
N1385 X-2.1937 Y-0.165
N1390 X-2.1839 Y-0.1677
N1395 X-2.1735 Y-0.1705
N1400 X-2.1635 Y-0.1731
N1405 X-2.1532 Y-0.1757
N1410 X-2.1423 Y-0.1783
N1415 X-2.1308 Y-0.181
N1420 X-2.1187 Y-0.1838
N1425 X-2.107 Y-0.1863
N1430 X-2.0946 Y-0.1889
N1435 X-2.0814 Y-0.1916
N1440 X-2.0674 Y-0.1943
N1445 X-2.0537 Y-0.1968
N1450 X-2.039 Y-0.1994
N1455 X-2.0234 Y-0.2021
N1460 X-2.0072 Y-0.2047
N1465 X-1.9905 Y-0.2072
N1470 X-1.9725 Y-0.2098
N1475 X-1.9536 Y-0.2124
N1480 X-1.9339 Y-0.2149
N1485 X-1.9123 Y-0.2175
N1490 X-1.8901 Y-0.22
N1495 X-1.8657 Y-0.2225
N1500 X-1.8398 Y-0.225
N1505 X-1.8113 Y-0.2275
N1510 X-1.7807 Y-0.23
N1515 X-1.7464 Y-0.2325
N1520 X-1.7086 Y-0.2349
N1525 X-1.6687 Y-0.2371
N1530 X-1.6287 Y-0.239
N1535 X-1.5899 Y-0.2406
N1540 X-1.5603 Y-0.2416
N1545 X-1.5302 Y-0.2423
N1550 X-1.5076 Y-0.2427
N1555 X-1.4825 Y-0.2429
N1560 X-1.4633
N1565 X-1.4455 Y-0.2427
N1570 X-1.4261 Y-0.2424
N1575 X-1.4085 Y-0.242
N1580 X-1.3952 Y-0.2416
N1585 X-1.3811 Y-0.241
N1590 X-1.3661 Y-0.2403
N1595 X-1.3507 Y-0.2395
N1600 X-1.3391 Y-0.2387
N1605 X-1.3293 Y-0.238
N1610 X-1.3191 Y-0.2372
N1615 X-1.3083 Y-0.2363
N1620 X-1.297 Y-0.2352
N1625 X-1.2865 Y-0.2341
N1630 X-1.2778 Y-0.2332
N1635 X-1.2698 Y-0.2322
N1640 X-1.2615 Y-0.2311
N1645 X-1.2529 Y-0.23
N1650 X-1.244 Y-0.2287
N1655 X-1.235 Y-0.2273
N1660 X-1.2272 Y-0.2261
N1665 X-1.2202 Y-0.2249
N1670 X-1.2139 Y-0.2238
N1675 X-1.208 Y-0.2227
N1680 X-1.2021 Y-0.2216
N1685 X-1.1962 Y-0.2204
N1690 X-1.1904 Y-0.2192
N1695 X-1.1845 Y-0.2179
N1700 X-1.1786 Y-0.2165
N1705 X-1.1728 Y-0.2152
N1710 X-1.167 Y-0.2137
N1715 X-1.1612 Y-0.2122
N1720 X-1.1554 Y-0.2107
N1725 X-1.1496 Y-0.2091
N1730 X-1.1438 Y-0.2074
N1735 X-1.1381 Y-0.2057
N1740 X-1.1324 Y-0.2039
N1745 X-1.1266 Y-0.202
N1750 X-1.121 Y-0.2001
N1755 X-1.1153 Y-0.1981
N1760 X-1.1097 Y-0.1961
N1765 X-1.1041 Y-0.1939
N1770 X-1.0985 Y-0.1917
N1775 X-1.0929 Y-0.1895
N1780 X-1.0874 Y-0.1871
N1785 X-1.0819 Y-0.1847
N1790 X-1.0667 Y-0.1763
N1795 X-1.0531 Y-0.1655
N1800 X-1.0414 Y-0.1526
N1805 X-1.032 Y-0.138
N1810 X-1.0251 Y-0.122
N1815 X-1.0209 Y-0.1052
N1820 X-1.0195 Y-0.0878
N1825 Y0.1197
N1830 G3 X-1.0669 Y0.1679 Z-0.0825 I-0.05 J-0.0017
N1835 G1 X-1.0711 Y0.1681 Z-0.0821
N1840 X-2.553 Y0.2428
N1845 X-2.5539
N1850 G3 X-2.6055 Y0.1946 Z-0.0901 I-0.0017 J-0.05
N1855 G1 Y0.0299
N1860 X-2.6046 Y0.0107
N1865 X-2.6025 Y-0.0063
N1870 X-2.5986 Y-0.0251
N1875 X-2.5924 Y-0.0456
N1880 X-2.5835 Y-0.0678
N1885 X-2.5714 Y-0.0917
N1890 X-2.5635 Y-0.1044
N1895 X-2.5613 Y-0.1077
N1900 X-2.559 Y-0.111
N1905 X-2.5401 Y-0.1376
N1910 X-2.5068 Y-0.1766
N1915 X-2.476 Y-0.2075
N1920 X-2.4711 Y-0.2116
N1925 X-2.4686 Y-0.2136
N1930 G3 X-2.3986 Y-0.2034 Z-0.0821 I0.0299 J0.0401
N1935 X-2.3954 Y-0.1484 I-0.0401 J0.0299
N1940 G1 X-2.5123 Y0.0533
N1945 G3 X-2.5539 Y0.0782 I-0.0433 J-0.0251
N1950 X-2.6055 Y0.0299 Z-0.0901 I-0.0017 J-0.05
N1955 G1 Y-0.3293
N1960 G3 X-2.5953 Y-0.3579 I0.05 J0.0017
N1965 G1 X-2.5919 Y-0.3624 Z-0.0898
N1970 X-2.5885 Y-0.3668 Z-0.0888
N1975 X-2.5852 Y-0.371 Z-0.0873
N1980 X-2.5821 Y-0.3752 Z-0.0851
N1985 X-2.5791 Y-0.3791 Z-0.0824
N1990 X-2.5763 Y-0.3827 Z-0.0792
N1995 X-2.5738 Y-0.386 Z-0.0754
N2000 X-2.5715 Y-0.389 Z-0.0713
N2005 X-2.5695 Y-0.3915 Z-0.0667
N2010 X-2.5679 Y-0.3937 Z-0.0618
N2015 X-2.5666 Y-0.3954 Z-0.0566
N2020 X-2.5656 Y-0.3966 Z-0.0512
N2025 X-2.5651 Y-0.3974 Z-0.0457
N2030 X-2.5649 Y-0.3976 Z-0.0401
N2035 Z0.24
N2040 X0.9745 Y0.8904
N2045 Z0.0099
N2050 Z-0.0401
N2055 Y0.8901 Z-0.0457
N2060 Y0.8891 Z-0.0512
N2065 Y0.8876 Z-0.0566
N2070 X0.9746 Y0.8854 Z-0.0618
N2075 Y0.8827 Z-0.0667
N2080 X0.9747 Y0.8795 Z-0.0713
N2085 Y0.8757 Z-0.0754
N2090 X0.9748 Y0.8716 Z-0.0792
N2095 Y0.867 Z-0.0824
N2100 X0.9749 Y0.8621 Z-0.0851
N2105 Y0.8569 Z-0.0873
N2110 X0.975 Y0.8515 Z-0.0888
N2115 X0.9751 Y0.846 Z-0.0898
N2120 X0.9752 Y0.8404 Z-0.0901
N2125 G3 X1.0083 Y0.5674 I1.2764 J0.0166
N2130 G1 X1.012 Y0.5538
N2135 X1.0155 Y0.5388
N2140 X1.0162 Y0.5358
N2145 X1.0243 Y0.5251
N2150 X1.0353 Y0.513
N2155 X1.0499 Y0.4996
N2160 X1.0688 Y0.485
N2165 X1.0932 Y0.4692
N2170 X1.125 Y0.4525
N2175 X1.1668 Y0.4348
N2180 X1.2156 Y0.4191
N2185 X1.2655 Y0.4071
N2190 X1.3159 Y0.3978
N2195 X1.3667 Y0.3907
N2200 X1.4176 Y0.3852
N2205 X1.4687 Y0.381
N2210 X1.5199 Y0.3777
N2215 X1.5711 Y0.3752
N2220 X1.6224 Y0.3732
N2225 X1.6736 Y0.3717
N2230 X1.7249 Y0.3705
N2235 X1.7761 Y0.3696
N2240 X1.8274 Y0.3689
N2245 X1.8787 Y0.3684
N2250 X1.9299 Y0.368
N2255 X1.9812 Y0.3676
N2260 X2.0325 Y0.3674
N2265 X2.0837 Y0.3672
N2270 X2.1863 Y0.3669
N2275 X2.3401 Y0.3667
N2280 X2.5081 Y0.3666
N2285 X2.525 Y0.3681
N2290 X2.5414 Y0.3725
N2295 X2.5568 Y0.3796
N2300 X2.5707 Y0.3894
N2305 X2.5827 Y0.4014
N2310 X2.5925 Y0.4153
N2315 X2.5996 Y0.4307
N2320 X2.604 Y0.4471
N2325 X2.6055 Y0.464
N2330 G3 X2.5583 Y0.5122 Z-0.0825 I-0.05 J-0.0017
N2335 G1 X2.5539 Y0.5124 Z-0.0821
N2340 X1.068 Y0.5938
N2345 X1.064 Y0.5939
N2350 X1.0601 Y0.5937
N2355 G3 X1.0155 Y0.5388 Z-0.0901 I0.0051 J-0.0497
N2360 G1 X1.0175 Y0.5239
N2365 X1.0188 Y0.5089
N2370 X1.0195 Y0.4939
N2375 Y0.464
N2380 X1.0198 Y0.458
N2385 X1.0241 Y0.4439
N2390 X1.0298 Y0.4295
N2395 X1.0379 Y0.4135
N2400 X1.0489 Y0.3959
N2405 X1.0622 Y0.378
N2410 X1.0797 Y0.3584
N2415 X1.1008 Y0.3386
N2420 X1.1274 Y0.3176
N2425 X1.1605 Y0.2959
N2430 X1.2016 Y0.2737
N2435 X1.2487 Y0.2534
N2440 X1.2972 Y0.2368
N2445 X1.3467 Y0.2233
N2450 X1.3967 Y0.2123
N2455 X1.4472 Y0.2034
N2460 X1.498 Y0.1962
N2465 X1.5489 Y0.1904
N2470 X1.6 Y0.1857
N2475 X1.6511 Y0.1819
N2480 X1.7023 Y0.1788
N2485 X1.7535 Y0.1764
N2490 X1.8047 Y0.1744
N2495 X1.856 Y0.1728
N2500 X1.9073 Y0.1715
N2505 X1.9585 Y0.1705
N2510 X2.0098 Y0.1697
N2515 X2.061 Y0.1691
N2520 X2.1123 Y0.1685
N2525 X2.1636 Y0.1681
N2530 X2.2149 Y0.1678
N2535 X2.2661 Y0.1675
N2540 X2.3174 Y0.1673
N2545 X2.3687 Y0.1677
N2550 X2.4199 Y0.1703
N2555 X2.4648 Y0.176
N2560 X2.5028 Y0.1841
N2565 X2.5356 Y0.1943
N2570 X2.5505 Y0.2016
N2575 X2.5641 Y0.2111
N2580 X2.5762 Y0.2225
N2585 X2.5864 Y0.2355
N2590 X2.5946 Y0.2499
N2595 X2.6006 Y0.2654
N2600 X2.6043 Y0.2816
N2605 X2.6055 Y0.2981
N2610 Y0.3293
N2615 G3 X2.5601 Y0.3773 Z-0.0827 I-0.05 J-0.0017
N2620 G1 X2.5539 Y0.3779 Z-0.0821
N2625 X1.074 Y0.512
N2630 X1.0711 Y0.5122
N2635 G3 X1.0195 Y0.464 Z-0.0901 I-0.0017 J-0.05
N2640 G1 Y0.3592
N2645 X1.0203 Y0.3428
N2650 X1.0222 Y0.3278
N2655 X1.0256 Y0.3125
N2660 X1.0311 Y0.2947
N2665 X1.0388 Y0.276
N2670 X1.0491 Y0.2561
N2675 X1.0628 Y0.2343
N2680 X1.0796 Y0.2122
N2685 X1.1009 Y0.1887
N2690 X1.1275 Y0.164
N2695 X1.1593 Y0.1393
N2700 X1.199 Y0.1137
N2705 X1.2443 Y0.0897
N2710 X1.2913 Y0.0693
N2715 X1.3397 Y0.0522
N2720 X1.3888 Y0.0377
N2725 X1.4387 Y0.0256
N2730 X1.4889 Y0.0155
N2735 X1.5395 Y0.007
N2740 X1.5903 Y-0.0001
N2745 X1.6412 Y-0.006
N2750 X1.6922 Y-0.0108
N2755 X1.7434 Y-0.0149
N2760 X1.7945 Y-0.0182
N2765 X1.8457 Y-0.021
N2770 X1.8969 Y-0.0233
N2775 X1.9482 Y-0.0251
N2780 X1.9994 Y-0.0267
N2785 X2.0507 Y-0.0279
N2790 X2.1019 Y-0.029
N2795 X2.1532 Y-0.0298
N2800 X2.2045 Y-0.0303
N2805 X2.2558 Y-0.0301
N2810 X2.307 Y-0.0286
N2815 X2.3582 Y-0.0253
N2820 X2.4091 Y-0.0197
N2825 X2.4597 Y-0.0112
N2830 X2.5009 Y-0.0006
N2835 X2.5363 Y0.012
N2840 X2.5511 Y0.02
N2845 X2.5646 Y0.0301
N2850 X2.5766 Y0.0421
N2855 X2.5867 Y0.0556
N2860 X2.5948 Y0.0704
N2865 X2.6007 Y0.0862
N2870 X2.6043 Y0.1027
N2875 X2.6055 Y0.1195
N2880 Y0.2981
N2885 G3 X2.5576 Y0.3463 Z-0.0825 I-0.05 J-0.0017
N2890 G1 X2.5539 Y0.3465 Z-0.0821
N2895 X1.0715 Y0.4074
N2900 X1.0711
N2905 G3 X1.0195 Y0.3592 Z-0.0901 I-0.0017 J-0.05
N2910 G1 Y0.1946
N2915 X1.0198 Y0.1882
N2920 X1.02 Y0.1823
N2925 X1.0205 Y0.1763
N2930 X1.0211 Y0.1703
N2935 X1.022 Y0.1644
N2940 X1.023 Y0.1585
N2945 X1.0242 Y0.1526
N2950 X1.0255 Y0.1467
N2955 X1.0271 Y0.1409
N2960 X1.0287 Y0.1352
N2965 X1.0305 Y0.1294
N2970 X1.0325 Y0.1238
N2975 X1.0346 Y0.1182
N2980 X1.0368 Y0.1126
N2985 X1.0392 Y0.1071
N2990 X1.0417 Y0.1016
N2995 X1.0443 Y0.0962
N3000 X1.047 Y0.0908
N3005 X1.0498 Y0.0855
N3010 X1.0527 Y0.0803
N3015 X1.0558 Y0.0751
N3020 X1.0589 Y0.07
N3025 X1.0621 Y0.0649
N3030 X1.0654 Y0.0599
N3035 X1.0688 Y0.055
N3040 X1.0723 Y0.0501
N3045 X1.0759 Y0.0453
N3050 X1.0795 Y0.0405
N3055 X1.0833 Y0.0358
N3060 X1.0871 Y0.0312
N3065 X1.0909 Y0.0266
N3070 X1.0949 Y0.0221
N3075 X1.0989 Y0.0176
N3080 X1.103 Y0.0132
N3085 X1.1071 Y0.0089
N3090 X1.1113 Y0.0046
N3095 X1.1156 Y0.0004
N3100 X1.1199 Y-0.0038
N3105 X1.1242 Y-0.0079
N3110 X1.1287 Y-0.012
N3115 X1.1331 Y-0.016
N3120 X1.1377 Y-0.0199
N3125 X1.1422 Y-0.0238
N3130 X1.1469 Y-0.0276
N3135 X1.1515 Y-0.0314
N3140 X1.1562 Y-0.0351
N3145 X1.161 Y-0.0388
N3150 X1.1658 Y-0.0424
N3155 X1.1706 Y-0.0459
N3160 X1.1755 Y-0.0494
N3165 X1.1804 Y-0.0529
N3170 X1.1853 Y-0.0563
N3175 X1.1903 Y-0.0596
N3180 X1.1953 Y-0.0629
N3185 X1.2004 Y-0.0662
N3190 X1.2054 Y-0.0694
N3195 X1.2105 Y-0.0726
N3200 X1.2157 Y-0.0757
N3205 X1.2208 Y-0.0787
N3210 X1.226 Y-0.0817
N3215 X1.2313 Y-0.0847
N3220 X1.2365 Y-0.0876
N3225 X1.2418 Y-0.0905
N3230 X1.2471 Y-0.0933
N3235 X1.2524 Y-0.0961
N3240 X1.2577 Y-0.0988
N3245 X1.2631 Y-0.1015
N3250 X1.2685 Y-0.1042
N3255 X1.2769 Y-0.1082
N3260 X1.2858 Y-0.1123
N3265 X1.2919 Y-0.1151
N3270 X1.2983 Y-0.1179
N3275 X1.3043 Y-0.1206
N3280 X1.3105 Y-0.1232
N3285 X1.3168 Y-0.1258
N3290 X1.3234 Y-0.1285
N3295 X1.3303 Y-0.1312
N3300 X1.3374 Y-0.134
N3305 X1.3448 Y-0.1368
N3310 X1.3523 Y-0.1395
N3315 X1.3595 Y-0.1421
N3320 X1.3669 Y-0.1448
N3325 X1.3747 Y-0.1474
N3330 X1.3829 Y-0.1501
N3335 X1.3913 Y-0.1529
N3340 X1.4002 Y-0.1557
N3345 X1.4087 Y-0.1583
N3350 X1.4175 Y-0.1609
N3355 X1.4266 Y-0.1636
N3360 X1.4362 Y-0.1663
N3365 X1.4463 Y-0.1691
N3370 X1.4566 Y-0.1718
N3375 X1.4666 Y-0.1744
N3380 X1.4772 Y-0.177
N3385 X1.4884 Y-0.1797
N3390 X1.5002 Y-0.1824
N3395 X1.5121 Y-0.185
N3400 X1.5242 Y-0.1876
N3405 X1.5369 Y-0.1902
N3410 X1.5505 Y-0.1929
N3415 X1.5644 Y-0.1956
N3420 X1.5786 Y-0.1981
N3425 X1.5937 Y-0.2007
N3430 X1.6099 Y-0.2034
N3435 X1.626 Y-0.2059
N3440 X1.6433 Y-0.2085
N3445 X1.6621 Y-0.2111
N3450 X1.681 Y-0.2136
N3455 X1.7016 Y-0.2162
N3460 X1.7236 Y-0.2188
N3465 X1.7467 Y-0.2213
N3470 X1.7721 Y-0.2238
N3475 X1.799 Y-0.2263
N3480 X1.8287 Y-0.2288
N3485 X1.8611 Y-0.2312
N3490 X1.8967 Y-0.2337
N3495 X1.9359 Y-0.236
N3500 X1.978 Y-0.2382
N3505 X2.0157 Y-0.2399
N3510 X2.0494 Y-0.2411
N3515 X2.081 Y-0.242
N3520 X2.1058 Y-0.2425
N3525 X2.1296 Y-0.2428
N3530 X2.1533 Y-0.2429
N3535 X2.1704 Y-0.2428
N3540 X2.189 Y-0.2426
N3545 X2.2088 Y-0.2422
N3550 X2.2231 Y-0.2418
N3555 X2.2367 Y-0.2413
N3560 X2.2512 Y-0.2407
N3565 X2.2668 Y-0.2399
N3570 X2.2805 Y-0.2391
N3575 X2.2908 Y-0.2384
N3580 X2.3008 Y-0.2377
N3585 X2.3113 Y-0.2368
N3590 X2.3223 Y-0.2358
N3595 X2.3336 Y-0.2347
N3600 X2.3431 Y-0.2336
N3605 X2.3513 Y-0.2327
N3610 X2.3594 Y-0.2317
N3615 X2.3678 Y-0.2306
N3620 X2.3765 Y-0.2294
N3625 X2.3857 Y-0.228
N3630 X2.3941 Y-0.2267
N3635 X2.4014 Y-0.2255
N3640 X2.4081 Y-0.2243
N3645 X2.4142 Y-0.2232
N3650 X2.4201 Y-0.2221
N3655 X2.4259 Y-0.221
N3660 X2.4318 Y-0.2198
N3665 X2.4377 Y-0.2185
N3670 X2.4435 Y-0.2172
N3675 X2.4494 Y-0.2159
N3680 X2.4552 Y-0.2144
N3685 X2.461 Y-0.213
N3690 X2.4668 Y-0.2115
N3695 X2.4726 Y-0.2099
N3700 X2.4784 Y-0.2082
N3705 X2.4842 Y-0.2065
N3710 X2.4899 Y-0.2048
N3715 X2.4956 Y-0.2029
N3720 X2.5013 Y-0.2011
N3725 X2.507 Y-0.1991
N3730 X2.5126 Y-0.1971
N3735 X2.5183 Y-0.195
N3740 X2.5238 Y-0.1928
N3745 X2.5294 Y-0.1906
N3750 X2.535 Y-0.1883
N3755 X2.5405 Y-0.1859
N3760 X2.5442 Y-0.1842
N3765 X2.5591 Y-0.1761
N3770 X2.5725 Y-0.1656
N3775 X2.5839 Y-0.153
N3780 X2.5932 Y-0.1388
N3785 X2.6 Y-0.1232
N3790 X2.6041 Y-0.1067
N3795 X2.6055 Y-0.0898
N3800 Y0.1195
N3805 G3 X2.5581 Y0.1677 Z-0.0825 I-0.05 J-0.0017
N3810 G1 X2.5539 Y0.1679 Z-0.0821
N3815 X1.072 Y0.2428
N3820 X1.0711
N3825 G3 X1.0195 Y0.1946 Z-0.0901 I-0.0017 J-0.05
N3830 G1 Y0.0299
N3835 X1.0204 Y0.0107
N3840 X1.0225 Y-0.0063
N3845 X1.0264 Y-0.0251
N3850 X1.0326 Y-0.0456
N3855 X1.0415 Y-0.0678
N3860 X1.0536 Y-0.0917
N3865 X1.0615 Y-0.1044
N3870 X1.0637 Y-0.1077
N3875 X1.066 Y-0.111
N3880 X1.0849 Y-0.1376
N3885 X1.1182 Y-0.1766
N3890 X1.149 Y-0.2075
N3895 X1.154 Y-0.2116
N3900 X1.1565 Y-0.2136
N3905 G3 X1.2264 Y-0.2034 Z-0.0821 I0.0299 J0.0401
N3910 X1.2296 Y-0.1484 I-0.0401 J0.0299
N3915 G1 X1.1127 Y0.0533
N3920 G3 X1.0711 Y0.0782 I-0.0433 J-0.0251
N3925 X1.0195 Y0.0299 Z-0.0901 I-0.0017 J-0.05
N3930 G1 Y-0.3293
N3935 G3 X1.0612 Y-0.3768 Z-0.0831 I0.05 J0.0017
N3940 G1 X1.0711 Y-0.3785 Z-0.0821
N3945 X2.5599 Y-0.6284
N3950 G3 X2.5799 Y-0.6277 I0.0083 J0.0493
N3955 X2.6168 Y-0.5674 Z-0.0901 I-0.0118 J0.0486
N3960 G1 X2.613 Y-0.5538
N3965 X2.6094 Y-0.5383
N3970 X2.6074 Y-0.5239
N3975 X2.6062 Y-0.5089
N3980 X2.6055 Y-0.4939
N3985 Y-0.0898
N3990 G3 X2.5953 Y-0.0612 I-0.05 J-0.0017
N3995 G1 X2.5919 Y-0.0567 Z-0.0898
N4000 X2.5885 Y-0.0523 Z-0.0888
N4005 X2.5852 Y-0.048 Z-0.0873
N4010 X2.5821 Y-0.0439 Z-0.0851
N4015 X2.5791 Y-0.04 Z-0.0824
N4020 X2.5763 Y-0.0364 Z-0.0792
N4025 X2.5738 Y-0.0331 Z-0.0754
N4030 X2.5715 Y-0.0301 Z-0.0713
N4035 X2.5695 Y-0.0275 Z-0.0667
N4040 X2.5679 Y-0.0254 Z-0.0618
N4045 X2.5666 Y-0.0237 Z-0.0566
N4050 X2.5656 Y-0.0225 Z-0.0512
N4055 X2.5651 Y-0.0217 Z-0.0457
N4060 X2.5649 Y-0.0215 Z-0.0401
N4065 Z0.24
N4070 X-1.0399 Y-0.613
N4075 Z0.0099
N4080 Z-0.0401
N4085 X-1.0397 Y-0.6127 Z-0.0457
N4090 X-1.0394 Y-0.6118 Z-0.0512
N4095 X-1.0388 Y-0.6104 Z-0.0566
N4100 X-1.0379 Y-0.6084 Z-0.0618
N4105 X-1.0369 Y-0.6059 Z-0.0667
N4110 X-1.0356 Y-0.6029 Z-0.0713
N4115 X-1.0342 Y-0.5995 Z-0.0754
N4120 X-1.0325 Y-0.5956 Z-0.0792
N4125 X-1.0308 Y-0.5914 Z-0.0824
N4130 X-1.0289 Y-0.5869 Z-0.0851
N4135 X-1.0268 Y-0.5821 Z-0.0873
N4140 X-1.0247 Y-0.5772 Z-0.0888
N4145 X-1.0226 Y-0.5721 Z-0.0898
N4150 X-1.0204 Y-0.5669 Z-0.0901
N4155 G3 X-1.0158 Y-0.5363 I-0.0574 J0.0242
N4160 G1 X-1.0175 Y-0.5239
N4165 X-1.0188 Y-0.5089
N4170 X-1.0195 Y-0.4939
N4175 Y-0.0878
N4180 X-1.0202 Y-0.0836 Z-0.0898
N4185 X-1.0208 Y-0.0795 Z-0.0889
N4190 X-1.0215 Y-0.0755 Z-0.0874
N4195 X-1.0229 Y-0.0722 Z-0.0855
N4200 X-1.0242 Y-0.0692 Z-0.0832
N4205 X-1.0254 Y-0.0664 Z-0.0804
N4210 X-1.0265 Y-0.064 Z-0.0773
N4215 X-1.0276 Y-0.0623 Z-0.074
N4220 X-1.0285 Y-0.061 Z-0.0705
N4225 X-1.0292 Y-0.06 Z-0.0668
N4230 X-1.0296 Y-0.0594 Z-0.063
N4235 X-1.0297 Y-0.0592 Z-0.0592
N4240 Z0.24
N4245 X-2.9593 Y0.9154
N4250 Z-0.1901
N4255 Z-0.2401
N4260 X-2.9591 Y0.9152 Z-0.2457
N4265 X-2.9583 Y0.9147 Z-0.2512
N4270 X-2.957 Y0.9137 Z-0.2566
N4275 X-2.9553 Y0.9125 Z-0.2618
N4280 X-2.9531 Y0.9109 Z-0.2667
N4285 X-2.9505 Y0.909 Z-0.2713
N4290 X-2.9475 Y0.9068 Z-0.2754
N4295 X-2.9441 Y0.9043 Z-0.2792
N4300 X-2.9404 Y0.9016 Z-0.2824
N4305 X-2.9364 Y0.8987 Z-0.2851
N4310 X-2.9323 Y0.8957 Z-0.2873
N4315 X-2.9279 Y0.8925 Z-0.2888
N4320 X-2.9234 Y0.8892 Z-0.2898
N4325 X-2.9189 Y0.8859 Z-0.2901
N4330 G3 X-2.6806 Y0.7488 I0.7522 J1.0313
N4335 G1 X-2.6544 Y0.7383
N4340 X-2.6441 Y0.7334
N4345 X-2.6394 Y0.7311
N4350 X-2.6244 Y0.7233
N4355 X-2.6161 Y0.7184
N4360 X-2.5931 Y0.7035
N4365 X-2.5794 Y0.6938
N4370 X-2.5734 Y0.6885
N4375 X-2.5709 Y0.6865
N4380 X-2.5527 Y0.6727
N4385 X-2.5293 Y0.6577
N4390 X-2.4993 Y0.6418
N4395 X-2.4603 Y0.6248
N4400 X-2.4118 Y0.6083
N4405 X-2.3621 Y0.5954
N4410 X-2.3118 Y0.5854
N4415 X-2.2612 Y0.5776
N4420 X-2.2103 Y0.5714
N4425 X-2.1592 Y0.5665
N4430 X-2.1081 Y0.5627
N4435 X-2.0569 Y0.5597
N4440 X-2.0057 Y0.5574
N4445 X-1.9545 Y0.5555
N4450 X-1.9032 Y0.554
N4455 X-1.852 Y0.5529
N4460 X-1.8007 Y0.5519
N4465 X-1.7494 Y0.5512
N4470 X-1.6982 Y0.5506
N4475 X-1.6469 Y0.5502
N4480 X-1.5956 Y0.5498
N4485 X-1.5443 Y0.5495
N4490 X-1.4931 Y0.5493
N4495 X-1.3905 Y0.549
N4500 X-1.288 Y0.5488
N4505 X-1.225 Y0.5487
N4510 X-1.2061 Y0.5502
N4515 X-1.1876 Y0.5545
N4520 X-1.17 Y0.5616
N4525 X-1.1537 Y0.5713
N4530 X-1.1392 Y0.5835
N4535 X-1.1266 Y0.5977
N4540 X-1.1164 Y0.6137
N4545 X-1.1097 Y0.6244
N4550 G3 X-1.1284 Y0.6926 Z-0.2821 I-0.0435 J0.0247
N4555 X-1.1505 Y0.6991 I-0.0248 J-0.0434
N4560 G1 X-2.5364 Y0.7748
N4565 G3 X-2.5756 Y0.7592 I-0.0027 J-0.0499
N4570 X-2.5734 Y0.6885 Z-0.2901 I0.0364 J-0.0342
N4575 G1 X-2.5563 Y0.6735
N4580 X-2.5494 Y0.6672
N4585 X-2.5417 Y0.6586
N4590 X-2.5194 Y0.6308
N4595 X-2.518 Y0.6286
N4600 X-2.5008 Y0.5987
N4605 X-2.4998 Y0.5962
N4610 X-2.4963 Y0.5888
N4615 X-2.4892 Y0.5765
N4620 X-2.4794 Y0.5623
N4625 X-2.4672 Y0.5473
N4630 X-2.4516 Y0.531
N4635 X-2.4323 Y0.5139
N4640 X-2.408 Y0.4955
N4645 X-2.3779 Y0.4764
N4650 X-2.3404 Y0.4566
N4655 X-2.2933 Y0.4364
N4660 X-2.2447 Y0.4199
N4665 X-2.1952 Y0.4066
N4670 X-2.1451 Y0.3957
N4675 X-2.0946 Y0.3869
N4680 X-2.0438 Y0.3797
N4685 X-1.9929 Y0.3738
N4690 X-1.9418 Y0.369
N4695 X-1.8907 Y0.3652
N4700 X-1.8395 Y0.362
N4705 X-1.7883 Y0.3594
N4710 X-1.7371 Y0.3574
N4715 X-1.6859 Y0.3557
N4720 X-1.6346 Y0.3543
N4725 X-1.5834 Y0.3532
N4730 X-1.5321 Y0.3523
N4735 X-1.4808 Y0.3516
N4740 X-1.4296 Y0.351
N4745 X-1.3783
N4750 X-1.327 Y0.3531
N4755 X-1.2799 Y0.358
N4760 X-1.2404 Y0.3655
N4765 X-1.2329 Y0.3675
N4770 X-1.2152 Y0.3739
N4775 X-1.1988 Y0.3831
N4780 X-1.184 Y0.3949
N4785 X-1.1714 Y0.4088
N4790 X-1.1613 Y0.4247
N4795 X-1.1538 Y0.4419
N4800 X-1.1492 Y0.4602
N4805 X-1.1477 Y0.479
N4810 Y0.4939
N4815 X-1.1473 Y0.5022
N4820 G3 X-1.1929 Y0.5526 Z-0.2825 I-0.05 J0.0006
N4825 G1 X-1.1967 Y0.5529 Z-0.2821
N4830 X-2.4486 Y0.6636
N4835 G3 X-2.4706 Y0.6606 I-0.0044 J-0.0498
N4840 X-2.4998 Y0.5962 Z-0.2901 I0.0176 J-0.0468
N4845 G1 X-2.4946 Y0.5837
N4850 X-2.4888 Y0.5688
N4855 X-2.4847 Y0.5538
N4860 X-2.4813 Y0.5388
N4865 X-2.4792 Y0.5239
N4870 X-2.478 Y0.5089
N4875 X-2.4772 Y0.5009
N4880 X-2.4753 Y0.4893
N4885 X-2.472 Y0.476
N4890 X-2.4674 Y0.4622
N4895 X-2.4604 Y0.446
N4900 X-2.4518 Y0.4296
N4905 X-2.4403 Y0.4116
N4910 X-2.4259 Y0.3925
N4915 X-2.408 Y0.3723
N4920 X-2.3862 Y0.3514
N4925 X-2.359 Y0.3292
N4930 X-2.3261 Y0.3065
N4935 X-2.2859 Y0.2833
N4940 X-2.2395 Y0.2613
N4945 X-2.1917 Y0.2428
N4950 X-2.1429 Y0.2273
N4955 X-2.0933 Y0.2142
N4960 X-2.0432 Y0.2033
N4965 X-1.9927 Y0.1941
N4970 X-1.9421 Y0.1864
N4975 X-1.8912 Y0.18
N4980 X-1.8402 Y0.1747
N4985 X-1.7891 Y0.1702
N4990 X-1.738 Y0.1665
N4995 X-1.6868 Y0.1634
N5000 X-1.6356 Y0.1608
N5005 X-1.5844 Y0.1587
N5010 X-1.5331 Y0.1574
N5015 X-1.4818 Y0.157
N5020 X-1.4306 Y0.1581
N5025 X-1.3794 Y0.161
N5030 X-1.3284 Y0.1667
N5035 X-1.2868 Y0.1747
N5040 X-1.2506 Y0.1848
N5045 X-1.2191 Y0.1963
N5050 X-1.2038 Y0.2047
N5055 X-1.1899 Y0.2152
N5060 X-1.1775 Y0.2276
N5065 X-1.1671 Y0.2416
N5070 X-1.1587 Y0.2569
N5075 X-1.1527 Y0.2733
N5080 X-1.1489 Y0.2904
N5085 X-1.1477 Y0.3078
N5090 Y0.479
N5095 G3 X-1.1964 Y0.5272 Z-0.2824 I-0.05 J-0.0017
N5100 G1 X-1.1994 Y0.5273 Z-0.2821
N5105 X-2.4267 Y0.5595
N5110 X-2.4287
N5115 G3 X-2.478 Y0.5089 Z-0.2901 I0.0006 J-0.05
N5120 G1 X-2.4773 Y0.4939
N5125 Y0.3809
N5130 X-2.4768 Y0.3716
N5135 X-2.4753 Y0.3578
N5140 X-2.4723 Y0.3419
N5145 X-2.4678 Y0.3255
N5150 X-2.4608 Y0.3065
N5155 X-2.4521 Y0.2875
N5160 X-2.44 Y0.266
N5165 X-2.4255 Y0.2443
N5170 X-2.4066 Y0.2205
N5175 X-2.3845 Y0.1968
N5180 X-2.3567 Y0.1716
N5185 X-2.3229 Y0.1454
N5190 X-2.2821 Y0.1188
N5195 X-2.2371 Y0.0943
N5200 X-2.1904 Y0.0731
N5205 X-2.1424 Y0.0549
N5210 X-2.0936 Y0.0392
N5215 X-2.0442 Y0.0257
N5220 X-1.9942 Y0.0141
N5225 X-1.9439 Y0.0042
N5230 X-1.8934 Y-0.0043
N5235 X-1.8426 Y-0.0115
N5240 X-1.7917 Y-0.0177
N5245 X-1.7407 Y-0.0229
N5250 X-1.6896 Y-0.0271
N5255 X-1.6384 Y-0.0303
N5260 X-1.5872 Y-0.0324
N5265 X-1.5359 Y-0.0333
N5270 X-1.4847 Y-0.0327
N5275 X-1.4334 Y-0.0301
N5280 X-1.3824 Y-0.0252
N5285 X-1.3317 Y-0.0176
N5290 X-1.287 Y-0.0077
N5295 X-1.2498 Y0.0037
N5300 X-1.2172 Y0.0167
N5305 X-1.2022 Y0.0255
N5310 X-1.1886 Y0.0362
N5315 X-1.1766 Y0.0487
N5320 X-1.1665 Y0.0627
N5325 X-1.1584 Y0.078
N5330 X-1.1525 Y0.0943
N5335 X-1.1489 Y0.1113
N5340 X-1.1477 Y0.1286
N5345 Y0.3078
N5350 G3 X-1.1947 Y0.356 Z-0.2826 I-0.05 J-0.0017
N5355 G1 X-1.1994 Y0.3563 Z-0.2821
N5360 X-2.4244 Y0.4291
N5365 X-2.4256
N5370 G3 X-2.4773 Y0.3809 Z-0.2901 I-0.0017 J-0.05
N5375 G1 Y0.2245
N5380 X-2.4768 Y0.2147
N5385 X-2.475 Y0.1988
N5390 X-2.4717 Y0.1818
N5395 X-2.4665 Y0.1631
N5400 X-2.4589 Y0.1424
N5405 X-2.4491 Y0.1212
N5410 X-2.4357 Y0.0975
N5415 X-2.4195 Y0.0735
N5420 X-2.3989 Y0.0477
N5425 X-2.3733 Y0.0205
N5430 X-2.3431 Y-0.0069
N5435 X-2.3059 Y-0.0355
N5440 X-2.2629 Y-0.0634
N5445 X-2.2179 Y-0.0879
N5450 X-2.1714 Y-0.1095
N5455 X-2.1237 Y-0.1284
N5460 X-2.0752 Y-0.1449
N5465 X-2.026 Y-0.1594
N5470 X-1.9763 Y-0.172
N5475 X-1.9262 Y-0.1829
N5480 X-1.8758 Y-0.1924
N5485 X-1.8252 Y-0.2005
N5490 X-1.7744 Y-0.2073
N5495 X-1.7234 Y-0.2128
N5500 X-1.6723 Y-0.217
N5505 X-1.6211 Y-0.2198
N5510 X-1.5698 Y-0.221
N5515 X-1.5186 Y-0.2207
N5520 X-1.4673 Y-0.2185
N5525 X-1.4162 Y-0.2143
N5530 X-1.3654 Y-0.2077
N5535 X-1.315 Y-0.1982
N5540 X-1.2722 Y-0.1869
N5545 X-1.2361 Y-0.1741
N5550 X-1.216 Y-0.1651
N5555 X-1.2014 Y-0.1573
N5560 X-1.1881 Y-0.1475
N5565 X-1.1763 Y-0.1358
N5570 X-1.1663 Y-0.1226
N5575 X-1.1583 Y-0.1081
N5580 X-1.1524 Y-0.0926
N5585 X-1.1489 Y-0.0764
N5590 X-1.1477 Y-0.0599
N5595 Y0.1286
N5600 G3 X-1.1938 Y0.1767 Z-0.2827 I-0.05 J-0.0017
N5605 G1 X-1.1994 Y0.1771 Z-0.2821
N5610 X-2.4234 Y0.2726
N5615 X-2.4256 Y0.2727
N5620 G3 X-2.4773 Y0.2245 Z-0.2901 I-0.0017 J-0.05
N5625 G1 Y0.0599
N5630 X-2.4768 Y0.0492
N5635 X-2.4766 Y0.0432
N5640 X-2.4763 Y0.0372
N5645 X-2.4757 Y0.0313
N5650 X-2.475 Y0.0253
N5655 X-2.4741 Y0.0194
N5660 X-2.4731 Y0.0135
N5665 X-2.4719 Y0.0076
N5670 X-2.4705 Y0.0017
N5675 X-2.4691 Y-0.0041
N5680 X-2.4674 Y-0.0099
N5685 X-2.4657 Y-0.0156
N5690 X-2.4638 Y-0.0213
N5695 X-2.4618 Y-0.0269
N5700 X-2.4596 Y-0.0325
N5705 X-2.4574 Y-0.0381
N5710 X-2.455 Y-0.0436
N5715 X-2.4526 Y-0.0491
N5720 X-2.45 Y-0.0545
N5725 X-2.4473 Y-0.0599
N5730 X-2.4446 Y-0.0652
N5735 X-2.4417 Y-0.0705
N5740 X-2.4387 Y-0.0757
N5745 X-2.4357 Y-0.0809
N5750 X-2.4326 Y-0.086
N5755 X-2.4294 Y-0.0911
N5760 X-2.4261 Y-0.0961
N5765 X-2.4227 Y-0.1011
N5770 X-2.4193 Y-0.106
N5775 X-2.4157 Y-0.1108
N5780 X-2.4122 Y-0.1156
N5785 X-2.4085 Y-0.1204
N5790 X-2.4048 Y-0.1251
N5795 X-2.401 Y-0.1298
N5800 X-2.3971 Y-0.1344
N5805 X-2.3932 Y-0.1389
N5810 X-2.3893 Y-0.1434
N5815 X-2.3852 Y-0.1479
N5820 X-2.3812 Y-0.1523
N5825 X-2.377 Y-0.1566
N5830 X-2.3728 Y-0.1609
N5835 X-2.3686 Y-0.1651
N5840 X-2.3643 Y-0.1693
N5845 X-2.36 Y-0.1735
N5850 X-2.3556 Y-0.1776
N5855 X-2.3512 Y-0.1816
N5860 X-2.3467 Y-0.1856
N5865 X-2.3422 Y-0.1896
N5870 X-2.3376 Y-0.1935
N5875 X-2.333 Y-0.1974
N5880 X-2.3284 Y-0.2012
N5885 X-2.3237 Y-0.2049
N5890 X-2.319 Y-0.2086
N5895 X-2.3143 Y-0.2123
N5900 X-2.3095 Y-0.2159
N5905 X-2.3047 Y-0.2195
N5910 X-2.2998 Y-0.2231
N5915 X-2.2949 Y-0.2265
N5920 X-2.29 Y-0.23
N5925 X-2.2851 Y-0.2334
N5930 X-2.2801 Y-0.2368
N5935 X-2.2751 Y-0.2401
N5940 X-2.2701 Y-0.2434
N5945 X-2.265 Y-0.2466
N5950 X-2.26 Y-0.2498
N5955 X-2.2548 Y-0.2529
N5960 X-2.2497 Y-0.256
N5965 X-2.2446 Y-0.2591
N5970 X-2.2393 Y-0.2622
N5975 X-2.234 Y-0.2652
N5980 X-2.2288 Y-0.2682
N5985 X-2.2235 Y-0.2711
N5990 X-2.2183 Y-0.274
N5995 X-2.2128 Y-0.2769
N6000 X-2.2072 Y-0.2799
N6005 X-2.2014 Y-0.2829
N6010 X-2.1954 Y-0.2859
N6015 X-2.1892 Y-0.289
N6020 X-2.183 Y-0.2921
N6025 X-2.1771 Y-0.2949
N6030 X-2.171 Y-0.2978
N6035 X-2.1647 Y-0.3007
N6040 X-2.1582 Y-0.3037
N6045 X-2.1514 Y-0.3067
N6050 X-2.1444 Y-0.3098
N6055 X-2.1371 Y-0.3129
N6060 X-2.1302 Y-0.3158
N6065 X-2.1232 Y-0.3186
N6070 X-2.116 Y-0.3215
N6075 X-2.1086 Y-0.3245
N6080 X-2.1008 Y-0.3275
N6085 X-2.0927 Y-0.3305
N6090 X-2.0843 Y-0.3336
N6095 X-2.0765 Y-0.3364
N6100 X-2.0685 Y-0.3392
N6105 X-2.0602 Y-0.3421
N6110 X-2.0515 Y-0.345
N6115 X-2.0424 Y-0.348
N6120 X-2.0329 Y-0.351
N6125 X-2.0241 Y-0.3538
N6130 X-2.0151 Y-0.3565
N6135 X-2.0057 Y-0.3593
N6140 X-1.9959 Y-0.3621
N6145 X-1.9855 Y-0.365
N6150 X-1.9752 Y-0.3678
N6155 X-1.9656 Y-0.3703
N6160 X-1.9554 Y-0.3729
N6165 X-1.9447 Y-0.3756
N6170 X-1.9335 Y-0.3783
N6175 X-1.9222 Y-0.3809
N6180 X-1.9118 Y-0.3832
N6185 X-1.9009 Y-0.3856
N6190 X-1.8895 Y-0.388
N6195 X-1.8775 Y-0.3904
N6200 X-1.8655 Y-0.3928
N6205 X-1.8546 Y-0.3948
N6210 X-1.8431 Y-0.3968
N6215 X-1.831 Y-0.3989
N6220 X-1.8183 Y-0.401
N6225 X-1.8063 Y-0.4029
N6230 X-1.795 Y-0.4046
N6235 X-1.7831 Y-0.4062
N6240 X-1.7705 Y-0.4079
N6245 X-1.7573 Y-0.4096
N6250 X-1.7458 Y-0.411
N6255 X-1.7343 Y-0.4122
N6260 X-1.7221 Y-0.4135
N6265 X-1.7094 Y-0.4147
N6270 X-1.6962 Y-0.4159
N6275 X-1.6852 Y-0.4168
N6280 X-1.6739 Y-0.4177
N6285 X-1.662 Y-0.4185
N6290 X-1.6495 Y-0.4192
N6295 X-1.6367 Y-0.4199
N6300 X-1.6262 Y-0.4204
N6305 X-1.6157 Y-0.4207
N6310 X-1.6047 Y-0.4211
N6315 X-1.5931 Y-0.4213
N6320 X-1.581 Y-0.4215
N6325 X-1.5699 Y-0.4216
N6330 X-1.5604
N6335 X-1.5506
N6340 X-1.5403 Y-0.4214
N6345 X-1.5296 Y-0.4212
N6350 X-1.5183 Y-0.4209
N6355 X-1.5079 Y-0.4205
N6360 X-1.4993 Y-0.4201
N6365 X-1.4909 Y-0.4197
N6370 X-1.4822 Y-0.4192
N6375 X-1.4732 Y-0.4186
N6380 X-1.4638 Y-0.418
N6385 X-1.4542 Y-0.4172
N6390 X-1.4457 Y-0.4164
N6395 X-1.4383 Y-0.4157
N6400 X-1.431 Y-0.415
N6405 X-1.4235 Y-0.4142
N6410 X-1.4158 Y-0.4133
N6415 X-1.4078 Y-0.4123
N6420 X-1.3996 Y-0.4112
N6425 X-1.3922 Y-0.4102
N6430 X-1.3854 Y-0.4092
N6435 X-1.3791 Y-0.4082
N6440 X-1.3725 Y-0.4071
N6445 X-1.3658 Y-0.406
N6450 X-1.3591 Y-0.4048
N6455 X-1.3528 Y-0.4037
N6460 X-1.347 Y-0.4025
N6465 X-1.3411 Y-0.4013
N6470 X-1.3352 Y-0.4001
N6475 X-1.3293 Y-0.3989
N6480 X-1.3234 Y-0.3975
N6485 X-1.3176 Y-0.3962
N6490 X-1.3118 Y-0.3948
N6495 X-1.3059 Y-0.3933
N6500 X-1.3001 Y-0.3918
N6505 X-1.2943 Y-0.3903
N6510 X-1.2886 Y-0.3887
N6515 X-1.2828 Y-0.387
N6520 X-1.2771 Y-0.3852
N6525 X-1.2713 Y-0.3835
N6530 X-1.2656 Y-0.3816
N6535 X-1.2599 Y-0.3797
N6540 X-1.2543 Y-0.3777
N6545 X-1.2486 Y-0.3757
N6550 X-1.243 Y-0.3736
N6555 X-1.2374 Y-0.3714
N6560 X-1.2319 Y-0.3691
N6565 X-1.2263 Y-0.3668
N6570 X-1.2208 Y-0.3645
N6575 X-1.2153 Y-0.362
N6580 X-1.2008 Y-0.354
N6585 X-1.1876 Y-0.344
N6590 X-1.1759 Y-0.3322
N6595 X-1.1661 Y-0.3189
N6600 X-1.1581 Y-0.3044
N6605 X-1.1524 Y-0.2888
N6610 X-1.1489 Y-0.2726
N6615 X-1.1477 Y-0.2561
N6620 Y-0.0599
N6625 G3 X-1.1928 Y-0.0119 Z-0.2828 I-0.05 J-0.0017
N6630 G1 X-1.1994 Y-0.0112 Z-0.2821
N6635 X-2.4225 Y0.1079
N6640 X-2.4256 Y0.1081
N6645 G3 X-2.4773 Y0.0599 Z-0.2901 I-0.0017 J-0.05
N6650 G1 Y-0.1197
N6655 X-2.4767 Y-0.1313
N6660 X-2.4752 Y-0.1478
N6665 X-2.4721 Y-0.1661
N6670 X-2.467 Y-0.1861
N6675 X-2.4595 Y-0.2079
N6680 X-2.4492 Y-0.2314
N6685 X-2.4424 Y-0.244
N6690 X-2.4164 Y-0.2882
N6695 X-2.4114 Y-0.2957
N6700 X-2.4087 Y-0.2995
N6705 X-2.3863 Y-0.3304
N6710 X-2.3693 Y-0.3496
N6715 X-2.3602 Y-0.3587
N6720 X-2.3556 Y-0.3631
N6725 G3 X-2.2851 Y-0.3586 Z-0.2821 I0.033 J0.0375
N6730 X-2.2781 Y-0.3027 I-0.0375 J0.0331
N6735 G1 X-2.3828 Y-0.0987
N6740 G3 X-2.4256 Y-0.0715 I-0.0445 J-0.0228
N6745 X-2.4773 Y-0.1197 Z-0.2901 I-0.0017 J-0.05
N6750 G1 Y-0.4939
N6755 X-2.478 Y-0.5089
N6760 G3 X-2.4691 Y-0.538 I0.05 J-0.0006
N6765 G1 X-2.4659 Y-0.5426 Z-0.2898
N6770 X-2.4628 Y-0.5471 Z-0.2888
N6775 X-2.4597 Y-0.5516 Z-0.2873
N6780 X-2.4567 Y-0.5558 Z-0.2851
N6785 X-2.4539 Y-0.5598 Z-0.2824
N6790 X-2.4513 Y-0.5636 Z-0.2792
N6795 X-2.4489 Y-0.567 Z-0.2754
N6800 X-2.4468 Y-0.5701 Z-0.2713
N6805 X-2.445 Y-0.5728 Z-0.2667
N6810 X-2.4434 Y-0.575 Z-0.2618
N6815 X-2.4422 Y-0.5768 Z-0.2566
N6820 X-2.4413 Y-0.578 Z-0.2512
N6825 X-2.4408 Y-0.5788 Z-0.2457
N6830 X-2.4406 Y-0.5791 Z-0.2401
N6835 Z0.24
N6840 X0.6557 Y0.8967
N6845 Z-0.1901
N6850 Z-0.2401
N6855 X0.6559 Y0.8965 Z-0.2457
N6860 X0.6567 Y0.896 Z-0.2512
N6865 X0.658 Y0.8952 Z-0.2566
N6870 X0.6599 Y0.894 Z-0.2618
N6875 X0.6622 Y0.8926 Z-0.2667
N6880 X0.6649 Y0.8908 Z-0.2713
N6885 X0.6681 Y0.8888 Z-0.2754
N6890 X0.6716 Y0.8866 Z-0.2792
N6895 X0.6754 Y0.8841 Z-0.2824
N6900 X0.6796 Y0.8815 Z-0.2851
N6905 X0.684 Y0.8788 Z-0.2873
N6910 X0.6885 Y0.8759 Z-0.2888
N6915 X0.6932 Y0.8729 Z-0.2898
N6920 X0.6979 Y0.8699 Z-0.2901
N6925 G3 X0.9448 Y0.7487 I0.6827 J1.0786
N6930 G1 X0.9459 Y0.7484
N6935 X0.9598 Y0.7427
N6940 X0.9806 Y0.7334
N6945 X0.9898 Y0.7291
N6950 X1.0087 Y0.7184
N6955 X1.0198 Y0.712
N6960 X1.0348 Y0.7016
N6965 X1.0498 Y0.6906
N6970 X1.0523 Y0.6885
N6975 X1.0547 Y0.6864
N6980 X1.0729 Y0.6726
N6985 X1.0963 Y0.6576
N6990 X1.1264 Y0.6416
N6995 X1.1655 Y0.6247
N7000 X1.214 Y0.6082
N7005 X1.2636 Y0.5954
N7010 X1.3139 Y0.5854
N7015 X1.3646 Y0.5775
N7020 X1.4155 Y0.5714
N7025 X1.4665 Y0.5665
N7030 X1.5177 Y0.5627
N7035 X1.5689 Y0.5597
N7040 X1.6201 Y0.5574
N7045 X1.6713 Y0.5555
N7050 X1.7226 Y0.554
N7055 X1.7738 Y0.5529
N7060 X1.8251 Y0.5519
N7065 X1.8763 Y0.5512
N7070 X1.9276 Y0.5506
N7075 X1.9789 Y0.5502
N7080 X2.0302 Y0.5498
N7085 X2.0814 Y0.5495
N7090 X2.1327 Y0.5493
N7095 X2.2352 Y0.549
N7100 X2.3378 Y0.5488
N7105 X2.3996 Y0.5487
N7110 X2.4184 Y0.5501
N7115 X2.4366 Y0.5543
N7120 X2.4541 Y0.5612
N7125 X2.4704 Y0.5706
N7130 X2.485 Y0.5823
N7135 X2.4977 Y0.5961
N7140 X2.5083 Y0.6116
N7145 X2.518 Y0.6286
N7150 X2.5194 Y0.6308
N7155 X2.5417 Y0.6586
N7160 X2.5494 Y0.6672
N7165 X2.5563 Y0.6735
N7170 X2.5644 Y0.6806
N7175 G3 X2.5666 Y0.7513 Z-0.2821 I-0.0343 J0.0364
N7180 X2.5304 Y0.7671 I-0.0364 J-0.0342
N7185 G1 X1.088 Y0.7737
N7190 G3 X1.0526 Y0.7592 I-0.0002 J-0.05
N7195 X1.0523 Y0.6885 Z-0.2901 I0.0352 J-0.0355
N7200 G1 X1.0797 Y0.6626
N7205 X1.0837 Y0.6586
N7210 X1.0955 Y0.6436
N7215 X1.1071 Y0.6286
N7220 X1.1097 Y0.6244
N7225 X1.1164 Y0.6137
N7230 X1.1247 Y0.598
N7235 X1.1253 Y0.5967
N7240 X1.1268 Y0.5933
N7245 X1.1333 Y0.5812
N7250 X1.142 Y0.5677
N7255 X1.1534 Y0.5529
N7260 X1.1676 Y0.5372
N7265 X1.1856 Y0.5202
N7270 X1.208 Y0.5023
N7275 X1.2355 Y0.4836
N7280 X1.2702 Y0.464
N7285 X1.314 Y0.4437
N7290 X1.362 Y0.4259
N7295 X1.4112 Y0.4114
N7300 X1.4611 Y0.3996
N7305 X1.5115 Y0.3901
N7310 X1.5622 Y0.3823
N7315 X1.6131 Y0.3759
N7320 X1.6641 Y0.3708
N7325 X1.7152 Y0.3666
N7330 X1.7663 Y0.3632
N7335 X1.8175 Y0.3604
N7340 X1.8688 Y0.3581
N7345 X1.92 Y0.3563
N7350 X1.9712 Y0.3548
N7355 X2.0225 Y0.3536
N7360 X2.0738 Y0.3526
N7365 X2.125 Y0.3518
N7370 X2.1763 Y0.3512
N7375 X2.2276 Y0.3509
N7380 X2.2788 Y0.352
N7385 X2.3299 Y0.356
N7390 X2.3721 Y0.3627
N7395 X2.4084 Y0.3715
N7400 X2.4229 Y0.3775
N7405 X2.4362 Y0.3857
N7410 X2.4481 Y0.396
N7415 X2.4583 Y0.4079
N7420 X2.4664 Y0.4213
N7425 X2.4724 Y0.4358
N7430 X2.4761 Y0.451
N7435 X2.4773 Y0.4667
N7440 Y0.4939
N7445 X2.4777 Y0.5022
N7450 G3 X2.4321 Y0.5526 Z-0.2825 I-0.05 J0.0006
N7455 G1 X2.4283 Y0.5529 Z-0.2821
N7460 X1.1768 Y0.6632
N7465 G3 X1.1556 Y0.6605 I-0.0044 J-0.0498
N7470 X1.1253 Y0.5967 Z-0.2901 I0.0167 J-0.0471
N7475 G1 X1.1304 Y0.5837
N7480 X1.1362 Y0.5688
N7485 X1.1397 Y0.5562
N7490 X1.1437 Y0.5388
N7495 X1.1458 Y0.5239
N7500 X1.147 Y0.5089
N7505 X1.1478 Y0.501
N7510 X1.1498 Y0.489
N7515 X1.1529 Y0.4765
N7520 X1.1579 Y0.4617
N7525 X1.1645 Y0.4463
N7530 X1.1733 Y0.4296
N7535 X1.185 Y0.4112
N7540 X1.1992 Y0.3925
N7545 X1.2173 Y0.3721
N7550 X1.2393 Y0.3511
N7555 X1.2661 Y0.3293
N7560 X1.2993 Y0.3064
N7565 X1.34 Y0.283
N7570 X1.3864 Y0.2611
N7575 X1.4342 Y0.2426
N7580 X1.4831 Y0.2271
N7585 X1.5326 Y0.2141
N7590 X1.5827 Y0.2032
N7595 X1.6332 Y0.194
N7600 X1.6839 Y0.1864
N7605 X1.7348 Y0.18
N7610 X1.7857 Y0.1746
N7615 X1.8368 Y0.1702
N7620 X1.888 Y0.1664
N7625 X1.9391 Y0.1634
N7630 X1.9904 Y0.1608
N7635 X2.0416 Y0.1587
N7640 X2.0928 Y0.1573
N7645 X2.1441 Y0.157
N7650 X2.1954 Y0.1581
N7655 X2.2465 Y0.1611
N7660 X2.2975 Y0.1665
N7665 X2.3403 Y0.1742
N7670 X2.3761 Y0.1837
N7675 X2.4069 Y0.1946
N7680 X2.422 Y0.2026
N7685 X2.4357 Y0.2128
N7690 X2.4479 Y0.2248
N7695 X2.4582 Y0.2384
N7700 X2.4664 Y0.2533
N7705 X2.4724 Y0.2693
N7710 X2.4761 Y0.286
N7715 X2.4773 Y0.303
N7720 Y0.4667
N7725 G3 X2.4291 Y0.5149 Z-0.2824 I-0.05 J-0.0017
N7730 G1 X2.4256 Y0.515 Z-0.2821
N7735 X1.1988 Y0.5595
N7740 X1.1963
N7745 G3 X1.147 Y0.5089 Z-0.2901 I0.0006 J-0.05
N7750 G1 X1.1477 Y0.4939
N7755 Y0.3809
N7760 X1.1482 Y0.3717
N7765 X1.1497 Y0.3579
N7770 X1.1527 Y0.3419
N7775 X1.1573 Y0.3256
N7780 X1.1642 Y0.3066
N7785 X1.173 Y0.2875
N7790 X1.185 Y0.266
N7795 X1.1996 Y0.2443
N7800 X1.2186 Y0.2205
N7805 X1.2408 Y0.1968
N7810 X1.2686 Y0.1715
N7815 X1.3025 Y0.1453
N7820 X1.3434 Y0.1186
N7825 X1.3884 Y0.0942
N7830 X1.4351 Y0.073
N7835 X1.4831 Y0.0548
N7840 X1.5319 Y0.0391
N7845 X1.5814 Y0.0256
N7850 X1.6313 Y0.0141
N7855 X1.6816 Y0.0042
N7860 X1.7322 Y-0.0043
N7865 X1.7829 Y-0.0116
N7870 X1.8338 Y-0.0177
N7875 X1.8848 Y-0.0229
N7880 X1.9359 Y-0.0271
N7885 X1.9871 Y-0.0303
N7890 X2.0383 Y-0.0324
N7895 X2.0896 Y-0.0333
N7900 X2.1409 Y-0.0327
N7905 X2.1921 Y-0.0303
N7910 X2.2432 Y-0.0257
N7915 X2.2939 Y-0.0184
N7920 X2.3384 Y-0.0088
N7925 X2.3753 Y0.0024
N7930 X2.4077 Y0.015
N7935 X2.4227 Y0.0237
N7940 X2.4363 Y0.0343
N7945 X2.4483 Y0.0467
N7950 X2.4585 Y0.0607
N7955 X2.4666 Y0.076
N7960 X2.4725 Y0.0922
N7965 X2.4761 Y0.1091
N7970 X2.4773 Y0.1263
N7975 Y0.303
N7980 G3 X2.4305 Y0.3512 Z-0.2826 I-0.05 J-0.0017
N7985 G1 X2.4256 Y0.3515 Z-0.2821
N7990 X1.2008 Y0.4291
N7995 X1.1994
N8000 G3 X1.1477 Y0.3809 Z-0.2901 I-0.0017 J-0.05
N8005 G1 Y0.2245
N8010 X1.1482 Y0.2147
N8015 X1.15 Y0.1988
N8020 X1.1533 Y0.1818
N8025 X1.1585 Y0.1631
N8030 X1.1662 Y0.1424
N8035 X1.176 Y0.1211
N8040 X1.1894 Y0.0974
N8045 X1.2056 Y0.0734
N8050 X1.2262 Y0.0476
N8055 X1.2519 Y0.0204
N8060 X1.2822 Y-0.007
N8065 X1.3194 Y-0.0356
N8070 X1.3625 Y-0.0635
N8075 X1.4075 Y-0.088
N8080 X1.454 Y-0.1096
N8085 X1.5017 Y-0.1284
N8090 X1.5502 Y-0.145
N8095 X1.5994 Y-0.1594
N8100 X1.6491 Y-0.172
N8105 X1.6992 Y-0.183
N8110 X1.7496 Y-0.1924
N8115 X1.8002 Y-0.2005
N8120 X1.851 Y-0.2073
N8125 X1.902 Y-0.2128
N8130 X1.9531 Y-0.217
N8135 X2.0043 Y-0.2198
N8140 X2.0556 Y-0.2212
N8145 X2.1068 Y-0.2209
N8150 X2.1581 Y-0.2189
N8155 X2.2092 Y-0.2149
N8160 X2.26 Y-0.2084
N8165 X2.3105 Y-0.1991
N8170 X2.353 Y-0.1879
N8175 X2.3889 Y-0.1753
N8180 X2.4076 Y-0.167
N8185 X2.4225 Y-0.1591
N8190 X2.4361 Y-0.1491
N8195 X2.4481 Y-0.1372
N8200 X2.4583 Y-0.1238
N8205 X2.4665 Y-0.109
N8210 X2.4725 Y-0.0932
N8215 X2.4761 Y-0.0767
N8220 X2.4773 Y-0.0599
N8225 Y0.1263
N8230 G3 X2.4313 Y0.1744 Z-0.2827 I-0.05 J-0.0017
N8235 G1 X2.4256 Y0.1749 Z-0.2821
N8240 X1.2017 Y0.2726
N8245 X1.1994 Y0.2727
N8250 G3 X1.1477 Y0.2245 Z-0.2901 I-0.0017 J-0.05
N8255 G1 Y0.0599
N8260 X1.1482 Y0.0493
N8265 X1.1484 Y0.0433
N8270 X1.1487 Y0.0373
N8275 X1.1493 Y0.0313
N8280 X1.15 Y0.0253
N8285 X1.1509 Y0.0194
N8290 X1.1519 Y0.0135
N8295 X1.1531 Y0.0076
N8300 X1.1545 Y0.0018
N8305 X1.156 Y-0.0041
N8310 X1.1576 Y-0.0098
N8315 X1.1594 Y-0.0156
N8320 X1.1613 Y-0.0213
N8325 X1.1633 Y-0.0269
N8330 X1.1654 Y-0.0325
N8335 X1.1676 Y-0.0381
N8340 X1.17 Y-0.0436
N8345 X1.1725 Y-0.0491
N8350 X1.175 Y-0.0545
N8355 X1.1777 Y-0.0599
N8360 X1.1805 Y-0.0652
N8365 X1.1833 Y-0.0705
N8370 X1.1863 Y-0.0757
N8375 X1.1893 Y-0.0808
N8380 X1.1925 Y-0.086
N8385 X1.1957 Y-0.091
N8390 X1.199 Y-0.0961
N8395 X1.2023 Y-0.101
N8400 X1.2058 Y-0.1059
N8405 X1.2093 Y-0.1108
N8410 X1.2129 Y-0.1156
N8415 X1.2165 Y-0.1204
N8420 X1.2203 Y-0.1251
N8425 X1.224 Y-0.1297
N8430 X1.2279 Y-0.1343
N8435 X1.2318 Y-0.1389
N8440 X1.2358 Y-0.1434
N8445 X1.2398 Y-0.1478
N8450 X1.2439 Y-0.1522
N8455 X1.248 Y-0.1566
N8460 X1.2522 Y-0.1609
N8465 X1.2565 Y-0.1651
N8470 X1.2607 Y-0.1693
N8475 X1.2651 Y-0.1734
N8480 X1.2695 Y-0.1775
N8485 X1.2739 Y-0.1816
N8490 X1.2784 Y-0.1856
N8495 X1.2829 Y-0.1895
N8500 X1.2874 Y-0.1934
N8505 X1.292 Y-0.1973
N8510 X1.2967 Y-0.2011
N8515 X1.3013 Y-0.2049
N8520 X1.306 Y-0.2086
N8525 X1.3108 Y-0.2123
N8530 X1.3156 Y-0.2159
N8535 X1.3204 Y-0.2195
N8540 X1.3252 Y-0.223
N8545 X1.3301 Y-0.2265
N8550 X1.335 Y-0.2299
N8555 X1.34 Y-0.2333
N8560 X1.3449 Y-0.2367
N8565 X1.3499 Y-0.24
N8570 X1.355 Y-0.2433
N8575 X1.36 Y-0.2465
N8580 X1.3651 Y-0.2497
N8585 X1.3702 Y-0.2529
N8590 X1.3753 Y-0.256
N8595 X1.3805 Y-0.2591
N8600 X1.3857 Y-0.2621
N8605 X1.3911 Y-0.2652
N8610 X1.3963 Y-0.2682
N8615 X1.4015 Y-0.2711
N8620 X1.4068 Y-0.2739
N8625 X1.4122 Y-0.2769
N8630 X1.4178 Y-0.2798
N8635 X1.4236 Y-0.2828
N8640 X1.4297 Y-0.2859
N8645 X1.4359 Y-0.289
N8650 X1.4421 Y-0.292
N8655 X1.448 Y-0.2949
N8660 X1.4541 Y-0.2977
N8665 X1.4604 Y-0.3007
N8670 X1.4669 Y-0.3036
N8675 X1.4737 Y-0.3067
N8680 X1.4807 Y-0.3097
N8685 X1.488 Y-0.3129
N8690 X1.495 Y-0.3158
N8695 X1.5019 Y-0.3186
N8700 X1.5091 Y-0.3215
N8705 X1.5165 Y-0.3245
N8710 X1.5243 Y-0.3274
N8715 X1.5324 Y-0.3305
N8720 X1.5408 Y-0.3336
N8725 X1.5486 Y-0.3364
N8730 X1.5566 Y-0.3392
N8735 X1.565 Y-0.3421
N8740 X1.5736 Y-0.345
N8745 X1.5827 Y-0.348
N8750 X1.5922 Y-0.351
N8755 X1.601 Y-0.3538
N8760 X1.61 Y-0.3565
N8765 X1.6194 Y-0.3593
N8770 X1.6293 Y-0.3621
N8775 X1.6396 Y-0.365
N8780 X1.6499 Y-0.3678
N8785 X1.6596 Y-0.3703
N8790 X1.6698 Y-0.3729
N8795 X1.6804 Y-0.3756
N8800 X1.6916 Y-0.3783
N8805 X1.7031 Y-0.3809
N8810 X1.7135 Y-0.3833
N8815 X1.7244 Y-0.3856
N8820 X1.7359 Y-0.388
N8825 X1.748 Y-0.3905
N8830 X1.76 Y-0.3928
N8835 X1.771 Y-0.3949
N8840 X1.7826 Y-0.3969
N8845 X1.7948 Y-0.399
N8850 X1.8077 Y-0.4011
N8855 X1.8196 Y-0.403
N8860 X1.8311 Y-0.4047
N8865 X1.8431 Y-0.4064
N8870 X1.8559 Y-0.4081
N8875 X1.8692 Y-0.4098
N8880 X1.8807 Y-0.4112
N8885 X1.8924 Y-0.4125
N8890 X1.9047 Y-0.4138
N8895 X1.9178 Y-0.415
N8900 X1.9307 Y-0.4162
N8905 X1.9418 Y-0.4171
N8910 X1.9533 Y-0.4179
N8915 X1.9654 Y-0.4188
N8920 X1.9782 Y-0.4195
N8925 X1.9907 Y-0.4202
N8930 X2.0011 Y-0.4206
N8935 X2.0118 Y-0.4211
N8940 X2.0231 Y-0.4214
N8945 X2.0349 Y-0.4217
N8950 X2.0472 Y-0.4219
N8955 X2.0576
N8960 X2.0672 Y-0.422
N8965 X2.0772 Y-0.4219
N8970 X2.0876 Y-0.4217
N8975 X2.0986 Y-0.4215
N8980 X2.1099 Y-0.4212
N8985 X2.1197 Y-0.4208
N8990 X2.1281 Y-0.4205
N8995 X2.1366 Y-0.4201
N9000 X2.1454 Y-0.4195
N9005 X2.1545 Y-0.419
N9010 X2.164 Y-0.4183
N9015 X2.1734 Y-0.4175
N9020 X2.1815 Y-0.4168
N9025 X2.1887 Y-0.4161
N9030 X2.1961 Y-0.4154
N9035 X2.2036 Y-0.4145
N9040 X2.2115 Y-0.4136
N9045 X2.2196 Y-0.4126
N9050 X2.2276 Y-0.4116
N9055 X2.2347 Y-0.4106
N9060 X2.2412 Y-0.4096
N9065 X2.2477 Y-0.4086
N9070 X2.2543 Y-0.4076
N9075 X2.261 Y-0.4064
N9080 X2.2674 Y-0.4053
N9085 X2.2734 Y-0.4042
N9090 X2.2793 Y-0.403
N9095 X2.2851 Y-0.4019
N9100 X2.291 Y-0.4007
N9105 X2.2969 Y-0.3994
N9110 X2.3027 Y-0.3981
N9115 X2.3086 Y-0.3967
N9120 X2.3144 Y-0.3953
N9125 X2.3202 Y-0.3939
N9130 X2.326 Y-0.3923
N9135 X2.3318 Y-0.3908
N9140 X2.3376 Y-0.3891
N9145 X2.3434 Y-0.3875
N9150 X2.3491 Y-0.3857
N9155 X2.3548 Y-0.3839
N9160 X2.3605 Y-0.3821
N9165 X2.3662 Y-0.3801
N9170 X2.3719 Y-0.3781
N9175 X2.3775 Y-0.3761
N9180 X2.3831 Y-0.374
N9185 X2.3887 Y-0.3718
N9190 X2.3943 Y-0.3695
N9195 X2.3998 Y-0.3672
N9200 X2.4053 Y-0.3648
N9205 X2.4108 Y-0.3623
N9210 X2.427 Y-0.3531
N9215 X2.4415 Y-0.3413
N9220 X2.4539 Y-0.3274
N9225 X2.4639 Y-0.3116
N9230 X2.4713 Y-0.2945
N9235 X2.4758 Y-0.2763
N9240 X2.4773 Y-0.2577
N9245 Y-0.0599
N9250 G3 X2.4322 Y-0.0119 Z-0.2828 I-0.05 J-0.0017
N9255 G1 X2.4256 Y-0.0112 Z-0.2821
N9260 X1.2025 Y0.1079
N9265 X1.1994 Y0.1081
N9270 G3 X1.1477 Y0.0599 Z-0.2901 I-0.0017 J-0.05
N9275 G1 Y-0.1197
N9280 X1.1483 Y-0.1313
N9285 X1.1498 Y-0.1478
N9290 X1.1529 Y-0.1661
N9295 X1.1581 Y-0.1861
N9300 X1.1656 Y-0.2079
N9305 X1.1758 Y-0.2314
N9310 X1.1826 Y-0.244
N9315 X1.2086 Y-0.2882
N9320 X1.2137 Y-0.2957
N9325 X1.2164 Y-0.2996
N9330 X1.2388 Y-0.3305
N9335 X1.2558 Y-0.3496
N9340 X1.2649 Y-0.3587
N9345 X1.2695 Y-0.3631
N9350 G3 X1.3401 Y-0.3586 Z-0.2821 I0.033 J0.0376
N9355 X1.347 Y-0.3027 I-0.0375 J0.033
N9360 G1 X1.2421 Y-0.0986
N9365 G3 X1.1994 Y-0.0715 I-0.0445 J-0.0229
N9370 X1.1477 Y-0.1197 Z-0.2901 I-0.0017 J-0.05
N9375 G1 Y-0.4939
N9380 X1.147 Y-0.5089
N9385 G3 X1.1874 Y-0.5586 Z-0.283 I0.05 J-0.0006
N9390 G1 X1.1962 Y-0.5603 Z-0.2821
N9395 X2.6509 Y-0.8436
N9400 G3 X2.7062 Y-0.8146 I0.0096 J0.0491
N9405 X2.6806 Y-0.7488 Z-0.2901 I-0.0458 J0.0201
N9410 G1 X2.6544 Y-0.7383
N9415 X2.6441 Y-0.7334
N9420 X2.6394 Y-0.7311
N9425 X2.6244 Y-0.7233
N9430 X2.6161 Y-0.7184
N9435 X2.5931 Y-0.7035
N9440 X2.5794 Y-0.6938
N9445 X2.5563 Y-0.6735
N9450 X2.5494 Y-0.6672
N9455 X2.5417 Y-0.6586
N9460 X2.5194 Y-0.6308
N9465 X2.518 Y-0.6286
N9470 X2.5008 Y-0.5987
N9475 X2.4946 Y-0.5837
N9480 X2.4888 Y-0.5688
N9485 X2.4847 Y-0.5538
N9490 X2.4813 Y-0.5388
N9495 X2.4792 Y-0.5239
N9500 X2.478 Y-0.5089
N9505 X2.4773 Y-0.4939
N9510 Y-0.2577
N9515 G3 X2.467 Y-0.2291 I-0.05 J-0.0017
N9520 G1 X2.4636 Y-0.2246 Z-0.2898
N9525 X2.4603 Y-0.2203 Z-0.2888
N9530 X2.457 Y-0.216 Z-0.2873
N9535 X2.4538 Y-0.2119 Z-0.2851
N9540 X2.4509 Y-0.208 Z-0.2824
N9545 X2.4481 Y-0.2043 Z-0.2792
N9550 X2.4455 Y-0.201 Z-0.2754
N9555 X2.4433 Y-0.198 Z-0.2713
N9560 X2.4413 Y-0.1955 Z-0.2667
N9565 X2.4396 Y-0.1933 Z-0.2618
N9570 X2.4383 Y-0.1916 Z-0.2566
N9575 X2.4374 Y-0.1904 Z-0.2512
N9580 X2.4368 Y-0.1896 Z-0.2457
N9585 X2.4366 Y-0.1894 Z-0.2401
N9590 Z0.24
N9595 X-0.6557 Y-0.8967
N9600 Z-0.1901
N9605 Z-0.2401
N9610 X-0.6559 Y-0.8965 Z-0.2457
N9615 X-0.6567 Y-0.896 Z-0.2512
N9620 X-0.658 Y-0.8952 Z-0.2566
N9625 X-0.6599 Y-0.894 Z-0.2618
N9630 X-0.6622 Y-0.8926 Z-0.2667
N9635 X-0.6649 Y-0.8908 Z-0.2713
N9640 X-0.6681 Y-0.8888 Z-0.2754
N9645 X-0.6716 Y-0.8866 Z-0.2792
N9650 X-0.6754 Y-0.8841 Z-0.2824
N9655 X-0.6796 Y-0.8815 Z-0.2851
N9660 X-0.684 Y-0.8788 Z-0.2873
N9665 X-0.6885 Y-0.8759 Z-0.2888
N9670 X-0.6932 Y-0.8729 Z-0.2898
N9675 X-0.6979 Y-0.8699 Z-0.2901
N9680 G3 X-0.9448 Y-0.7487 I-0.6827 J-1.0786
N9685 G1 X-0.9459 Y-0.7484
N9690 X-0.9598 Y-0.7427
N9695 X-0.9806 Y-0.7334
N9700 X-0.9898 Y-0.7291
N9705 X-1.0087 Y-0.7184
N9710 X-1.0198 Y-0.712
N9715 X-1.0348 Y-0.7016
N9720 X-1.0498 Y-0.6906
N9725 X-1.0523 Y-0.6885
N9730 X-1.0797 Y-0.6626
N9735 X-1.0837 Y-0.6586
N9740 X-1.0955 Y-0.6436
N9745 X-1.1071 Y-0.6286
N9750 X-1.1097 Y-0.6244
N9755 X-1.1164 Y-0.6137
N9760 X-1.1247 Y-0.598
N9765 X-1.1304 Y-0.5837
N9770 X-1.1362 Y-0.5688
N9775 X-1.1397 Y-0.5562
N9780 X-1.1437 Y-0.5388
N9785 X-1.1458 Y-0.5239
N9790 X-1.147 Y-0.5089
N9795 X-1.1477 Y-0.4939
N9800 Y-0.2561
N9805 X-1.1484 Y-0.2519 Z-0.2898
N9810 X-1.1491 Y-0.2477 Z-0.2889
N9815 X-1.1497 Y-0.2438 Z-0.2874
N9820 X-1.1511 Y-0.2405 Z-0.2855
N9825 X-1.1525 Y-0.2374 Z-0.2832
N9830 X-1.1536 Y-0.2347 Z-0.2804
N9835 X-1.1547 Y-0.2323 Z-0.2773
N9840 X-1.1558 Y-0.2306 Z-0.274
N9845 X-1.1568 Y-0.2292 Z-0.2705
N9850 X-1.1574 Y-0.2282 Z-0.2668
N9855 X-1.1578 Y-0.2276 Z-0.263
N9860 X-1.158 Y-0.2274 Z-0.2592
N9865 Z0.24
N9870 X-2.8916 Y0.9297
N9875 Z-0.0901
N9880 Z-0.1401
N9885 X-2.8914 Y0.9295 Z-0.1457
N9890 X-2.8908 Y0.9288 Z-0.1512
N9895 X-2.8897 Y0.9276 Z-0.1566
N9900 X-2.8883 Y0.926 Z-0.1618
N9905 X-2.8865 Y0.924 Z-0.1667
N9910 X-2.8844 Y0.9215 Z-0.1713
N9915 X-2.8819 Y0.9187 Z-0.1754
N9920 X-2.8792 Y0.9156 Z-0.1792
N9925 X-2.8762 Y0.9121 Z-0.1824
N9930 X-2.873 Y0.9084 Z-0.1851
N9935 X-2.8695 Y0.9045 Z-0.1873
N9940 X-2.866 Y0.9005 Z-0.1888
N9945 X-2.8624 Y0.8963 Z-0.1898
N9950 X-2.8587 Y0.8921 Z-0.1901
N9955 G3 X-2.6565 Y0.7057 I0.9613 J0.8399
N9960 G1 X-2.6544 Y0.7042
N9965 X-2.6534 Y0.7035
N9970 X-2.6394 Y0.6924
N9975 X-2.635 Y0.6885
N9980 X-2.6244 Y0.6784
N9985 X-2.6094 Y0.6628
N9990 X-2.6059 Y0.6586
N9995 X-2.5944 Y0.6439
N10000 X-2.5843 Y0.6286
N10005 X-2.5682 Y0.5987
N10010 X-2.5644 Y0.5903
N10015 X-2.562 Y0.5837
N10020 X-2.5569 Y0.5688
N10025 X-2.5533 Y0.5538
N10030 X-2.5494 Y0.5355
N10035 X-2.5483 Y0.5239
N10040 X-2.5471 Y0.5089
N10045 X-2.5465 Y0.4939
N10050 Y-0.464
N10055 G3 X-2.5058 Y-0.5114 Z-0.1832 I0.05 J0.0017
N10060 G1 X-2.4949 Y-0.5134 Z-0.1821
N10065 X-1.0077 Y-0.7946
N10070 G3 X-0.9581 Y-0.7751 I0.0093 J0.0491
N10075 X-0.9688 Y-0.7052 Z-0.1901 I-0.0403 J0.0296
N10080 G1 X-0.9748 Y-0.7012
N10085 X-0.9898 Y-0.6882
N10090 X-1.0053 Y-0.6735
N10095 X-1.0128 Y-0.6661
N10100 X-1.0187 Y-0.6586
N10105 X-1.041 Y-0.6286
N10110 X-1.0568 Y-0.5987
N10115 X-1.0625 Y-0.5837
N10120 X-1.068 Y-0.5688
N10125 X-1.0721 Y-0.5538
N10130 X-1.0752 Y-0.5388
N10135 X-1.0767 Y-0.5239
N10140 X-1.0779 Y-0.5089
N10145 X-1.0785 Y-0.4939
N10150 Y0.464
N10155 G3 X-1.0888 Y0.4926 I-0.05 J-0.0017
N10160 G1 X-1.0922 Y0.4971 Z-0.1898
N10165 X-1.0956 Y0.5015 Z-0.1888
N10170 X-1.0988 Y0.5058 Z-0.1873
N10175 X-1.102 Y0.5099 Z-0.1851
N10180 X-1.105 Y0.5138 Z-0.1824
N10185 X-1.1078 Y0.5174 Z-0.1792
N10190 X-1.1103 Y0.5207 Z-0.1754
N10195 X-1.1126 Y0.5237 Z-0.1713
N10200 X-1.1145 Y0.5263 Z-0.1667
N10205 X-1.1162 Y0.5284 Z-0.1618
N10210 X-1.1175 Y0.5301 Z-0.1566
N10215 X-1.1184 Y0.5313 Z-0.1512
N10220 X-1.119 Y0.5321 Z-0.1457
N10225 X-1.1192 Y0.5323 Z-0.1401
N10230 Z0.24
N10235 X0.733 Y0.9285
N10240 Z-0.0901
N10245 Z-0.1401
N10250 X0.7332 Y0.9282 Z-0.1457
N10255 X0.7338 Y0.9275 Z-0.1512
N10260 X0.7349 Y0.9264 Z-0.1566
N10265 X0.7363 Y0.9248 Z-0.1618
N10270 X0.7381 Y0.9227 Z-0.1667
N10275 X0.7402 Y0.9203 Z-0.1713
N10280 X0.7427 Y0.9175 Z-0.1754
N10285 X0.7454 Y0.9143 Z-0.1792
N10290 X0.7485 Y0.9109 Z-0.1824
N10295 X0.7517 Y0.9072 Z-0.1851
N10300 X0.7551 Y0.9033 Z-0.1873
N10305 X0.7587 Y0.8993 Z-0.1888
N10310 X0.7623 Y0.8951 Z-0.1898
N10315 X0.766 Y0.8909 Z-0.1901
N10320 G3 X0.9688 Y0.7052 I0.9585 J0.843
N10325 G1 X0.9748 Y0.7012
N10330 X0.9898 Y0.6882
N10335 X1.0053 Y0.6735
N10340 X1.0128 Y0.6661
N10345 X1.0187 Y0.6586
N10350 X1.041 Y0.6286
N10355 X1.0568 Y0.5987
N10360 X1.0625 Y0.5837
N10365 X1.068 Y0.5688
N10370 X1.0721 Y0.5538
N10375 X1.0752 Y0.5388
N10380 X1.0767 Y0.5239
N10385 X1.0779 Y0.5089
N10390 X1.0785 Y0.4939
N10395 Y-0.464
N10400 G3 X1.1192 Y-0.5114 Z-0.1832 I0.05 J0.0017
N10405 G1 X1.1301 Y-0.5134 Z-0.1821
N10410 X2.6175 Y-0.795
N10415 G3 X2.667 Y-0.7756 I0.0093 J0.0491
N10420 X2.6565 Y-0.7057 Z-0.1901 I-0.0402 J0.0297
N10425 G1 X2.6544 Y-0.7042
N10430 X2.6534 Y-0.7035
N10435 X2.6394 Y-0.6924
N10440 X2.635 Y-0.6885
N10445 X2.6244 Y-0.6784
N10450 X2.6094 Y-0.6628
N10455 X2.6059 Y-0.6586
N10460 X2.5944 Y-0.6439
N10465 X2.5843 Y-0.6286
N10470 X2.5682 Y-0.5987
N10475 X2.5644 Y-0.5903
N10480 X2.562 Y-0.5837
N10485 X2.5569 Y-0.5688
N10490 X2.5533 Y-0.5538
N10495 X2.5494 Y-0.5355
N10500 X2.5483 Y-0.5239
N10505 X2.5471 Y-0.5089
N10510 X2.5465 Y-0.4939
N10515 Y0.464
N10520 X2.5458 Y0.4682 Z-0.1898
N10525 X2.5451 Y0.4723 Z-0.1889
N10530 X2.5445 Y0.4763 Z-0.1874
N10535 X2.543 Y0.4796 Z-0.1855
N10540 X2.5417 Y0.4827 Z-0.1832
N10545 X2.5405 Y0.4854 Z-0.1804
N10550 X2.5395 Y0.4878 Z-0.1773
N10555 X2.5383 Y0.4895 Z-0.174
N10560 X2.5374 Y0.4908 Z-0.1705
N10565 X2.5367 Y0.4918 Z-0.1668
N10570 X2.5363 Y0.4924 Z-0.163
N10575 X2.5362 Y0.4926 Z-0.1592
N10580 Z0.24
N10585 X-2.8159 Y0.8852
N10590 Z-0.3901
N10595 Z-0.4401
N10600 X-2.8156 Y0.885 Z-0.4457
N10605 X-2.8148 Y0.8846 Z-0.4512
N10610 X-2.8134 Y0.8838 Z-0.4566
N10615 X-2.8116 Y0.8827 Z-0.4618
N10620 X-2.8092 Y0.8814 Z-0.4667
N10625 X-2.8064 Y0.8798 Z-0.4713
N10630 X-2.8032 Y0.8779 Z-0.4754
N10635 X-2.7995 Y0.8758 Z-0.4792
N10640 X-2.7956 Y0.8735 Z-0.4824
N10645 X-2.7913 Y0.8711 Z-0.4851
N10650 X-2.7868 Y0.8685 Z-0.4873
N10655 X-2.7822 Y0.8658 Z-0.4888
N10660 X-2.7774 Y0.863 Z-0.4898
N10665 X-2.7725 Y0.8603 Z-0.4901
N10670 G3 X-2.5208 Y0.7496 I0.6367 J1.1064
N10675 G1 X-2.5167 Y0.7484
N10680 X-2.5044 Y0.7447
N10685 X-2.4894 Y0.74
N10690 X-2.4594 Y0.7291
N10695 X-2.4444 Y0.7226
N10700 X-2.4294 Y0.7157
N10705 X-2.4144 Y0.7078
N10710 X-2.3994 Y0.6994
N10715 X-2.3844 Y0.6906
N10720 X-2.3589 Y0.6735
N10725 X-2.3369 Y0.6603
N10730 X-2.3078 Y0.6445
N10735 X-2.27 Y0.6277
N10740 X-2.2216 Y0.6107
N10745 X-2.172 Y0.5975
N10750 X-2.1218 Y0.5872
N10755 X-2.0712 Y0.5791
N10760 X-2.0203 Y0.5728
N10765 X-1.9693 Y0.5679
N10770 X-1.9181 Y0.564
N10775 X-1.867 Y0.5609
N10780 X-1.8157 Y0.5585
N10785 X-1.7645 Y0.5565
N10790 X-1.7133 Y0.555
N10795 X-1.662 Y0.5538
N10800 X-1.6107 Y0.5529
N10805 X-1.5595 Y0.5521
N10810 X-1.5082 Y0.5516
N10815 X-1.4447 Y0.551
N10820 X-1.4258 Y0.5523
N10825 X-1.4072 Y0.5565
N10830 X-1.3895 Y0.5634
N10835 X-1.373 Y0.573
N10840 X-1.3582 Y0.5849
N10845 X-1.3454 Y0.599
N10850 X-1.3339 Y0.6137
N10855 X-1.3214 Y0.6286
N10860 X-1.3197 Y0.6302
N10865 X-1.2897 Y0.6567
N10870 X-1.2873 Y0.6586
N10875 X-1.2597 Y0.6777
N10880 X-1.2438 Y0.6885
N10885 X-1.2297 Y0.6972
N10890 X-1.2191 Y0.7035
N10895 X-1.2147 Y0.706
N10900 X-1.1847 Y0.7208
N10905 X-1.1697 Y0.7274
N10910 G3 X-1.1466 Y0.7942 Z-0.4821 I-0.0219 J0.045
N10915 X-1.1941 Y0.8223 I-0.045 J-0.0218
N10920 G1 X-2.3322 Y0.764
N10925 G3 X-2.3702 Y0.7433 I0.0026 J-0.0499
N10930 X-2.3589 Y0.6735 Z-0.4901 I0.0406 J-0.0292
N10935 G1 X-2.3544 Y0.6705
N10940 X-2.3379 Y0.6586
N10945 X-2.3245 Y0.6477
N10950 X-2.3195 Y0.6436
N10955 X-2.3095 Y0.6339
N10960 X-2.304 Y0.6286
N10965 X-2.2945 Y0.6186
N10970 X-2.2902 Y0.6137
N10975 X-2.2795 Y0.5998
N10980 X-2.2787 Y0.5987
N10985 X-2.2695 Y0.5837
N10990 X-2.2667 Y0.5785
N10995 X-2.262 Y0.5706
N11000 X-2.253 Y0.5576
N11005 X-2.241 Y0.5429
N11010 X-2.2262 Y0.5275
N11015 X-2.2071 Y0.5107
N11020 X-2.1837 Y0.4931
N11025 X-2.1543 Y0.4745
N11030 X-2.1173 Y0.4551
N11035 X-2.0701 Y0.435
N11040 X-2.0215 Y0.4188
N11045 X-1.9719 Y0.4056
N11050 X-1.9218 Y0.395
N11055 X-1.8712 Y0.3863
N11060 X-1.8204 Y0.3793
N11065 X-1.7695 Y0.3736
N11070 X-1.7184 Y0.369
N11075 X-1.6673 Y0.3653
N11080 X-1.6161 Y0.3624
N11085 X-1.5648 Y0.3615
N11090 X-1.5168 Y0.3638
N11095 X-1.4765 Y0.3689
N11100 X-1.4684 Y0.3706
N11105 X-1.4523 Y0.3753
N11110 X-1.4371 Y0.3824
N11115 X-1.4232 Y0.3916
N11120 X-1.4108 Y0.4029
N11125 X-1.4002 Y0.4159
N11130 X-1.3917 Y0.4304
N11135 X-1.3855 Y0.4459
N11140 X-1.3818 Y0.4622
N11145 X-1.3805 Y0.479
N11150 G3 X-1.4228 Y0.5266 Z-0.483 I-0.05 J-0.0017
N11155 G1 X-1.4321 Y0.5281 Z-0.4821
N11160 X-2.2141 Y0.6497
N11165 G3 X-2.2436 Y0.6453 I-0.0077 J-0.0494
N11170 X-2.2667 Y0.5785 Z-0.4901 I0.0219 J-0.045
N11175 G1 X-2.2576 Y0.5613
N11180 X-2.2558 Y0.5575
N11185 X-2.2544 Y0.5538
N11190 X-2.2495 Y0.5365
N11195 X-2.2472 Y0.5239
N11200 X-2.2455 Y0.5089
N11205 X-2.245 Y0.5007
N11210 X-2.244 Y0.4923
N11215 X-2.2419 Y0.4805
N11220 X-2.2386 Y0.4682
N11225 X-2.2337 Y0.4542
N11230 X-2.2266 Y0.4383
N11235 X-2.218 Y0.4224
N11240 X-2.2061 Y0.4042
N11245 X-2.1919 Y0.386
N11250 X-2.1735 Y0.3657
N11255 X-2.1517 Y0.3454
N11260 X-2.1244 Y0.3238
N11265 X-2.0908 Y0.3013
N11270 X-2.0495 Y0.2782
N11275 X-2.0029 Y0.2569
N11280 X-1.9549 Y0.239
N11285 X-1.9058 Y0.224
N11290 X-1.8561 Y0.2115
N11295 X-1.8059 Y0.201
N11300 X-1.7553 Y0.1926
N11305 X-1.7045 Y0.1864
N11310 X-1.6533 Y0.1827
N11315 X-1.6021 Y0.1816
N11320 X-1.5588 Y0.184
N11325 X-1.5219 Y0.189
N11330 X-1.4895 Y0.1961
N11335 X-1.4603 Y0.205
N11340 X-1.4528 Y0.208
N11345 X-1.4375 Y0.2154
N11350 X-1.4234 Y0.225
N11355 X-1.4109 Y0.2367
N11360 X-1.4003 Y0.25
N11365 X-1.3918 Y0.2648
N11370 X-1.3856 Y0.2807
N11375 X-1.3818 Y0.2973
N11380 X-1.3805 Y0.3143
N11385 Y0.479
N11390 G3 X-1.4288 Y0.5272 Z-0.4824 I-0.05 J-0.0017
N11395 G1 X-1.4322 Y0.5273 Z-0.4821
N11400 X-2.1934 Y0.5523
N11405 X-2.1967
N11410 G3 X-2.245 Y0.5007 Z-0.4901 I0.0017 J-0.05
N11415 G1 X-2.2445 Y0.4939
N11420 Y0.3742
N11425 X-2.2441 Y0.3657
N11430 X-2.2424 Y0.3519
N11435 X-2.2391 Y0.3359
N11440 X-2.2344 Y0.3196
N11445 X-2.2272 Y0.3006
N11450 X-2.2182 Y0.2816
N11455 X-2.2059 Y0.2602
N11460 X-2.191 Y0.2385
N11465 X-2.1717 Y0.2149
N11470 X-2.1492 Y0.1913
N11475 X-2.1209 Y0.1662
N11480 X-2.0865 Y0.1402
N11485 X-2.0451 Y0.1139
N11490 X-1.9997 Y0.0899
N11495 X-1.9528 Y0.0693
N11500 X-1.9045 Y0.0519
N11505 X-1.8554 Y0.0373
N11510 X-1.8055 Y0.0255
N11515 X-1.755 Y0.0164
N11520 X-1.7041 Y0.0102
N11525 X-1.653 Y0.0072
N11530 X-1.6017 Y0.0078
N11535 X-1.5563 Y0.0116
N11540 X-1.5182 Y0.0179
N11545 X-1.4849 Y0.0263
N11550 X-1.4552 Y0.0363
N11555 X-1.4392 Y0.0446
N11560 X-1.4247 Y0.0551
N11565 X-1.4118 Y0.0676
N11570 X-1.4008 Y0.0818
N11575 X-1.3921 Y0.0975
N11580 X-1.3857 Y0.1142
N11585 X-1.3818 Y0.1318
N11590 X-1.3805 Y0.1497
N11595 Y0.3143
N11600 G3 X-1.4266 Y0.3624 Z-0.4827 I-0.05 J-0.0017
N11605 G1 X-1.4322 Y0.3629 Z-0.4821
N11610 X-2.1906 Y0.4223
N11615 X-2.1928 Y0.4224
N11620 G3 X-2.2445 Y0.3742 Z-0.4901 I-0.0017 J-0.05
N11625 G1 Y0.2245
N11630 X-2.244 Y0.214
N11635 X-2.2425 Y0.1991
N11640 X-2.2394 Y0.1818
N11645 X-2.2347 Y0.1641
N11650 X-2.2275 Y0.1435
N11655 X-2.2183 Y0.1228
N11660 X-2.2055 Y0.0995
N11665 X-2.1902 Y0.0761
N11670 X-2.1702 Y0.0504
N11675 X-2.1468 Y0.0248
N11680 X-2.1181 Y-0.002
N11685 X-2.0833 Y-0.0296
N11690 X-2.0423 Y-0.057
N11695 X-1.9976 Y-0.082
N11700 X-1.951 Y-0.1035
N11705 X-1.9031 Y-0.1217
N11710 X-1.8541 Y-0.1368
N11715 X-1.8042 Y-0.1487
N11720 X-1.7537 Y-0.1577
N11725 X-1.7028 Y-0.1635
N11730 X-1.6516 Y-0.166
N11735 X-1.6003 Y-0.1649
N11740 X-1.556 Y-0.1606
N11745 X-1.5182 Y-0.1539
N11750 X-1.4851 Y-0.1452
N11755 X-1.4549 Y-0.1347
N11760 X-1.439 Y-0.1262
N11765 X-1.4245 Y-0.1155
N11770 X-1.4116 Y-0.1029
N11775 X-1.4007 Y-0.0885
N11780 X-1.392 Y-0.0728
N11785 X-1.3857 Y-0.0559
N11790 X-1.3818 Y-0.0383
N11795 X-1.3805 Y-0.0204
N11800 Y0.1497
N11805 G3 X-1.4256 Y0.1977 Z-0.4828 I-0.05 J-0.0017
N11810 G1 X-1.4322 Y0.1983 Z-0.4821
N11815 X-2.1897 Y0.2725
N11820 X-2.1928 Y0.2727
N11825 G3 X-2.2445 Y0.2245 Z-0.4901 I-0.0017 J-0.05
N11830 G1 Y0.0599
N11835 X-2.2439 Y0.0488
N11840 X-2.2438 Y0.0428
N11845 X-2.2435 Y0.0368
N11850 X-2.243 Y0.0308
N11855 X-2.2423 Y0.0248
N11860 X-2.2415 Y0.0189
N11865 X-2.2405 Y0.013
N11870 X-2.2393 Y0.0071
N11875 X-2.238 Y0.0012
N11880 X-2.2365 Y-0.0046
N11885 X-2.2349 Y-0.0104
N11890 X-2.2331 Y-0.0161
N11895 X-2.2313 Y-0.0218
N11900 X-2.2293 Y-0.0275
N11905 X-2.2271 Y-0.0331
N11910 X-2.2249 Y-0.0386
N11915 X-2.2226 Y-0.0442
N11920 X-2.2201 Y-0.0496
N11925 X-2.2175 Y-0.0551
N11930 X-2.2148 Y-0.0604
N11935 X-2.2121 Y-0.0657
N11940 X-2.2092 Y-0.071
N11945 X-2.2063 Y-0.0762
N11950 X-2.2032 Y-0.0814
N11955 X-2.2001 Y-0.0865
N11960 X-2.1969 Y-0.0916
N11965 X-2.1935 Y-0.0966
N11970 X-2.1902 Y-0.1015
N11975 X-2.1867 Y-0.1064
N11980 X-2.1832 Y-0.1113
N11985 X-2.1796 Y-0.1161
N11990 X-2.1759 Y-0.1208
N11995 X-2.1721 Y-0.1255
N12000 X-2.1683 Y-0.1302
N12005 X-2.1645 Y-0.1347
N12010 X-2.1605 Y-0.1393
N12015 X-2.1565 Y-0.1437
N12020 X-2.1524 Y-0.1481
N12025 X-2.1483 Y-0.1525
N12030 X-2.1441 Y-0.1568
N12035 X-2.1399 Y-0.1611
N12040 X-2.1356 Y-0.1653
N12045 X-2.1313 Y-0.1694
N12050 X-2.1269 Y-0.1735
N12055 X-2.1225 Y-0.1776
N12060 X-2.118 Y-0.1816
N12065 X-2.1135 Y-0.1855
N12070 X-2.1089 Y-0.1894
N12075 X-2.1043 Y-0.1932
N12080 X-2.0996 Y-0.197
N12085 X-2.0949 Y-0.2007
N12090 X-2.0902 Y-0.2044
N12095 X-2.0854 Y-0.208
N12100 X-2.0806 Y-0.2116
N12105 X-2.0757 Y-0.2151
N12110 X-2.0709 Y-0.2186
N12115 X-2.0659 Y-0.222
N12120 X-2.061 Y-0.2254
N12125 X-2.056 Y-0.2287
N12130 X-2.0509 Y-0.232
N12135 X-2.0459 Y-0.2352
N12140 X-2.0408 Y-0.2384
N12145 X-2.0357 Y-0.2416
N12150 X-2.0305 Y-0.2446
N12155 X-2.0254 Y-0.2477
N12160 X-2.0202 Y-0.2507
N12165 X-2.0149 Y-0.2536
N12170 X-2.0097 Y-0.2565
N12175 X-2.0044 Y-0.2593
N12180 X-1.9991 Y-0.2621
N12185 X-1.9937 Y-0.2649
N12190 X-1.9884 Y-0.2676
N12195 X-1.983 Y-0.2703
N12200 X-1.9776 Y-0.2729
N12205 X-1.9722 Y-0.2754
N12210 X-1.9667 Y-0.278
N12215 X-1.9613 Y-0.2804
N12220 X-1.9558 Y-0.2829
N12225 X-1.9503 Y-0.2852
N12230 X-1.9448 Y-0.2876
N12235 X-1.9392 Y-0.2899
N12240 X-1.9337 Y-0.2921
N12245 X-1.9281 Y-0.2943
N12250 X-1.9225 Y-0.2965
N12255 X-1.9169 Y-0.2986
N12260 X-1.9112 Y-0.3007
N12265 X-1.9056 Y-0.3027
N12270 X-1.8999 Y-0.3047
N12275 X-1.8942 Y-0.3067
N12280 X-1.8882 Y-0.3086
N12285 X-1.8825 Y-0.3105
N12290 X-1.8768 Y-0.3123
N12295 X-1.8711 Y-0.3141
N12300 X-1.8653 Y-0.3158
N12305 X-1.8596 Y-0.3175
N12310 X-1.8538 Y-0.3191
N12315 X-1.848 Y-0.3207
N12320 X-1.8421 Y-0.3222
N12325 X-1.836 Y-0.3238
N12330 X-1.8298 Y-0.3254
N12335 X-1.8236 Y-0.3269
N12340 X-1.8177 Y-0.3283
N12345 X-1.8119 Y-0.3296
N12350 X-1.806 Y-0.3309
N12355 X-1.8001 Y-0.3321
N12360 X-1.7943 Y-0.3333
N12365 X-1.7884 Y-0.3344
N12370 X-1.7824 Y-0.3355
N12375 X-1.7762 Y-0.3366
N12380 X-1.7698 Y-0.3377
N12385 X-1.7637 Y-0.3387
N12390 X-1.7578 Y-0.3397
N12395 X-1.7519 Y-0.3405
N12400 X-1.7459 Y-0.3414
N12405 X-1.74 Y-0.3421
N12410 X-1.734 Y-0.3429
N12415 X-1.7281 Y-0.3436
N12420 X-1.7221 Y-0.3442
N12425 X-1.716 Y-0.3448
N12430 X-1.71 Y-0.3454
N12435 X-1.704 Y-0.3459
N12440 X-1.698 Y-0.3464
N12445 X-1.692 Y-0.3468
N12450 X-1.6861 Y-0.3471
N12455 X-1.6801 Y-0.3474
N12460 X-1.6741 Y-0.3477
N12465 X-1.6681 Y-0.3479
N12470 X-1.6621 Y-0.3481
N12475 X-1.6561 Y-0.3482
N12480 X-1.6501 Y-0.3483
N12485 X-1.6441
N12490 X-1.6381
N12495 X-1.6321 Y-0.3482
N12500 X-1.6261 Y-0.348
N12505 X-1.6201 Y-0.3479
N12510 X-1.6141 Y-0.3476
N12515 X-1.6081 Y-0.3473
N12520 X-1.6021 Y-0.347
N12525 X-1.5961 Y-0.3466
N12530 X-1.5901 Y-0.3462
N12535 X-1.5842 Y-0.3457
N12540 X-1.5782 Y-0.3451
N12545 X-1.5722 Y-0.3444
N12550 X-1.5663 Y-0.3437
N12555 X-1.5603 Y-0.343
N12560 X-1.5544 Y-0.3422
N12565 X-1.5484 Y-0.3413
N12570 X-1.5425 Y-0.3403
N12575 X-1.5366 Y-0.3393
N12580 X-1.5307 Y-0.3381
N12585 X-1.5248 Y-0.337
N12590 X-1.519 Y-0.3357
N12595 X-1.5131 Y-0.3344
N12600 X-1.5073 Y-0.333
N12605 X-1.5014 Y-0.3315
N12610 X-1.4957 Y-0.33
N12615 X-1.4899 Y-0.3283
N12620 X-1.4841 Y-0.3266
N12625 X-1.4784 Y-0.3248
N12630 X-1.4727 Y-0.3229
N12635 X-1.467 Y-0.321
N12640 X-1.4614 Y-0.3189
N12645 X-1.4558 Y-0.3168
N12650 X-1.4502 Y-0.3146
N12655 X-1.4354 Y-0.3071
N12660 X-1.4218 Y-0.2976
N12665 X-1.4097 Y-0.2861
N12670 X-1.3995 Y-0.273
N12675 X-1.3913 Y-0.2586
N12680 X-1.3854 Y-0.2431
N12685 X-1.3817 Y-0.2269
N12690 X-1.3805 Y-0.2103
N12695 Y-0.0204
N12700 G3 X-1.4252 Y0.0276 Z-0.4828 I-0.05 J-0.0017
N12705 G1 X-1.4321 Y0.0283 Z-0.4821
N12710 X-2.1893 Y0.1079
N12715 X-2.1928 Y0.1081
N12720 G3 X-2.2445 Y0.0599 Z-0.4901 I-0.0017 J-0.05
N12725 G1 Y-0.1197
N12730 X-2.2439 Y-0.131
N12735 X-2.2424 Y-0.1472
N12740 X-2.2393 Y-0.165
N12745 X-2.2343 Y-0.1843
N12750 X-2.2271 Y-0.2053
N12755 X-2.2172 Y-0.2278
N12760 X-2.2108 Y-0.2398
N12765 X-2.2072 Y-0.2459
N12770 X-2.2052 Y-0.249
N12775 X-2.1778 Y-0.2923
N12780 X-2.1753 Y-0.2959
N12785 X-2.1726 Y-0.2995
N12790 X-2.1508 Y-0.3283
N12795 X-2.1228 Y-0.3585
N12800 X-2.1132 Y-0.367
N12805 X-2.1083 Y-0.3711
N12810 X-2.1033 Y-0.3752
N12815 G3 X-2.0334 Y-0.3652 Z-0.4821 I0.03 J0.04
N12820 X-2.0298 Y-0.3105 I-0.04 J0.0301
N12825 G1 X-2.151 Y-0.0968
N12830 G3 X-2.1928 Y-0.0715 I-0.0435 J-0.0247
N12835 X-2.2445 Y-0.1197 Z-0.4901 I-0.0017 J-0.05
N12840 G1 Y-0.4939
N12845 X-2.2455 Y-0.5089
N12850 X-2.2472 Y-0.5239
N12855 X-2.2495 Y-0.5365
N12860 X-2.2544 Y-0.5538
N12865 X-2.2558 Y-0.5575
N12870 X-2.2576 Y-0.5613
N12875 X-2.2695 Y-0.5837
N12880 X-2.2787 Y-0.5987
N12885 X-2.2795 Y-0.5998
N12890 X-2.2902 Y-0.6137
N12895 X-2.2945 Y-0.6186
N12900 X-2.304 Y-0.6286
N12905 X-2.3095 Y-0.6339
N12910 X-2.3195 Y-0.6436
N12915 X-2.3245 Y-0.6477
N12920 X-2.3379 Y-0.6586
N12925 X-2.3544 Y-0.6705
N12930 X-2.3844 Y-0.6906
N12935 X-2.3994 Y-0.6994
N12940 X-2.4144 Y-0.7078
N12945 X-2.4294 Y-0.7157
N12950 X-2.4444 Y-0.7226
N12955 X-2.4527 Y-0.7262
N12960 G3 X-2.4748 Y-0.747 I0.0215 J-0.0451
N12965 G1 X-2.4776 Y-0.7519 Z-0.4898
N12970 X-2.4802 Y-0.7567 Z-0.4888
N12975 X-2.4829 Y-0.7614 Z-0.4873
N12980 X-2.4854 Y-0.766 Z-0.4851
N12985 X-2.4877 Y-0.7703 Z-0.4824
N12990 X-2.49 Y-0.7743 Z-0.4792
N12995 X-2.492 Y-0.7779 Z-0.4754
N13000 X-2.4938 Y-0.7812 Z-0.4713
N13005 X-2.4954 Y-0.784 Z-0.4667
N13010 X-2.4967 Y-0.7864 Z-0.4618
N13015 X-2.4977 Y-0.7883 Z-0.4566
N13020 X-2.4985 Y-0.7896 Z-0.4512
N13025 X-2.499 Y-0.7905 Z-0.4457
N13030 X-2.4991 Y-0.7907 Z-0.4401
N13035 Z0.24
N13040 X0.8077 Y0.8822
N13045 Z-0.3901
N13050 Z-0.4401
N13055 X0.808 Y0.882 Z-0.4457
N13060 X0.8088 Y0.8816 Z-0.4512
N13065 X0.8102 Y0.8808 Z-0.4566
N13070 X0.812 Y0.8798 Z-0.4618
N13075 X0.8144 Y0.8784 Z-0.4667
N13080 X0.8172 Y0.8768 Z-0.4713
N13085 X0.8205 Y0.875 Z-0.4754
N13090 X0.8241 Y0.873 Z-0.4792
N13095 X0.8281 Y0.8707 Z-0.4824
N13100 X0.8324 Y0.8683 Z-0.4851
N13105 X0.8369 Y0.8658 Z-0.4873
N13110 X0.8416 Y0.8631 Z-0.4888
N13115 X0.8464 Y0.8604 Z-0.4898
N13120 X0.8513 Y0.8577 Z-0.4901
N13125 G3 X1.1042 Y0.7495 I0.6255 J1.1127
N13130 G1 X1.1085 Y0.7484
N13135 X1.1397 Y0.7386
N13140 X1.1547 Y0.7332
N13145 X1.1697 Y0.7274
N13150 X1.1847 Y0.7208
N13155 X1.2147 Y0.706
N13160 X1.2191 Y0.7035
N13165 X1.2297 Y0.6972
N13170 X1.2438 Y0.6885
N13175 X1.2597 Y0.6777
N13180 X1.2815 Y0.6641
N13185 X1.3089 Y0.6485
N13190 X1.3443 Y0.6319
N13195 X1.3909 Y0.6145
N13200 X1.4402 Y0.6005
N13205 X1.4903 Y0.5895
N13210 X1.5409 Y0.581
N13215 X1.5917 Y0.5743
N13220 X1.6427 Y0.569
N13225 X1.6938 Y0.5648
N13230 X1.745 Y0.5616
N13235 X1.7962 Y0.559
N13240 X1.8474 Y0.557
N13245 X1.8987 Y0.5554
N13250 X1.9499 Y0.5541
N13255 X2.0012 Y0.5531
N13260 X2.0524 Y0.5523
N13265 X2.1037 Y0.5517
N13270 X2.155 Y0.5512
N13275 X2.179 Y0.551
N13280 X2.1982 Y0.5523
N13285 X2.217 Y0.5566
N13290 X2.2349 Y0.5636
N13295 X2.2516 Y0.5734
N13300 X2.2665 Y0.5855
N13305 X2.2795 Y0.5998
N13310 X2.2902 Y0.6137
N13315 X2.2945 Y0.6186
N13320 X2.304 Y0.6286
N13325 X2.3095 Y0.6339
N13330 X2.3195 Y0.6436
N13335 X2.3245 Y0.6477
N13340 X2.3379 Y0.6586
N13345 X2.3544 Y0.6705
N13350 X2.3844 Y0.6906
N13355 X2.3994 Y0.6994
N13360 X2.4144 Y0.7078
N13365 X2.4294 Y0.7157
N13370 X2.4444 Y0.7226
N13375 X2.4527 Y0.7262
N13380 G3 X2.4763 Y0.7928 Z-0.4821 I-0.0215 J0.0451
N13385 X2.4288 Y0.8212 I-0.0451 J-0.0215
N13390 G1 X1.2872 Y0.7677
N13395 G3 X1.2495 Y0.7476 I0.0023 J-0.0499
N13400 X1.2597 Y0.6777 Z-0.4901 I0.0401 J-0.0298
N13405 G1 X1.2873 Y0.6586
N13410 X1.2897 Y0.6567
N13415 X1.3197 Y0.6302
N13420 X1.3214 Y0.6286
N13425 X1.3339 Y0.6137
N13430 X1.3516 Y0.5911
N13435 X1.352 Y0.5904
N13440 X1.3555 Y0.5837
N13445 X1.361 Y0.5744
N13450 X1.3694 Y0.5618
N13455 X1.3805 Y0.5475
N13460 X1.3942 Y0.5324
N13465 X1.4119 Y0.516
N13470 X1.4338 Y0.4987
N13475 X1.4612 Y0.4804
N13480 X1.4956 Y0.4612
N13485 X1.5392 Y0.4413
N13490 X1.5874 Y0.4239
N13495 X1.6367 Y0.4097
N13500 X1.6866 Y0.3983
N13505 X1.7371 Y0.389
N13510 X1.7878 Y0.3815
N13515 X1.8387 Y0.3754
N13520 X1.8897 Y0.3705
N13525 X1.9408 Y0.3664
N13530 X1.992 Y0.3632
N13535 X2.0433 Y0.3615
N13540 X2.0945 Y0.3627
N13545 X2.1363 Y0.3671
N13550 X2.1723 Y0.3738
N13555 X2.1873 Y0.3792
N13560 X2.2012 Y0.3869
N13565 X2.2137 Y0.3969
N13570 X2.2244 Y0.4087
N13575 X2.233 Y0.4221
N13580 X2.2393 Y0.4367
N13585 X2.2432 Y0.4522
N13590 X2.2445 Y0.4681
N13595 Y0.479
N13600 G3 X2.2025 Y0.5266 Z-0.4831 I-0.05 J-0.0017
N13605 G1 X2.1929 Y0.5281 Z-0.4821
N13610 X1.4085 Y0.6549
N13615 G3 X1.3787 Y0.6505 I-0.008 J-0.0494
N13620 X1.3555 Y0.5837 Z-0.4901 I0.0218 J-0.045
N13625 G1 X1.3678 Y0.5605
N13630 X1.368 Y0.5601
N13635 X1.377 Y0.5309
N13640 X1.3771 Y0.5304
N13645 X1.3797 Y0.507
N13650 X1.3801 Y0.4998
N13655 X1.381 Y0.4921
N13660 X1.383 Y0.4809
N13665 X1.3863 Y0.4683
N13670 X1.3915 Y0.4537
N13675 X1.398 Y0.439
N13680 X1.4072 Y0.4221
N13685 X1.4187 Y0.4046
N13690 X1.4333 Y0.3857
N13695 X1.4513 Y0.366
N13700 X1.474 Y0.3449
N13705 X1.5009 Y0.3236
N13710 X1.5343 Y0.3013
N13715 X1.5757 Y0.2782
N13720 X1.6223 Y0.2569
N13725 X1.6703 Y0.239
N13730 X1.7194 Y0.2241
N13735 X1.7691 Y0.2115
N13740 X1.8193 Y0.2011
N13745 X1.8699 Y0.1927
N13750 X1.9208 Y0.1864
N13755 X1.9719 Y0.1826
N13760 X2.0231 Y0.1815
N13765 X2.0679 Y0.1837
N13770 X2.1057 Y0.1885
N13775 X2.1387 Y0.1955
N13780 X2.1676 Y0.2041
N13785 X2.1695 Y0.2049
N13790 X2.1854 Y0.2124
N13795 X2.2 Y0.2223
N13800 X2.2129 Y0.2342
N13805 X2.2239 Y0.248
N13810 X2.2328 Y0.2632
N13815 X2.2392 Y0.2796
N13820 X2.2432 Y0.2968
N13825 X2.2445 Y0.3143
N13830 Y0.4681
N13835 G3 X2.1968 Y0.5163 Z-0.4825 I-0.05 J-0.0017
N13840 G1 X2.1928 Y0.5165 Z-0.4821
N13845 X1.4324 Y0.5511
N13850 X1.4287 Y0.5512
N13855 G3 X1.3801 Y0.4998 Z-0.4901 I0.0014 J-0.05
N13860 G1 X1.3805 Y0.4939
N13865 Y0.3742
N13870 X1.3809 Y0.3657
N13875 X1.3826 Y0.352
N13880 X1.3859 Y0.3359
N13885 X1.3906 Y0.3196
N13890 X1.3978 Y0.3007
N13895 X1.4068 Y0.2816
N13900 X1.4191 Y0.2603
N13905 X1.4341 Y0.2386
N13910 X1.4533 Y0.2149
N13915 X1.4759 Y0.1913
N13920 X1.5042 Y0.1662
N13925 X1.5386 Y0.1402
N13930 X1.58 Y0.1139
N13935 X1.6254 Y0.09
N13940 X1.6724 Y0.0694
N13945 X1.7206 Y0.0519
N13950 X1.7697 Y0.0373
N13955 X1.8196 Y0.0255
N13960 X1.87 Y0.0163
N13965 X1.9209 Y0.01
N13970 X1.9721 Y0.0069
N13975 X2.0234 Y0.0071
N13980 X2.0676 Y0.0106
N13985 X2.1053 Y0.0167
N13990 X2.1383 Y0.0247
N13995 X2.1678 Y0.0345
N14000 X2.1684 Y0.0348
N14005 X2.1846 Y0.0431
N14010 X2.1994 Y0.0537
N14015 X2.2126 Y0.0663
N14020 X2.2237 Y0.0807
N14025 X2.2327 Y0.0966
N14030 X2.2392 Y0.1137
N14035 X2.2432 Y0.1315
N14040 X2.2445 Y0.1497
N14045 Y0.3143
N14050 G3 X2.1984 Y0.3624 Z-0.4827 I-0.05 J-0.0017
N14055 G1 X2.1928 Y0.3629 Z-0.4821
N14060 X1.4344 Y0.4223
N14065 X1.4322 Y0.4224
N14070 G3 X1.3805 Y0.3742 Z-0.4901 I-0.0017 J-0.05
N14075 G1 Y0.2245
N14080 X1.381 Y0.2141
N14085 X1.3825 Y0.1991
N14090 X1.3856 Y0.1818
N14095 X1.3903 Y0.1641
N14100 X1.3976 Y0.1435
N14105 X1.4068 Y0.1228
N14110 X1.4195 Y0.0995
N14115 X1.4348 Y0.0761
N14120 X1.4549 Y0.0503
N14125 X1.4783 Y0.0247
N14130 X1.5071 Y-0.0021
N14135 X1.542 Y-0.0297
N14140 X1.5831 Y-0.0571
N14145 X1.6278 Y-0.0821
N14150 X1.6744 Y-0.1036
N14155 X1.7223 Y-0.1219
N14160 X1.7713 Y-0.137
N14165 X1.8211 Y-0.149
N14170 X1.8716 Y-0.158
N14175 X1.9225 Y-0.1639
N14180 X1.9737 Y-0.1665
N14185 X2.025 Y-0.1655
N14190 X2.069 Y-0.1613
N14195 X2.1066 Y-0.1546
N14200 X2.1396 Y-0.146
N14205 X2.1695 Y-0.1356
N14210 X2.1701 Y-0.1353
N14215 X2.186 Y-0.1269
N14220 X2.2005 Y-0.1162
N14225 X2.2134 Y-0.1036
N14230 X2.2243 Y-0.0892
N14235 X2.233 Y-0.0734
N14240 X2.2393 Y-0.0566
N14245 X2.2432 Y-0.039
N14250 X2.2445 Y-0.021
N14255 Y0.1497
N14260 G3 X2.1994 Y0.1977 Z-0.4828 I-0.05 J-0.0017
N14265 G1 X2.1928 Y0.1983 Z-0.4821
N14270 X1.4353 Y0.2725
N14275 X1.4322 Y0.2727
N14280 G3 X1.3805 Y0.2245 Z-0.4901 I-0.0017 J-0.05
N14285 G1 Y0.0599
N14290 X1.3811 Y0.0488
N14295 X1.3812 Y0.0428
N14300 X1.3815 Y0.0368
N14305 X1.382 Y0.0308
N14310 X1.3827 Y0.0249
N14315 X1.3835 Y0.0189
N14320 X1.3845 Y0.013
N14325 X1.3857 Y0.0071
N14330 X1.387 Y0.0013
N14335 X1.3885 Y-0.0046
N14340 X1.3901 Y-0.0103
N14345 X1.3919 Y-0.0161
N14350 X1.3938 Y-0.0218
N14355 X1.3958 Y-0.0274
N14360 X1.3979 Y-0.033
N14365 X1.4001 Y-0.0386
N14370 X1.4025 Y-0.0441
N14375 X1.4049 Y-0.0496
N14380 X1.4075 Y-0.055
N14385 X1.4102 Y-0.0604
N14390 X1.413 Y-0.0657
N14395 X1.4158 Y-0.071
N14400 X1.4188 Y-0.0762
N14405 X1.4218 Y-0.0814
N14410 X1.4249 Y-0.0865
N14415 X1.4282 Y-0.0916
N14420 X1.4315 Y-0.0966
N14425 X1.4349 Y-0.1015
N14430 X1.4383 Y-0.1064
N14435 X1.4419 Y-0.1113
N14440 X1.4455 Y-0.1161
N14445 X1.4491 Y-0.1208
N14450 X1.4529 Y-0.1255
N14455 X1.4567 Y-0.1301
N14460 X1.4606 Y-0.1347
N14465 X1.4645 Y-0.1392
N14470 X1.4685 Y-0.1437
N14475 X1.4726 Y-0.1481
N14480 X1.4767 Y-0.1525
N14485 X1.4809 Y-0.1568
N14490 X1.4851 Y-0.161
N14495 X1.4894 Y-0.1652
N14500 X1.4937 Y-0.1694
N14505 X1.4981 Y-0.1735
N14510 X1.5025 Y-0.1775
N14515 X1.507 Y-0.1815
N14520 X1.5115 Y-0.1855
N14525 X1.5161 Y-0.1893
N14530 X1.5207 Y-0.1932
N14535 X1.5254 Y-0.197
N14540 X1.5301 Y-0.2007
N14545 X1.5348 Y-0.2044
N14550 X1.5396 Y-0.208
N14555 X1.5444 Y-0.2116
N14560 X1.5493 Y-0.2151
N14565 X1.5542 Y-0.2186
N14570 X1.5591 Y-0.222
N14575 X1.564 Y-0.2254
N14580 X1.569 Y-0.2287
N14585 X1.5741 Y-0.232
N14590 X1.5791 Y-0.2353
N14595 X1.5842 Y-0.2384
N14600 X1.5893 Y-0.2416
N14605 X1.5944 Y-0.2447
N14610 X1.5996 Y-0.2477
N14615 X1.6048 Y-0.2507
N14620 X1.6101 Y-0.2536
N14625 X1.6153 Y-0.2565
N14630 X1.6206 Y-0.2594
N14635 X1.6259 Y-0.2622
N14640 X1.6312 Y-0.2649
N14645 X1.6366 Y-0.2677
N14650 X1.6419 Y-0.2703
N14655 X1.6473 Y-0.2729
N14660 X1.6528 Y-0.2755
N14665 X1.6582 Y-0.278
N14670 X1.6637 Y-0.2805
N14675 X1.6692 Y-0.2829
N14680 X1.6747 Y-0.2853
N14685 X1.6802 Y-0.2877
N14690 X1.6857 Y-0.29
N14695 X1.6913 Y-0.2923
N14700 X1.6969 Y-0.2945
N14705 X1.7024 Y-0.2966
N14710 X1.7081 Y-0.2988
N14715 X1.7137 Y-0.3008
N14720 X1.7193 Y-0.3029
N14725 X1.725 Y-0.3049
N14730 X1.7308 Y-0.3068
N14735 X1.7367 Y-0.3088
N14740 X1.7424 Y-0.3107
N14745 X1.7481 Y-0.3125
N14750 X1.7539 Y-0.3143
N14755 X1.7596 Y-0.316
N14760 X1.7654 Y-0.3177
N14765 X1.7712 Y-0.3193
N14770 X1.7769 Y-0.3209
N14775 X1.7828 Y-0.3225
N14780 X1.7889 Y-0.3241
N14785 X1.7951 Y-0.3257
N14790 X1.8014 Y-0.3272
N14795 X1.8072 Y-0.3285
N14800 X1.8131 Y-0.3299
N14805 X1.8189 Y-0.3312
N14810 X1.8248 Y-0.3324
N14815 X1.8307 Y-0.3336
N14820 X1.8366 Y-0.3348
N14825 X1.8425 Y-0.3359
N14830 X1.8487 Y-0.337
N14835 X1.8551 Y-0.3381
N14840 X1.8611 Y-0.3391
N14845 X1.867 Y-0.34
N14850 X1.873 Y-0.3409
N14855 X1.8789 Y-0.3417
N14860 X1.8849 Y-0.3425
N14865 X1.8908 Y-0.3433
N14870 X1.8968 Y-0.344
N14875 X1.9027 Y-0.3446
N14880 X1.9088 Y-0.3452
N14885 X1.9148 Y-0.3458
N14890 X1.9208 Y-0.3463
N14895 X1.9268 Y-0.3468
N14900 X1.9328 Y-0.3472
N14905 X1.9388 Y-0.3476
N14910 X1.9447 Y-0.3479
N14915 X1.9507 Y-0.3482
N14920 X1.9567 Y-0.3484
N14925 X1.9627 Y-0.3486
N14930 X1.9687 Y-0.3487
N14935 X1.9747 Y-0.3488
N14940 X1.9807
N14945 X1.9867
N14950 X1.9927 Y-0.3487
N14955 X1.9987 Y-0.3485
N14960 X2.0047 Y-0.3484
N14965 X2.0107 Y-0.3481
N14970 X2.0167 Y-0.3479
N14975 X2.0227 Y-0.3475
N14980 X2.0287 Y-0.3471
N14985 X2.0347 Y-0.3467
N14990 X2.0407 Y-0.3462
N14995 X2.0466 Y-0.3456
N15000 X2.0526 Y-0.345
N15005 X2.0586 Y-0.3443
N15010 X2.0645 Y-0.3435
N15015 X2.0705 Y-0.3427
N15020 X2.0764 Y-0.3418
N15025 X2.0823 Y-0.3409
N15030 X2.0882 Y-0.3398
N15035 X2.0941 Y-0.3387
N15040 X2.1 Y-0.3375
N15045 X2.1059 Y-0.3363
N15050 X2.1117 Y-0.335
N15055 X2.1176 Y-0.3336
N15060 X2.1234 Y-0.3321
N15065 X2.1292 Y-0.3306
N15070 X2.1349 Y-0.3289
N15075 X2.1407 Y-0.3272
N15080 X2.1464 Y-0.3254
N15085 X2.1521 Y-0.3235
N15090 X2.1578 Y-0.3216
N15095 X2.1634 Y-0.3196
N15100 X2.169 Y-0.3174
N15105 X2.1746 Y-0.3152
N15110 X2.1895 Y-0.3078
N15115 X2.2031 Y-0.2982
N15120 X2.2152 Y-0.2867
N15125 X2.2254 Y-0.2736
N15130 X2.2336 Y-0.2591
N15135 X2.2396 Y-0.2436
N15140 X2.2433 Y-0.2273
N15145 X2.2445 Y-0.2107
N15150 Y-0.021
N15155 G3 X2.1998 Y0.027 Z-0.4828 I-0.05 J-0.0017
N15160 G1 X2.1929 Y0.0277 Z-0.4821
N15165 X1.4357 Y0.1078
N15170 X1.4322 Y0.1081
N15175 G3 X1.3805 Y0.0599 Z-0.4901 I-0.0017 J-0.05
N15180 G1 Y-0.1197
N15185 X1.3811 Y-0.131
N15190 X1.3826 Y-0.1472
N15195 X1.3857 Y-0.165
N15200 X1.3907 Y-0.1844
N15205 X1.398 Y-0.2054
N15210 X1.4078 Y-0.2279
N15215 X1.4143 Y-0.2399
N15220 X1.4179 Y-0.246
N15225 X1.4198 Y-0.2491
N15230 X1.4472 Y-0.2925
N15235 X1.4498 Y-0.296
N15240 X1.4525 Y-0.2996
N15245 X1.4743 Y-0.3285
N15250 X1.5024 Y-0.3588
N15255 X1.512 Y-0.3673
N15260 X1.5169 Y-0.3714
N15265 X1.5218 Y-0.3754
N15270 G3 X1.5918 Y-0.3655 Z-0.4821 I0.03 J0.04
N15275 X1.5954 Y-0.3108 I-0.0399 J0.0301
N15280 G1 X1.474 Y-0.0968
N15285 G3 X1.4322 Y-0.0715 I-0.0435 J-0.0247
N15290 X1.3805 Y-0.1197 Z-0.4901 I-0.0017 J-0.05
N15295 G1 Y-0.4939
N15300 X1.3797 Y-0.507
N15305 X1.3771 Y-0.5304
N15310 X1.377 Y-0.5309
N15315 X1.368 Y-0.5601
N15320 X1.3676 Y-0.5609
N15325 X1.352 Y-0.5904
N15330 X1.3516 Y-0.5911
N15335 X1.3339 Y-0.6137
N15340 X1.3214 Y-0.6286
N15345 X1.3197 Y-0.6302
N15350 X1.2897 Y-0.6567
N15355 X1.2873 Y-0.6586
N15360 X1.2597 Y-0.6777
N15365 X1.2438 Y-0.6885
N15370 X1.2297 Y-0.6972
N15375 X1.2191 Y-0.7035
N15380 X1.2147 Y-0.706
N15385 X1.1847 Y-0.7208
N15390 X1.1697 Y-0.7274
N15395 G3 X1.1466 Y-0.7942 Z-0.4821 I0.0219 J-0.045
N15400 X1.1906 Y-0.8224 I0.045 J0.0218
N15405 G1 X2.5047 Y-0.8472
N15410 G3 X2.5534 Y-0.8123 I0.0009 J0.05
N15415 X2.5208 Y-0.7496 Z-0.4901 I-0.0477 J0.015
N15420 G1 X2.5167 Y-0.7484
N15425 X2.5044 Y-0.7447
N15430 X2.4894 Y-0.74
N15435 X2.4594 Y-0.7291
N15440 X2.4444 Y-0.7226
N15445 X2.4294 Y-0.7157
N15450 X2.4144 Y-0.7078
N15455 X2.3994 Y-0.6994
N15460 X2.3844 Y-0.6906
N15465 X2.3544 Y-0.6705
N15470 X2.3379 Y-0.6586
N15475 X2.3245 Y-0.6477
N15480 X2.3195 Y-0.6436
N15485 X2.3095 Y-0.6339
N15490 X2.304 Y-0.6286
N15495 X2.2945 Y-0.6186
N15500 X2.2902 Y-0.6137
N15505 X2.2795 Y-0.5998
N15510 X2.2787 Y-0.5987
N15515 X2.2695 Y-0.5837
N15520 X2.2576 Y-0.5613
N15525 X2.2558 Y-0.5575
N15530 X2.2544 Y-0.5538
N15535 X2.2495 Y-0.5365
N15540 X2.2472 Y-0.5239
N15545 X2.2455 Y-0.5089
N15550 X2.2445 Y-0.4939
N15555 Y-0.2107
N15560 G3 X2.2342 Y-0.1821 I-0.05 J-0.0017
N15565 G1 X2.2308 Y-0.1777 Z-0.4898
N15570 X2.2275 Y-0.1733 Z-0.4888
N15575 X2.2242 Y-0.169 Z-0.4873
N15580 X2.221 Y-0.1649 Z-0.4851
N15585 X2.2181 Y-0.161 Z-0.4824
N15590 X2.2153 Y-0.1573 Z-0.4792
N15595 X2.2127 Y-0.154 Z-0.4754
N15600 X2.2105 Y-0.1511 Z-0.4713
N15605 X2.2085 Y-0.1485 Z-0.4667
N15610 X2.2069 Y-0.1463 Z-0.4618
N15615 X2.2055 Y-0.1446 Z-0.4566
N15620 X2.2046 Y-0.1434 Z-0.4512
N15625 X2.204 Y-0.1426 Z-0.4457
N15630 X2.2038 Y-0.1424 Z-0.4401
N15635 Z0.24
N15640 X-0.8077 Y-0.8822
N15645 Z-0.3901
N15650 Z-0.4401
N15655 X-0.808 Y-0.882 Z-0.4457
N15660 X-0.8088 Y-0.8816 Z-0.4512
N15665 X-0.8102 Y-0.8808 Z-0.4566
N15670 X-0.812 Y-0.8798 Z-0.4618
N15675 X-0.8144 Y-0.8784 Z-0.4667
N15680 X-0.8172 Y-0.8768 Z-0.4713
N15685 X-0.8205 Y-0.875 Z-0.4754
N15690 X-0.8241 Y-0.873 Z-0.4792
N15695 X-0.8281 Y-0.8707 Z-0.4824
N15700 X-0.8324 Y-0.8683 Z-0.4851
N15705 X-0.8369 Y-0.8658 Z-0.4873
N15710 X-0.8416 Y-0.8631 Z-0.4888
N15715 X-0.8464 Y-0.8604 Z-0.4898
N15720 X-0.8513 Y-0.8577 Z-0.4901
N15725 G3 X-1.1042 Y-0.7495 I-0.6255 J-1.1127
N15730 G1 X-1.1085 Y-0.7484
N15735 X-1.1397 Y-0.7386
N15740 X-1.1547 Y-0.7332
N15745 X-1.1697 Y-0.7274
N15750 X-1.1847 Y-0.7208
N15755 X-1.2147 Y-0.706
N15760 X-1.2191 Y-0.7035
N15765 X-1.2297 Y-0.6972
N15770 X-1.2438 Y-0.6885
N15775 X-1.2597 Y-0.6777
N15780 X-1.2873 Y-0.6586
N15785 X-1.2897 Y-0.6567
N15790 X-1.3197 Y-0.6302
N15795 X-1.3214 Y-0.6286
N15800 X-1.3339 Y-0.6137
N15805 X-1.3516 Y-0.5911
N15810 X-1.352 Y-0.5904
N15815 X-1.3678 Y-0.5605
N15820 X-1.368 Y-0.5601
N15825 X-1.377 Y-0.5309
N15830 X-1.3771 Y-0.5304
N15835 X-1.3797 Y-0.507
N15840 X-1.3805 Y-0.4939
N15845 Y-0.2103
N15850 X-1.3812 Y-0.2061 Z-0.4898
N15855 X-1.3818 Y-0.2019 Z-0.4889
N15860 X-1.3825 Y-0.198 Z-0.4874
N15865 X-1.3839 Y-0.1947 Z-0.4855
N15870 X-1.3853 Y-0.1916 Z-0.4832
N15875 X-1.3864 Y-0.1889 Z-0.4804
N15880 X-1.3875 Y-0.1865 Z-0.4773
N15885 X-1.3886 Y-0.1848 Z-0.474
N15890 X-1.3896 Y-0.1834 Z-0.4705
N15895 X-1.3902 Y-0.1824 Z-0.4668
N15900 X-1.3906 Y-0.1818 Z-0.463
N15905 X-1.3908 Y-0.1816 Z-0.4592
N15910 Z0.24
N15915 X-2.9061 Y0.8884
N15920 Z-0.2901
N15925 Z-0.3401
N15930 X-2.9058 Y0.8883 Z-0.3457
N15935 X-2.905 Y0.8878 Z-0.3512
N15940 X-2.9037 Y0.887 Z-0.3566
N15945 X-2.9018 Y0.8859 Z-0.3618
N15950 X-2.8995 Y0.8845 Z-0.3667
N15955 X-2.8967 Y0.8829 Z-0.3713
N15960 X-2.8935 Y0.881 Z-0.3754
N15965 X-2.8899 Y0.8789 Z-0.3792
N15970 X-2.886 Y0.8765 Z-0.3824
N15975 X-2.8817 Y0.8741 Z-0.3851
N15980 X-2.8773 Y0.8714 Z-0.3873
N15985 X-2.8726 Y0.8687 Z-0.3888
N15990 X-2.8679 Y0.8659 Z-0.3898
N15995 X-2.863 Y0.863 Z-0.3901
N16000 G3 X-2.6124 Y0.7498 I0.6478 J1.0999
N16005 G1 X-2.6094 Y0.7489
N16010 X-2.5794 Y0.7375
N16015 X-2.5694 Y0.7334
N16020 X-2.5644 Y0.7312
N16025 X-2.5494 Y0.7243
N16030 X-2.5381 Y0.7184
N16035 X-2.5128 Y0.7035
N16040 X-2.5044 Y0.6985
N16045 X-2.4909 Y0.6885
N16050 X-2.4718 Y0.6735
N16055 X-2.4594 Y0.662
N16060 X-2.456 Y0.6586
N16065 X-2.4422 Y0.6436
N16070 X-2.4294 Y0.6278
N16075 X-2.4101 Y0.5987
N16080 X-2.4019 Y0.5837
N16085 X-2.395 Y0.5688
N16090 X-2.3897 Y0.5538
N16095 X-2.3844 Y0.5346
N16100 X-2.3829 Y0.5239
N16105 X-2.3815 Y0.5089
N16110 X-2.3806 Y0.4939
N16115 Y-0.4939
N16120 X-2.3815 Y-0.5089
N16125 X-2.3829 Y-0.5239
N16130 X-2.3844 Y-0.5346
N16135 X-2.3897 Y-0.5538
N16140 X-2.395 Y-0.5688
N16145 X-2.4019 Y-0.5837
N16150 X-2.4101 Y-0.5987
N16155 X-2.4294 Y-0.6278
N16160 X-2.4422 Y-0.6436
N16165 X-2.456 Y-0.6586
N16170 X-2.4594 Y-0.662
N16175 X-2.4718 Y-0.6735
N16180 X-2.4909 Y-0.6885
N16185 X-2.5044 Y-0.6985
N16190 X-2.5128 Y-0.7035
N16195 X-2.5277 Y-0.7123
N16200 G3 X-2.5429 Y-0.7813 Z-0.3821 I0.0269 J-0.0421
N16205 X-2.5022 Y-0.8044 I0.0422 J0.0269
N16210 G1 X-1.0311 Y-0.8465
N16215 G3 X-0.9826 Y-0.8135 I0.0014 J0.05
N16220 X-1.0126 Y-0.7495 Z-0.3901 I-0.047 J0.017
N16225 G1 X-1.0198 Y-0.7472
N16230 X-1.0348 Y-0.7418
N16235 X-1.0647 Y-0.7295
N16240 X-1.0797 Y-0.7219
N16245 X-1.0947 Y-0.7142
N16250 X-1.1097 Y-0.705
N16255 X-1.1247 Y-0.6954
N16260 X-1.1345 Y-0.6885
N16265 X-1.1397 Y-0.6844
N16270 X-1.1529 Y-0.6735
N16275 X-1.1547 Y-0.6719
N16280 X-1.1691 Y-0.6586
N16285 X-1.183 Y-0.6436
N16290 X-1.1949 Y-0.6286
N16295 X-1.1997 Y-0.6219
N16300 X-1.215 Y-0.5987
N16305 X-1.2231 Y-0.5837
N16310 X-1.2304 Y-0.5688
N16315 X-1.2321 Y-0.565
N16320 X-1.2332 Y-0.5613
N16325 X-1.2394 Y-0.5388
N16330 X-1.2421 Y-0.5239
N16335 X-1.2435 Y-0.5089
N16340 X-1.2444 Y-0.4939
N16345 Y0.4939
N16350 X-1.2435 Y0.5089
N16355 X-1.2421 Y0.5239
N16360 X-1.2394 Y0.5388
N16365 X-1.2332 Y0.5613
N16370 X-1.2321 Y0.565
N16375 X-1.2297 Y0.5701
N16380 X-1.2231 Y0.5837
N16385 X-1.215 Y0.5987
N16390 X-1.1997 Y0.6219
N16395 X-1.1949 Y0.6286
N16400 X-1.183 Y0.6436
N16405 X-1.1691 Y0.6586
N16410 X-1.1547 Y0.6719
N16415 X-1.1529 Y0.6735
N16420 X-1.1397 Y0.6844
N16425 X-1.1345 Y0.6885
N16430 X-1.1247 Y0.6954
N16435 X-1.1097 Y0.705
N16440 X-1.1015 Y0.71
N16445 G3 X-1.0824 Y0.7338 I-0.0276 J0.0417
N16450 G1 X-1.0804 Y0.739 Z-0.3898
N16455 X-1.0785 Y0.7442 Z-0.3888
N16460 X-1.0765 Y0.7492 Z-0.3873
N16465 X-1.0747 Y0.754 Z-0.3851
N16470 X-1.0729 Y0.7586 Z-0.3824
N16475 X-1.0713 Y0.7629 Z-0.3792
N16480 X-1.0698 Y0.7668 Z-0.3754
N16485 X-1.0684 Y0.7703 Z-0.3713
N16490 X-1.0673 Y0.7733 Z-0.3667
N16495 X-1.0663 Y0.7758 Z-0.3618
N16500 X-1.0655 Y0.7778 Z-0.3566
N16505 X-1.065 Y0.7793 Z-0.3512
N16510 X-1.0646 Y0.7801 Z-0.3457
N16515 X-1.0645 Y0.7804 Z-0.3401
N16520 Z0.24
N16525 X0.7234 Y0.8972
N16530 Z-0.2901
N16535 Z-0.3401
N16540 X0.7236 Y0.897 Z-0.3457
N16545 X0.7244 Y0.8965 Z-0.3512
N16550 X0.7257 Y0.8957 Z-0.3566
N16555 X0.7275 Y0.8945 Z-0.3618
N16560 X0.7298 Y0.8931 Z-0.3667
N16565 X0.7326 Y0.8913 Z-0.3713
N16570 X0.7357 Y0.8894 Z-0.3754
N16575 X0.7393 Y0.8871 Z-0.3792
N16580 X0.7431 Y0.8847 Z-0.3824
N16585 X0.7473 Y0.8821 Z-0.3851
N16590 X0.7517 Y0.8793 Z-0.3873
N16595 X0.7562 Y0.8764 Z-0.3888
N16600 X0.7609 Y0.8735 Z-0.3898
N16605 X0.7656 Y0.8705 Z-0.3901
N16610 G3 X1.0126 Y0.7495 I0.6816 J1.0793
N16615 G1 X1.0198 Y0.7472
N16620 X1.0348 Y0.7418
N16625 X1.0647 Y0.7295
N16630 X1.0797 Y0.7219
N16635 X1.0947 Y0.7142
N16640 X1.1097 Y0.705
N16645 X1.1247 Y0.6954
N16650 X1.1345 Y0.6885
N16655 X1.1397 Y0.6844
N16660 X1.1529 Y0.6735
N16665 X1.1547 Y0.6719
N16670 X1.1691 Y0.6586
N16675 X1.183 Y0.6436
N16680 X1.1949 Y0.6286
N16685 X1.1997 Y0.6219
N16690 X1.215 Y0.5987
N16695 X1.2231 Y0.5837
N16700 X1.2304 Y0.5688
N16705 X1.2321 Y0.565
N16710 X1.2332 Y0.5613
N16715 X1.2394 Y0.5388
N16720 X1.2421 Y0.5239
N16725 X1.2435 Y0.5089
N16730 X1.2444 Y0.4939
N16735 Y-0.4939
N16740 X1.2435 Y-0.5089
N16745 X1.2421 Y-0.5239
N16750 X1.2394 Y-0.5388
N16755 X1.2332 Y-0.5613
N16760 X1.2321 Y-0.565
N16765 X1.2297 Y-0.5701
N16770 X1.2231 Y-0.5837
N16775 X1.215 Y-0.5987
N16780 X1.1997 Y-0.6219
N16785 X1.1949 Y-0.6286
N16790 X1.183 Y-0.6436
N16795 X1.1691 Y-0.6586
N16800 X1.1547 Y-0.6719
N16805 X1.1529 Y-0.6735
N16810 X1.1397 Y-0.6844
N16815 X1.1345 Y-0.6885
N16820 X1.1247 Y-0.6954
N16825 X1.1097 Y-0.705
N16830 X1.1015 Y-0.71
N16835 G3 X1.0874 Y-0.7793 Z-0.3821 I0.0276 J-0.0417
N16840 X1.1276 Y-0.8017 I0.0417 J0.0276
N16845 G1 X2.5953 Y-0.8473
N16850 G3 X2.6444 Y-0.8129 I0.0016 J0.05
N16855 X2.6124 Y-0.7498 Z-0.3901 I-0.0475 J0.0155
N16860 G1 X2.6094 Y-0.7489
N16865 X2.5794 Y-0.7375
N16870 X2.5694 Y-0.7334
N16875 X2.5644 Y-0.7312
N16880 X2.5494 Y-0.7243
N16885 X2.5381 Y-0.7184
N16890 X2.5128 Y-0.7035
N16895 X2.5044 Y-0.6985
N16900 X2.4909 Y-0.6885
N16905 X2.4718 Y-0.6735
N16910 X2.4594 Y-0.662
N16915 X2.456 Y-0.6586
N16920 X2.4422 Y-0.6436
N16925 X2.4294 Y-0.6278
N16930 X2.4101 Y-0.5987
N16935 X2.4019 Y-0.5837
N16940 X2.395 Y-0.5688
N16945 X2.3897 Y-0.5538
N16950 X2.3844 Y-0.5346
N16955 X2.3829 Y-0.5239
N16960 X2.3815 Y-0.5089
N16965 X2.3806 Y-0.4939
N16970 Y0.4939
N16975 X2.3815 Y0.5089
N16980 X2.3829 Y0.5239
N16985 X2.3844 Y0.5346
N16990 X2.3897 Y0.5538
N16995 X2.395 Y0.5688
N17000 X2.4019 Y0.5837
N17005 X2.4101 Y0.5987
N17010 X2.4294 Y0.6278
N17015 X2.4422 Y0.6436
N17020 X2.456 Y0.6586
N17025 X2.4594 Y0.662
N17030 X2.4718 Y0.6735
N17035 X2.4909 Y0.6885
N17040 X2.5044 Y0.6985
N17045 X2.5128 Y0.7035
N17050 X2.5277 Y0.7123
N17055 X2.5309 Y0.715 Z-0.3898
N17060 X2.5342 Y0.7177 Z-0.3889
N17065 X2.5373 Y0.7203 Z-0.3874
N17070 X2.5394 Y0.7232 Z-0.3855
N17075 X2.5413 Y0.7259 Z-0.3832
N17080 X2.5431 Y0.7283 Z-0.3804
N17085 X2.5446 Y0.7304 Z-0.3773
N17090 X2.5455 Y0.7323 Z-0.374
N17095 X2.5462 Y0.7337 Z-0.3705
N17100 X2.5467 Y0.7348 Z-0.3668
N17105 X2.547 Y0.7355 Z-0.363
N17110 X2.5471 Y0.7357 Z-0.3592
N17115 Z0.24
N17120 X-2.6469 Y0.8672
N17125 Z-0.525
N17130 Z-0.575
N17135 X-2.6466 Y0.867 Z-0.5806
N17140 X-2.6458 Y0.8666 Z-0.5861
N17145 X-2.6444 Y0.8659 Z-0.5915
N17150 X-2.6424 Y0.865 Z-0.5967
N17155 X-2.64 Y0.8638 Z-0.6016
N17160 X-2.6371 Y0.8623 Z-0.6062
N17165 X-2.6338 Y0.8606 Z-0.6104
N17170 X-2.63 Y0.8588 Z-0.6141
N17175 X-2.6259 Y0.8567 Z-0.6173
N17180 X-2.6215 Y0.8546 Z-0.62
N17185 X-2.6169 Y0.8522 Z-0.6222
N17190 X-2.6121 Y0.8498 Z-0.6237
N17195 X-2.6071 Y0.8474 Z-0.6247
N17200 X-2.6021 Y0.8449 Z-0.625
N17205 G3 X-2.3442 Y0.7496 I0.5687 J1.1428
N17210 G1 X-2.3384 Y0.7484
N17215 X-2.3245 Y0.7452
N17220 X-2.3095 Y0.7417
N17225 X-2.2945 Y0.7381
N17230 X-2.2645 Y0.7303
N17235 X-2.2495 Y0.7261
N17240 X-2.2345 Y0.7215
N17245 X-2.2248 Y0.7184
N17250 X-2.2195 Y0.7167
N17255 X-2.1895 Y0.7065
N17260 X-2.1804 Y0.7035
N17265 X-2.1445 Y0.692
N17270 X-2.1295 Y0.6868
N17275 X-2.1145 Y0.6812
N17280 X-2.0995 Y0.6754
N17285 X-2.0695 Y0.6636
N17290 X-2.0395 Y0.6538
N17295 X-2.0245 Y0.6489
N17300 X-1.9945 Y0.6377
N17305 X-1.9795 Y0.6326
N17310 X-1.9645 Y0.6276
N17315 X-1.9495 Y0.6227
N17320 X-1.9195 Y0.6154
N17325 X-1.9124 Y0.6137
N17330 X-1.9046 Y0.6117
N17335 X-1.8896 Y0.6078
N17340 X-1.8746 Y0.6036
N17345 X-1.8671 Y0.6018
N17350 X-1.8596 Y0.6011
N17355 X-1.8296 Y0.6007
N17360 X-1.8146 Y0.6006
N17365 X-1.7846
N17370 X-1.7696 Y0.6018
N17375 X-1.7396 Y0.6071
N17380 X-1.7246 Y0.6106
N17385 X-1.6946 Y0.6181
N17390 X-1.6796 Y0.6221
N17395 X-1.6551 Y0.6286
N17400 X-1.6496 Y0.6302
N17405 X-1.6346 Y0.6359
N17410 X-1.6147 Y0.6436
N17415 X-1.6046 Y0.6474
N17420 X-1.5896 Y0.6525
N17425 X-1.5715 Y0.6586
N17430 X-1.5302 Y0.6735
N17435 X-1.4996 Y0.6852
N17440 X-1.4906 Y0.6885
N17445 X-1.4547 Y0.7005
N17450 X-1.3947 Y0.72
N17455 X-1.3797 Y0.7249
N17460 X-1.3489 Y0.7334
N17465 X-1.3347 Y0.737
N17470 X-1.3197 Y0.7405
N17475 G3 X-1.2941 Y0.757 I-0.0131 J0.0483
N17480 G1 X-1.2906 Y0.7614 Z-0.6247
N17485 X-1.2871 Y0.7656 Z-0.6237
N17490 X-1.2837 Y0.7698 Z-0.6222
N17495 X-1.2804 Y0.7738 Z-0.62
N17500 X-1.2773 Y0.7776 Z-0.6173
N17505 X-1.2744 Y0.7811 Z-0.6141
N17510 X-1.2717 Y0.7844 Z-0.6104
N17515 X-1.2693 Y0.7873 Z-0.6062
N17520 X-1.2673 Y0.7898 Z-0.6016
N17525 X-1.2656 Y0.7919 Z-0.5967
N17530 X-1.2642 Y0.7935 Z-0.5915
N17535 X-1.2632 Y0.7947 Z-0.5861
N17540 X-1.2626 Y0.7955 Z-0.5806
N17545 X-1.2624 Y0.7957 Z-0.575
N17550 Z0.24
N17555 X0.9803 Y0.8724
N17560 Z-0.525
N17565 Z-0.575
N17570 X0.9806 Y0.8723 Z-0.5806
N17575 X0.9814 Y0.8719 Z-0.5861
N17580 X0.9828 Y0.8711 Z-0.5915
N17585 X0.9847 Y0.8701 Z-0.5967
N17590 X0.9871 Y0.8689 Z-0.6016
N17595 X0.99 Y0.8674 Z-0.6062
N17600 X0.9933 Y0.8657 Z-0.6104
N17605 X0.997 Y0.8637 Z-0.6141
N17610 X1.0011 Y0.8616 Z-0.6173
N17615 X1.0054 Y0.8594 Z-0.62
N17620 X1.01 Y0.857 Z-0.6222
N17625 X1.0148 Y0.8545 Z-0.6237
N17630 X1.0197 Y0.852 Z-0.6247
N17635 X1.0247 Y0.8494 Z-0.625
N17640 G3 X1.2809 Y0.7496 I0.5888 J1.1326
N17645 G1 X1.3197 Y0.7405
N17650 X1.3347 Y0.737
N17655 X1.3497 Y0.7332
N17660 X1.3797 Y0.7249
N17665 X1.4455 Y0.7035
N17670 X1.4547 Y0.7005
N17675 X1.4906 Y0.6885
N17680 X1.4996 Y0.6852
N17685 X1.5302 Y0.6735
N17690 X1.5715 Y0.6586
N17695 X1.5896 Y0.6525
N17700 X1.6046 Y0.6474
N17705 X1.6147 Y0.6436
N17710 X1.6346 Y0.6359
N17715 X1.6496 Y0.6302
N17720 X1.6551 Y0.6286
N17725 X1.6796 Y0.6221
N17730 X1.6946 Y0.6181
N17735 X1.7246 Y0.6106
N17740 X1.7396 Y0.6071
N17745 X1.7696 Y0.6018
N17750 X1.7846 Y0.6006
N17755 X1.8146
N17760 X1.8296 Y0.6007
N17765 X1.8596 Y0.6011
N17770 X1.8671 Y0.6018
N17775 X1.8746 Y0.6036
N17780 X1.8896 Y0.6078
N17785 X1.9046 Y0.6117
N17790 X1.9124 Y0.6137
N17795 X1.9345 Y0.619
N17800 X1.9495 Y0.6227
N17805 X1.9676 Y0.6286
N17810 X1.9795 Y0.6326
N17815 X1.9945 Y0.6377
N17820 X2.0245 Y0.6489
N17825 X2.0395 Y0.6538
N17830 X2.0695 Y0.6636
N17835 X2.0995 Y0.6754
N17840 X2.1145 Y0.6812
N17845 X2.1295 Y0.6868
N17850 X2.1445 Y0.692
N17855 X2.1804 Y0.7035
N17860 X2.1895 Y0.7065
N17865 X2.2195 Y0.7167
N17870 X2.2248 Y0.7184
N17875 X2.2345 Y0.7215
N17880 X2.2495 Y0.7261
N17885 X2.2645 Y0.7303
N17890 X2.2945 Y0.7381
N17895 X2.3095 Y0.7417
N17900 G3 X2.3349 Y0.7583 I-0.0133 J0.0482
N17905 G1 X2.3385 Y0.7626 Z-0.6247
N17910 X2.342 Y0.7669 Z-0.6237
N17915 X2.3454 Y0.7711 Z-0.6222
N17920 X2.3486 Y0.7751 Z-0.62
N17925 X2.3517 Y0.7789 Z-0.6173
N17930 X2.3546 Y0.7825 Z-0.6141
N17935 X2.3573 Y0.7857 Z-0.6104
N17940 X2.3596 Y0.7886 Z-0.6062
N17945 X2.3617 Y0.7911 Z-0.6016
N17950 X2.3634 Y0.7932 Z-0.5967
N17955 X2.3648 Y0.7949 Z-0.5915
N17960 X2.3657 Y0.7961 Z-0.5861
N17965 X2.3663 Y0.7968 Z-0.5806
N17970 X2.3665 Y0.797 Z-0.575
N17975 Z0.24
N17980 X2.6469 Y-0.8672
N17985 Z-0.525
N17990 Z-0.575
N17995 X2.6466 Y-0.867 Z-0.5806
N18000 X2.6458 Y-0.8666 Z-0.5861
N18005 X2.6444 Y-0.8659 Z-0.5915
N18010 X2.6424 Y-0.865 Z-0.5967
N18015 X2.64 Y-0.8638 Z-0.6016
N18020 X2.6371 Y-0.8623 Z-0.6062
N18025 X2.6338 Y-0.8606 Z-0.6104
N18030 X2.63 Y-0.8588 Z-0.6141
N18035 X2.6259 Y-0.8567 Z-0.6173
N18040 X2.6215 Y-0.8546 Z-0.62
N18045 X2.6169 Y-0.8522 Z-0.6222
N18050 X2.6121 Y-0.8498 Z-0.6237
N18055 X2.6071 Y-0.8474 Z-0.6247
N18060 X2.6021 Y-0.8449 Z-0.625
N18065 G3 X2.3442 Y-0.7496 I-0.5687 J-1.1428
N18070 G1 X2.3384 Y-0.7484
N18075 X2.3245 Y-0.7452
N18080 X2.3095 Y-0.7417
N18085 X2.2945 Y-0.7381
N18090 X2.2645 Y-0.7303
N18095 X2.2495 Y-0.7261
N18100 X2.2345 Y-0.7215
N18105 X2.2248 Y-0.7184
N18110 X2.2195 Y-0.7167
N18115 X2.1895 Y-0.7065
N18120 X2.1804 Y-0.7035
N18125 X2.1445 Y-0.692
N18130 X2.1295 Y-0.6868
N18135 X2.1145 Y-0.6812
N18140 X2.0995 Y-0.6754
N18145 X2.0695 Y-0.6636
N18150 X2.0395 Y-0.6538
N18155 X2.0245 Y-0.6489
N18160 X1.9945 Y-0.6377
N18165 X1.9795 Y-0.6326
N18170 X1.9645 Y-0.6276
N18175 X1.9495 Y-0.6227
N18180 X1.9195 Y-0.6154
N18185 X1.9124 Y-0.6137
N18190 X1.9046 Y-0.6117
N18195 X1.8896 Y-0.6078
N18200 X1.8746 Y-0.6036
N18205 X1.8671 Y-0.6018
N18210 X1.8596 Y-0.6011
N18215 X1.8296 Y-0.6007
N18220 X1.8146 Y-0.6006
N18225 X1.7846
N18230 X1.7696 Y-0.6018
N18235 X1.7396 Y-0.6071
N18240 X1.7246 Y-0.6106
N18245 X1.6946 Y-0.6181
N18250 X1.6796 Y-0.6221
N18255 X1.6551 Y-0.6286
N18260 X1.6496 Y-0.6302
N18265 X1.6346 Y-0.6359
N18270 X1.6147 Y-0.6436
N18275 X1.6046 Y-0.6474
N18280 X1.5896 Y-0.6525
N18285 X1.5715 Y-0.6586
N18290 X1.5302 Y-0.6735
N18295 X1.4996 Y-0.6852
N18300 X1.4906 Y-0.6885
N18305 X1.4547 Y-0.7005
N18310 X1.3947 Y-0.72
N18315 X1.3797 Y-0.7249
N18320 X1.3489 Y-0.7334
N18325 X1.3347 Y-0.737
N18330 X1.3197 Y-0.7405
N18335 G3 X1.2941 Y-0.757 I0.0131 J-0.0483
N18340 G1 X1.2906 Y-0.7614 Z-0.6247
N18345 X1.2871 Y-0.7656 Z-0.6237
N18350 X1.2837 Y-0.7698 Z-0.6222
N18355 X1.2804 Y-0.7738 Z-0.62
N18360 X1.2773 Y-0.7776 Z-0.6173
N18365 X1.2744 Y-0.7811 Z-0.6141
N18370 X1.2717 Y-0.7844 Z-0.6104
N18375 X1.2693 Y-0.7873 Z-0.6062
N18380 X1.2673 Y-0.7898 Z-0.6016
N18385 X1.2656 Y-0.7919 Z-0.5967
N18390 X1.2642 Y-0.7935 Z-0.5915
N18395 X1.2632 Y-0.7947 Z-0.5861
N18400 X1.2626 Y-0.7955 Z-0.5806
N18405 X1.2624 Y-0.7957 Z-0.575
N18410 Z0.24
N18415 X-0.9803 Y-0.8724
N18420 Z-0.525
N18425 Z-0.575
N18430 X-0.9806 Y-0.8723 Z-0.5806
N18435 X-0.9814 Y-0.8719 Z-0.5861
N18440 X-0.9828 Y-0.8711 Z-0.5915
N18445 X-0.9847 Y-0.8701 Z-0.5967
N18450 X-0.9871 Y-0.8689 Z-0.6016
N18455 X-0.99 Y-0.8674 Z-0.6062
N18460 X-0.9933 Y-0.8657 Z-0.6104
N18465 X-0.997 Y-0.8637 Z-0.6141
N18470 X-1.0011 Y-0.8616 Z-0.6173
N18475 X-1.0054 Y-0.8594 Z-0.62
N18480 X-1.01 Y-0.857 Z-0.6222
N18485 X-1.0148 Y-0.8545 Z-0.6237
N18490 X-1.0197 Y-0.852 Z-0.6247
N18495 X-1.0247 Y-0.8494 Z-0.625
N18500 G3 X-1.2809 Y-0.7496 I-0.5888 J-1.1326
N18505 G1 X-1.3197 Y-0.7405
N18510 X-1.3347 Y-0.737
N18515 X-1.3497 Y-0.7332
N18520 X-1.3797 Y-0.7249
N18525 X-1.4455 Y-0.7035
N18530 X-1.4547 Y-0.7005
N18535 X-1.4906 Y-0.6885
N18540 X-1.4996 Y-0.6852
N18545 X-1.5302 Y-0.6735
N18550 X-1.5715 Y-0.6586
N18555 X-1.5896 Y-0.6525
N18560 X-1.6046 Y-0.6474
N18565 X-1.6147 Y-0.6436
N18570 X-1.6346 Y-0.6359
N18575 X-1.6496 Y-0.6302
N18580 X-1.6551 Y-0.6286
N18585 X-1.6796 Y-0.6221
N18590 X-1.6946 Y-0.6181
N18595 X-1.7246 Y-0.6106
N18600 X-1.7396 Y-0.6071
N18605 X-1.7696 Y-0.6018
N18610 X-1.7846 Y-0.6006
N18615 X-1.8146
N18620 X-1.8296 Y-0.6007
N18625 X-1.8596 Y-0.6011
N18630 X-1.8671 Y-0.6018
N18635 X-1.8746 Y-0.6036
N18640 X-1.8896 Y-0.6078
N18645 X-1.9046 Y-0.6117
N18650 X-1.9124 Y-0.6137
N18655 X-1.9345 Y-0.619
N18660 X-1.9495 Y-0.6227
N18665 X-1.9676 Y-0.6286
N18670 X-1.9795 Y-0.6326
N18675 X-1.9945 Y-0.6377
N18680 X-2.0245 Y-0.6489
N18685 X-2.0395 Y-0.6538
N18690 X-2.0695 Y-0.6636
N18695 X-2.0995 Y-0.6754
N18700 X-2.1145 Y-0.6812
N18705 X-2.1295 Y-0.6868
N18710 X-2.1445 Y-0.692
N18715 X-2.1804 Y-0.7035
N18720 X-2.1895 Y-0.7065
N18725 X-2.2195 Y-0.7167
N18730 X-2.2248 Y-0.7184
N18735 X-2.2345 Y-0.7215
N18740 X-2.2495 Y-0.7261
N18745 X-2.2645 Y-0.7303
N18750 X-2.2945 Y-0.7381
N18755 X-2.3095 Y-0.7417
N18760 X-2.3134 Y-0.7433 Z-0.6247
N18765 X-2.3173 Y-0.7449 Z-0.6238
N18770 X-2.321 Y-0.7465 Z-0.6223
N18775 X-2.3239 Y-0.7486 Z-0.6205
N18780 X-2.3265 Y-0.7506 Z-0.6181
N18785 X-2.3289 Y-0.7524 Z-0.6153
N18790 X-2.331 Y-0.754 Z-0.6122
N18795 X-2.3324 Y-0.7555 Z-0.6089
N18800 X-2.3335 Y-0.7567 Z-0.6054
N18805 X-2.3343 Y-0.7576 Z-0.6017
N18810 X-2.3348 Y-0.7581 Z-0.5979
N18815 X-2.3349 Y-0.7583 Z-0.5941
N18820 Z0.24
N18825 X-2.6752 Y0.8671
N18830 Z-0.5056
N18835 Z-0.5556
N18840 X-2.6749 Y0.8669 Z-0.5612
N18845 X-2.674 Y0.8665 Z-0.5667
N18850 X-2.6726 Y0.8658 Z-0.5721
N18855 X-2.6707 Y0.8649 Z-0.5773
N18860 X-2.6683 Y0.8637 Z-0.5822
N18865 X-2.6654 Y0.8622 Z-0.5867
N18870 X-2.6621 Y0.8606 Z-0.5909
N18875 X-2.6583 Y0.8587 Z-0.5947
N18880 X-2.6542 Y0.8567 Z-0.5979
N18885 X-2.6498 Y0.8545 Z-0.6006
N18890 X-2.6452 Y0.8522 Z-0.6028
N18895 X-2.6404 Y0.8498 Z-0.6043
N18900 X-2.6354 Y0.8473 Z-0.6053
N18905 X-2.6304 Y0.8448 Z-0.6056
N18910 G3 X-2.3725 Y0.7494 I0.5691 J1.1426
N18915 G1 X-2.3694 Y0.7488
N18920 X-2.3394 Y0.7411
N18925 X-2.3245 Y0.7368
N18930 X-2.2945 Y0.728
N18935 X-2.2795 Y0.7235
N18940 X-2.2633 Y0.7184
N18945 X-2.2495 Y0.7136
N18950 X-2.2345 Y0.7082
N18955 X-2.2218 Y0.7035
N18960 X-2.1895 Y0.6899
N18965 X-2.1864 Y0.6885
N18970 X-2.1745 Y0.6838
N18975 X-2.1595 Y0.678
N18980 X-2.148 Y0.6735
N18985 X-2.1141 Y0.6586
N18990 X-2.0995 Y0.6515
N18995 X-2.0845 Y0.6435
N19000 X-2.0695 Y0.6358
N19005 X-2.0395 Y0.6223
N19010 X-2.0245 Y0.6152
N19015 X-2.0214 Y0.6137
N19020 X-2.0095 Y0.6074
N19025 X-1.9945 Y0.599
N19030 X-1.9645 Y0.5806
N19035 X-1.9495 Y0.5733
N19040 X-1.9395 Y0.5688
N19045 X-1.9345 Y0.5665
N19050 X-1.9195 Y0.5593
N19055 X-1.889 Y0.5404
N19060 X-1.8884 Y0.5399
N19065 X-1.878 Y0.5325
N19070 X-1.8633 Y0.5234
N19075 X-1.848 Y0.5169
N19080 X-1.8318 Y0.5128
N19085 X-1.8152 Y0.511
N19090 X-1.7986 Y0.5118
N19095 X-1.7822 Y0.515
N19100 X-1.7665 Y0.5207
N19105 X-1.7518 Y0.5285
N19110 X-1.7385 Y0.5385
N19115 X-1.7381 Y0.5388
N19120 X-1.7246 Y0.5481
N19125 X-1.7156 Y0.5538
N19130 X-1.6857 Y0.5688
N19135 X-1.6796 Y0.5716
N19140 X-1.6646 Y0.5795
N19145 X-1.6346 Y0.5965
N19150 X-1.6196 Y0.6049
N19155 X-1.6046 Y0.6132
N19160 X-1.571 Y0.6286
N19165 X-1.5596 Y0.6342
N19170 X-1.5296 Y0.6494
N19175 X-1.5146 Y0.6565
N19180 X-1.4996 Y0.6636
N19185 X-1.4846 Y0.6702
N19190 X-1.4547 Y0.6823
N19195 X-1.4397 Y0.688
N19200 X-1.4247 Y0.6946
N19205 X-1.4097 Y0.7009
N19210 X-1.3797 Y0.7123
N19215 X-1.3647 Y0.7173
N19220 X-1.3497 Y0.7221
N19225 X-1.3347 Y0.7268
N19230 X-1.3047 Y0.7356
N19235 X-1.2897 Y0.7398
N19240 G3 X-1.2571 Y0.8025 Z-0.5976 I-0.015 J0.0477
N19245 X-1.3228 Y0.8341 I-0.0477 J-0.015
N19250 G1 X-1.8711 Y0.6219
N19255 G3 X-1.8884 Y0.6106 I0.018 J-0.0466
N19260 Y0.5399 Z-0.6056 I0.0354 J-0.0353
N19265 G1 X-1.8749 Y0.5274
N19270 X-1.8746 Y0.5269
N19275 X-1.8671 Y0.5164
N19280 X-1.8654 Y0.5089
N19285 X-1.8639 Y0.5036
N19290 X-1.8572 Y0.4929
N19295 X-1.8484 Y0.484
N19300 X-1.8378 Y0.4773
N19305 X-1.826 Y0.473
N19310 X-1.8136 Y0.4714
N19315 X-1.8011 Y0.4726
N19320 X-1.7891 Y0.4764
N19325 X-1.7783 Y0.4828
N19330 X-1.7692 Y0.4913
N19335 X-1.7621 Y0.5017
N19340 X-1.7574 Y0.5134
N19345 G3 X-1.7585 Y0.5369 I-0.0417 J0.0099
N19350 X-1.8654 Y0.5089 I-0.0525 J-0.0175
N19355 G1 X-1.8627 Y0.4967
N19360 X-1.8626 Y0.4939
N19365 Y0.4765
N19370 X-1.8625 Y0.4733
N19375 X-1.8609 Y0.4675
N19380 X-1.8587 Y0.4619
N19385 X-1.8515 Y0.4519
N19390 X-1.8422 Y0.4439
N19395 X-1.8313 Y0.4383
N19400 X-1.8193 Y0.4355
N19405 X-1.807 Y0.4356
N19410 X-1.7951 Y0.4387
N19415 X-1.7843 Y0.4444
N19420 X-1.7751 Y0.4526
N19425 X-1.7682 Y0.4628
N19430 X-1.7639 Y0.4743
N19435 X-1.7624 Y0.4865
N19440 X-1.7627 Y0.4897
N19445 X-1.7634 Y0.4929
N19450 X-1.7646 Y0.4959
N19455 G3 X-1.8626 Y0.4765 I-0.0467 J-0.0212
N19460 G1 Y0.4445
N19465 X-1.8623 Y0.4391
N19470 X-1.8611 Y0.4332
N19475 X-1.8591 Y0.4276
N19480 X-1.8565 Y0.4222
N19485 X-1.8532 Y0.4171
N19490 X-1.8451 Y0.4091
N19495 X-1.8354 Y0.4031
N19500 X-1.8246 Y0.3994
N19505 X-1.8133 Y0.3982
N19510 X-1.8019 Y0.3995
N19515 X-1.7912 Y0.4033
N19520 X-1.7815 Y0.4094
N19525 X-1.7735 Y0.4175
N19530 X-1.7674 Y0.4271
N19535 X-1.7637 Y0.4379
N19540 X-1.7624 Y0.4492
N19545 X-1.7626 Y0.4516
N19550 X-1.763 Y0.4539
N19555 G3 X-1.8626 Y0.4445 I-0.0492 J-0.0112
N19560 G1 Y0.4072
N19565 X-1.8623 Y0.402
N19570 X-1.8611 Y0.3961
N19575 X-1.8591 Y0.3905
N19580 X-1.8564 Y0.3851
N19585 X-1.8489 Y0.3759
N19590 X-1.8394 Y0.3687
N19595 X-1.8285 Y0.3639
N19600 X-1.8168 Y0.3618
N19605 X-1.8049 Y0.3624
N19610 X-1.7935 Y0.3658
N19615 X-1.7831 Y0.3717
N19620 X-1.7744 Y0.3798
N19625 X-1.7679 Y0.3898
N19630 X-1.7638 Y0.4009
N19635 X-1.7624 Y0.4128
N19640 X-1.7626 Y0.4156
N19645 X-1.7632 Y0.4183
N19650 G3 X-1.8626 Y0.4072 I-0.0489 J-0.0129
N19655 G1 Y0.3717
N19660 X-1.8623 Y0.3659
N19665 X-1.8611 Y0.3601
N19670 X-1.8592 Y0.3544
N19675 X-1.8524 Y0.344
N19680 X-1.8433 Y0.3356
N19685 X-1.8324 Y0.3296
N19690 X-1.8204 Y0.3264
N19695 X-1.808 Y0.3262
N19700 X-1.7959 Y0.329
N19705 X-1.7848 Y0.3347
N19710 X-1.7755 Y0.3428
N19715 X-1.7683 Y0.353
N19720 X-1.7639 Y0.3646
N19725 X-1.7624 Y0.3769
N19730 Y0.4128
N19735 G3 X-1.7828 Y0.4362 I-0.0247 J-0.0009
N19740 X-1.8626 Y0.3717 I-0.0119 J-0.0669
N19745 G1 Y0.336
N19750 X-1.8623 Y0.3303
N19755 X-1.8612 Y0.3244
N19760 X-1.8592 Y0.3187
N19765 X-1.8566 Y0.3133
N19770 X-1.8534 Y0.3082
N19775 X-1.8453 Y0.3001
N19780 X-1.8357 Y0.294
N19785 X-1.8249 Y0.2902
N19790 X-1.8135 Y0.2889
N19795 X-1.8021 Y0.2902
N19800 X-1.7913 Y0.2939
N19805 X-1.7816 Y0.3
N19810 X-1.7736 Y0.3081
N19815 X-1.7675 Y0.3178
N19820 X-1.7637 Y0.3286
N19825 X-1.7624 Y0.3399
N19830 Y0.3769
N19835 G3 X-1.7827 Y0.4004 I-0.0247 J-0.0009
N19840 X-1.8626 Y0.336 I-0.0122 J-0.0667
