(Project crankyanker_aug8)
(Created by Estlcam version 11 build 11.245)
(Machining time about 00:52:52 hours)

(Required tools:)
(End mill 1/8)

G90
M03 S12000
G00 Z0.19685

(No. 3: Hole 2)
G00 X0.23022 Y-0.00066 Z0.19685
G00 Z-0.04000
G03 X-0.11521 Y0.19946 I-0.23049 J0.00034 F5.00 S6000
G03 X-0.11580 Y-0.19976 I0.11495 J-0.19978
G03 X0.23022 Y-0.00066 I0.11554 J0.19944
G01 X0.27476 Y-0.00531
G03 X-0.27565 Y0.01371 I-0.27536 J0.00500
G03 X0.27476 Y-0.00531 I0.27504 J-0.01416
G01 X0.31931 Y-0.01114
G03 X-0.32060 Y0.02081 I-0.32022 J0.01071
G03 X0.31931 Y-0.01114 I0.31968 J-0.02142
G01 X0.36365 Y-0.01010
G03 X-0.36566 Y0.02054 I-0.36487 J0.01016
G03 X0.36365 Y-0.01010 I0.36443 J-0.02064
G01 X0.40864 Y-0.00765
G03 X-0.41093 Y0.01949 I-0.40998 J0.00781
G03 X0.40864 Y-0.00765 I0.40959 J-0.01951
G01 X0.45309 Y-0.00589
G03 X-0.22388 Y0.39708 I-0.45482 J0.00606
G03 X-0.23438 Y-0.39068 I0.22216 J-0.39691
G03 X0.45309 Y-0.00589 I0.23266 J0.39085
G00 Z-0.02031
G01 X-0.44581 Y0.09762
G01 Z-0.04000
G01 X-0.49011 Y0.10764
G01 X-0.49711 Y0.06476
G01 X-0.49160 Y0.09856
G01 X-0.53649 Y0.10589
G01 X-0.53999 Y0.08314
G01 X-0.53649 Y0.10589
G01 X-0.57849 Y0.12076
G01 X-0.58199 Y0.10939
G01 X-0.58461 Y0.08401
G01 X-0.57849 Y0.12076
G01 X-0.62049 Y0.13564
G01 X-0.62661 Y0.11726
G01 X-0.62924 Y0.08401
G01 X-0.62049 Y0.13564
G01 X-0.66249 Y0.15139
G01 X-0.67124 Y0.12426
G01 X-0.67386 Y0.08314
G01 X-0.66249 Y0.15139
G01 X-0.70449 Y0.16714
G01 X-0.71586 Y0.13126
G01 X-0.71849 Y0.08314
G01 X-0.70449 Y0.16714
G01 X-0.74649 Y0.18289
G01 X-0.76049 Y0.13826
G01 X-0.76311 Y0.08314
G01 X-0.74649 Y0.18289
G01 X-0.78849 Y0.19776
G01 X-0.80511 Y0.14526
G01 X-0.80774 Y0.08226
G01 X-0.78849 Y0.19776
G01 X-0.83049 Y0.21351
G01 X-0.84974 Y0.15226
G01 X-0.85236 Y0.08226
G01 X-0.83049 Y0.21351
G01 X-0.87249 Y0.22926
G01 X-0.89436 Y0.16014
G01 X-0.89699 Y0.08226
G01 X-0.87249 Y0.22926
G01 X-0.91449 Y0.24501
G01 X-0.93899 Y0.16801
G01 X-0.94161 Y0.08226
G01 X-0.91449 Y0.24501
G01 X-0.95649 Y0.25989
G01 X-0.98361 Y0.17589
G01 X-0.98624 Y0.08139
G00 Z0.19685
G00 X-0.40418 Y-0.21169
G00 Z0.01969
G01 Z-0.04000
G01 X-0.44461 Y-0.23186
G01 X-0.42186 Y-0.26949
G01 X-0.43918 Y-0.24085
G01 X-0.47786 Y-0.26424
G01 X-0.46649 Y-0.28261
G01 X-0.47786 Y-0.26424
G01 X-0.51986 Y-0.27911
G01 X-0.51636 Y-0.28786
G01 X-0.50061 Y-0.31149
G01 X-0.51986 Y-0.27911
G01 X-0.56186 Y-0.29399
G01 X-0.55486 Y-0.31149
G01 X-0.53474 Y-0.34036
G01 X-0.56186 Y-0.29399
G01 X-0.60386 Y-0.31061
G01 X-0.59336 Y-0.33511
G01 X-0.56886 Y-0.36924
G01 X-0.60386 Y-0.31061
G01 X-0.64674 Y-0.32461
G01 X-0.63186 Y-0.35874
G01 X-0.60299 Y-0.39811
G01 X-0.64674 Y-0.32461
G01 X-0.68874 Y-0.33949
G01 X-0.67036 Y-0.38236
G01 X-0.63711 Y-0.42699
G01 X-0.68874 Y-0.33949
G01 X-0.73074 Y-0.35524
G01 X-0.70886 Y-0.40599
G01 X-0.67124 Y-0.45586
G01 X-0.73074 Y-0.35524
G01 X-0.77274 Y-0.37011
G01 X-0.74824 Y-0.42786
G01 X-0.70536 Y-0.48474
G01 X-0.77274 Y-0.37011
G01 X-0.81474 Y-0.38499
G01 X-0.78674 Y-0.45149
G01 X-0.73949 Y-0.51361
G01 X-0.81474 Y-0.38499
G01 X-0.85674 Y-0.39986
G01 X-0.82524 Y-0.47511
G01 X-0.77361 Y-0.54249
G01 X-0.85674 Y-0.39986
G01 X-0.89874 Y-0.41649
G01 X-0.86374 Y-0.49874
G01 X-0.80774 Y-0.57136
G00 Z0.19685
G00 X-0.17509 Y-0.42023
G00 Z0.01969
G01 Z-0.04000
G01 X-0.19174 Y-0.46199
G01 X-0.14886 Y-0.47686
G01 X-0.18234 Y-0.46525
G01 X-0.19699 Y-0.50749
G01 X-0.17511 Y-0.51536
G01 X-0.19699 Y-0.50749
G01 X-0.21886 Y-0.54686
G01 X-0.18386 Y-0.55911
G01 X-0.21886 Y-0.54686
G01 X-0.24074 Y-0.58536
G01 X-0.23286 Y-0.58974
G01 X-0.19174 Y-0.60286
G01 X-0.24074 Y-0.58536
G01 X-0.26349 Y-0.62386
G01 X-0.25124 Y-0.63086
G01 X-0.19874 Y-0.64661
G01 X-0.26349 Y-0.62386
G01 X-0.28624 Y-0.66236
G01 X-0.26961 Y-0.67199
G01 X-0.20661 Y-0.69036
G01 X-0.28624 Y-0.66236
G01 X-0.30899 Y-0.70086
G01 X-0.28799 Y-0.71311
G01 X-0.21361 Y-0.73411
G01 X-0.30817 Y-0.70134
G01 X-0.33086 Y-0.74024
G01 X-0.30636 Y-0.75424
G01 X-0.22149 Y-0.77786
G01 X-0.33086 Y-0.74024
G01 X-0.35361 Y-0.77874
G01 X-0.32474 Y-0.79536
G01 X-0.22936 Y-0.82161
G01 X-0.35361 Y-0.77874
G01 X-0.37636 Y-0.81724
G01 X-0.34311 Y-0.83649
G01 X-0.23636 Y-0.86536
G01 X-0.37636 Y-0.81724
G01 X-0.39911 Y-0.85574
G01 X-0.36149 Y-0.87761
G01 X-0.24424 Y-0.90911
G01 X-0.39911 Y-0.85574
G01 X-0.42186 Y-0.89424
G01 X-0.37986 Y-0.91874
G01 X-0.25211 Y-0.95286
G00 Z0.19685
G00 X0.13462 Y-0.43370
G00 Z0.01969
G01 Z-0.04000
G01 X0.14776 Y-0.47599
G01 X0.19151 Y-0.46111
G01 X0.16061 Y-0.47162
G01 X0.17489 Y-0.51361
G01 X0.19676 Y-0.50661
G01 X0.17489 Y-0.51361
G01 X0.18364 Y-0.55736
G01 X0.21776 Y-0.54599
G01 X0.18364 Y-0.55736
G01 X0.19064 Y-0.60111
G01 X0.24051 Y-0.58449
G01 X0.19064 Y-0.60111
G01 X0.19851 Y-0.64486
G01 X0.26326 Y-0.62299
G01 X0.19851 Y-0.64486
G01 X0.20639 Y-0.68861
G01 X0.27464 Y-0.66674
G01 X0.28514 Y-0.66149
G01 X0.20639 Y-0.68861
G01 X0.21339 Y-0.73236
G01 X0.29301 Y-0.70786
G01 X0.30789 Y-0.69999
G01 X0.21339 Y-0.73236
G01 X0.22126 Y-0.77611
G01 X0.31139 Y-0.74899
G01 X0.33064 Y-0.73849
G01 X0.22126 Y-0.77611
G01 X0.22826 Y-0.81986
G01 X0.32976 Y-0.79011
G01 X0.35251 Y-0.77786
G01 X0.22826 Y-0.81986
G01 X0.23614 Y-0.86361
G01 X0.34814 Y-0.83124
G01 X0.37526 Y-0.81636
G01 X0.23614 Y-0.86361
G01 X0.24401 Y-0.90736
G01 X0.36651 Y-0.87236
G01 X0.39801 Y-0.85486
G01 X0.24401 Y-0.90736
G01 X0.25101 Y-0.95111
G01 X0.38489 Y-0.91349
G01 X0.42076 Y-0.89336
G00 Z0.19685
G00 X0.38176 Y-0.24460
G00 Z0.01969
G01 Z-0.04000
G01 X0.41901 Y-0.26949
G01 X0.44264 Y-0.22836
G01 X0.42479 Y-0.25942
G01 X0.46364 Y-0.28174
G01 X0.47501 Y-0.26161
G01 X0.46364 Y-0.28174
G01 X0.49864 Y-0.30974
G01 X0.51701 Y-0.27824
G01 X0.49864 Y-0.30974
G01 X0.53276 Y-0.33861
G01 X0.55464 Y-0.30361
G01 X0.55901 Y-0.29311
G01 X0.53276 Y-0.33861
G01 X0.56689 Y-0.36749
G01 X0.59314 Y-0.32724
G01 X0.60101 Y-0.30799
G01 X0.56689 Y-0.36749
G01 X0.60101 Y-0.39636
G01 X0.63164 Y-0.35086
G01 X0.64301 Y-0.32286
G01 X0.60101 Y-0.39636
G01 X0.63514 Y-0.42524
G01 X0.67014 Y-0.37449
G01 X0.68501 Y-0.33861
G01 X0.63514 Y-0.42524
G01 X0.66926 Y-0.45411
G01 X0.70864 Y-0.39811
G01 X0.72701 Y-0.35349
G01 X0.66926 Y-0.45411
G01 X0.70339 Y-0.48299
G01 X0.74714 Y-0.42174
G01 X0.76901 Y-0.36836
G01 X0.70339 Y-0.48299
G01 X0.73751 Y-0.51186
G01 X0.78564 Y-0.44536
G01 X0.81101 Y-0.38411
G01 X0.73751 Y-0.51186
G01 X0.77164 Y-0.54074
G01 X0.82414 Y-0.46899
G01 X0.85301 Y-0.39899
G01 X0.77164 Y-0.54074
G01 X0.80576 Y-0.56961
G01 X0.86351 Y-0.49086
G01 X0.89501 Y-0.41386
G00 Z0.19685
G00 X0.44972 Y0.05655
G00 Z0.01969
G01 Z-0.04000
G01 X0.49426 Y0.06301
G01 X0.48639 Y0.10851
G01 X0.49225 Y0.07465
G01 X0.53626 Y0.08226
G01 X0.53276 Y0.10501
G01 X0.53626 Y0.08226
G01 X0.58089 Y0.08401
G01 X0.57826 Y0.10851
G01 X0.57476 Y0.11901
G01 X0.58089 Y0.08401
G01 X0.62551
G01 X0.62289 Y0.11551
G01 X0.61676 Y0.13476
G01 X0.62551 Y0.08401
G01 X0.67014 Y0.08314
G01 X0.66751 Y0.12339
G01 X0.65876 Y0.15051
G01 X0.67014 Y0.08314
G01 X0.71476
G01 X0.71214 Y0.13039
G01 X0.70076 Y0.16626
G01 X0.71476 Y0.08314
G01 X0.75939
G01 X0.75676 Y0.13739
G01 X0.74276 Y0.18201
G01 X0.75939 Y0.08314
G01 X0.80401 Y0.08226
G01 X0.80139 Y0.14439
G01 X0.78476 Y0.19689
G01 X0.80401 Y0.08226
G01 X0.84864
G01 X0.84601 Y0.15139
G01 X0.82676 Y0.21176
G01 X0.84864 Y0.08226
G01 X0.89326
G01 X0.89064 Y0.15839
G01 X0.86876 Y0.22751
G01 X0.89326 Y0.08226
G01 X0.93789
G01 X0.93526 Y0.16539
G01 X0.91076 Y0.24326
G01 X0.93789 Y0.08226
G01 X0.98251 Y0.08139
G01 X0.97989 Y0.17239
G01 X0.95276 Y0.25901
G00 Z0.19685
G00 X0.30734 Y0.33385
G00 Z0.01969
G01 Z-0.04000
G01 X0.33764 Y0.36664
G01 X0.30351 Y0.39639
G01 X0.32827 Y0.37481
G01 X0.35776 Y0.40864
G01 X0.34026 Y0.42351
G01 X0.35776 Y0.40864
G01 X0.39189 Y0.43751
G01 X0.36389 Y0.46201
G01 X0.39189 Y0.43751
G01 X0.42601 Y0.46639
G01 X0.39539 Y0.49439
G01 X0.38576 Y0.50051
G01 X0.42601 Y0.46639
G01 X0.46014 Y0.49439
G01 X0.42689 Y0.52676
G01 X0.40851 Y0.53901
G01 X0.46014 Y0.49439
G01 X0.49426 Y0.52326
G01 X0.45926 Y0.55826
G01 X0.43039 Y0.57839
G01 X0.49426 Y0.52326
G01 X0.52839 Y0.55126
G01 X0.48726 Y0.59326
G01 X0.45314 Y0.61689
G01 X0.52839 Y0.55126
G01 X0.56251 Y0.58014
G01 X0.51526 Y0.62826
G01 X0.47501 Y0.65626
G01 X0.56251 Y0.58014
G01 X0.59664 Y0.60814
G01 X0.54326 Y0.66326
G01 X0.49776 Y0.69476
G01 X0.59664 Y0.60814
G01 X0.63076 Y0.63701
G01 X0.57126 Y0.69826
G01 X0.51964 Y0.73414
G01 X0.63076 Y0.63701
G01 X0.66576 Y0.66501
G01 X0.59926 Y0.73326
G01 X0.54239 Y0.77264
G01 X0.66576 Y0.66501
G01 X0.69989 Y0.69389
G01 X0.62726 Y0.76826
G01 X0.56426 Y0.81201
G00 Z0.19685
G00 X0.01881 Y0.45456
G00 Z0.01969
G01 Z-0.04000
G01 X0.02176 Y0.49964
G01 X-0.02286 Y0.49876
G01 X0.01214 Y0.49945
G01 X0.01126 Y0.54426
G01 X-0.01149 Y0.54339
G01 X0.01126 Y0.54426
G01 X0.01914 Y0.58801
G01 X-0.00011 Y0.58889
G01 X-0.01761 Y0.58714
G01 X0.01914 Y0.58801
G01 X0.02701 Y0.63176
G01 X-0.00449 Y0.63351
G01 X-0.02636 Y0.63089
G01 X0.02701 Y0.63176
G01 X0.03489 Y0.67551
G01 X-0.00799 Y0.67814
G01 X-0.03424 Y0.67464
G01 X0.03489 Y0.67551
G01 X0.04276 Y0.71926
G01 X-0.01149 Y0.72276
G01 X-0.04211 Y0.71839
G01 X0.04276 Y0.71926
G01 X0.05064 Y0.76301
G01 X-0.01411 Y0.76739
G01 X-0.04999 Y0.76214
G01 X0.05064 Y0.76301
G01 X0.05851 Y0.80676
G01 X-0.01674 Y0.81201
G01 X-0.05786 Y0.80589
G01 X0.05851 Y0.80676
G01 X0.06639 Y0.85051
G01 X-0.01936 Y0.85664
G01 X-0.06574 Y0.84964
G01 X0.06639 Y0.85051
G01 X0.07426 Y0.89426
G01 X-0.02199 Y0.90126
G01 X-0.07361 Y0.89339
G01 X0.07426 Y0.89426
G01 X0.08214 Y0.93801
G01 X-0.02461 Y0.94589
G01 X-0.08149 Y0.93714
G01 X0.08214 Y0.93801
G01 X0.09001 Y0.98176
G01 X-0.02724 Y0.99051
G01 X-0.08936 Y0.98089
G00 Z0.19685
G00 X-0.27749 Y0.36176
G00 Z0.01969
G01 Z-0.04000
G01 X-0.30549 Y0.39726
G01 X-0.33874 Y0.36926
G01 X-0.31320 Y0.39077
G01 X-0.34224 Y0.42526
G01 X-0.35974 Y0.41039
G01 X-0.34224 Y0.42526
G01 X-0.36499 Y0.46376
G01 X-0.39386 Y0.43926
G01 X-0.36499 Y0.46376
G01 X-0.38774 Y0.50226
G01 X-0.42799 Y0.46814
G01 X-0.38774 Y0.50226
G01 X-0.40961 Y0.54164
G01 X-0.45336 Y0.50576
G01 X-0.46211 Y0.49614
G01 X-0.40961 Y0.54164
G01 X-0.43236 Y0.58014
G01 X-0.47961 Y0.54251
G01 X-0.49624 Y0.52501
G01 X-0.43236 Y0.58014
G01 X-0.45424 Y0.61951
G01 X-0.50674 Y0.57839
G01 X-0.53036 Y0.55389
G01 X-0.45424 Y0.61951
G01 X-0.47699 Y0.65801
G01 X-0.53386 Y0.61426
G01 X-0.56536 Y0.58189
G01 X-0.47699 Y0.65801
G01 X-0.49886 Y0.69739
G01 X-0.56099 Y0.65014
G01 X-0.59949 Y0.61076
G01 X-0.49886 Y0.69739
G01 X-0.52161 Y0.73589
G01 X-0.58811 Y0.68601
G01 X-0.63361 Y0.63964
G01 X-0.52161 Y0.73589
G01 X-0.54349 Y0.77526
G01 X-0.61524 Y0.72189
G01 X-0.66774 Y0.66764
G00 Z0.19685
G00 X-0.54349 Y0.77526
G00 Z0.01969
G01 Z-0.04000
G01 X-0.56624 Y0.81376
G01 X-0.64236 Y0.75776
G01 X-0.70186 Y0.69651
G00 Z0.19685
G00 X-0.70099 Y0.69476
G00 Z-0.02031
G01 Z-0.04000
G01 X-0.71321 Y0.67576
G01 X-0.38256 Y0.40076
G02 X-0.37319 Y0.31213 I-0.04030 J-0.04907
G03 X-0.45853 Y0.16336 I0.38367 J-0.31896
G02 X-0.53798 Y0.13079 I-0.05747 J0.02700
G01 X-0.99258 Y0.29842
G03 X-1.03452 Y0.05899 I0.97052 J-0.29339
G01 X-0.55067 Y0.06110
G02 X-0.48652 Y-0.00077 I0.00067 J-0.06350
G03 X-0.45626 Y-0.16960 I0.49893 J0.00228
G02 X-0.49619 Y-0.24562 I-0.06138 J-0.01626
G01 X-0.95218 Y-0.40942
G03 X-0.83040 Y-0.61979 I0.93205 J0.39909
G01 X-0.46111 Y-0.30716
G02 X-0.37220 Y-0.31332 I0.04133 J-0.04821
G03 X-0.24050 Y-0.42320 I0.38073 J0.32245
G02 X-0.22222 Y-0.50710 I-0.03657 J-0.05191
G01 X-0.46624 Y-0.92568
G03 X-0.23773 Y-1.00856 I0.45746 J0.90483
G01 X-0.15579 Y-0.53169
G02 X-0.08372 Y-0.47926 I0.06265 J-0.01037
G03 X0.08779 Y-0.47878 I0.08439 J0.49174
G02 X0.15573 Y-0.53130 I0.00535 J-0.06327
G01 X0.23785 Y-1.00881
G03 X0.46618 Y-0.92541 I-0.23117 J0.98719
G01 X0.22242 Y-0.50744
G02 X0.24393 Y-0.42095 I0.05466 J0.03233
G03 X0.37501 Y-0.31034 I-0.25144 J0.43094
G02 X0.46081 Y-0.30690 I0.04477 J-0.04503
G01 X0.83065 Y-0.61990
G03 X0.95196 Y-0.40926 I-0.81164 J0.60764
G01 X0.49656 Y-0.24575
G02 X0.45744 Y-0.16567 I0.02109 J0.05990
G03 X0.48675 Y0.00332 I-0.46962 J0.16850
G02 X0.55027 Y0.06110 I0.06324 J-0.00572
G01 X1.03478 Y0.05906
G03 X0.99230 Y0.29840 I-1.01234 J-0.05624
G01 X0.53835 Y0.13093
G02 X0.45691 Y0.16712 I-0.02235 J0.05944
G03 X0.37074 Y0.31542 I-0.46806 J-0.17279
G02 X0.38226 Y0.40051 I0.05212 J0.03627
G01 X0.75473 Y0.71039
G03 X0.56834 Y0.86643 I-0.73935 J-0.69380
G01 X0.32825 Y0.44634
G02 X0.24259 Y0.42172 I-0.05533 J0.03117
G03 X0.08125 Y0.47993 I-0.24749 J-0.43322
G02 X0.03538 Y0.55252 I0.01661 J0.06129
G01 X0.12152 Y1.02932
G03 X-0.12155 Y1.02905 I-0.12041 J-1.00672
G01 X-0.03545 Y0.55291
G02 X-0.08524 Y0.47899 I-0.06242 J-0.01168
G03 X-0.24625 Y0.41988 I0.08888 J-0.49095
G02 X-0.32805 Y0.44600 I-0.02667 J0.05763
G01 X-0.56854 Y0.86662
G03 X-0.75457 Y0.71016 I0.55487 J-0.84859
G01 X-0.71321 Y0.67576
G00 Z0.19685
G00 X-0.15663 Y0.16878
G00 Z-0.08000
G03 X-0.06831 Y-0.22055 I0.15655 J-0.16917
G03 X0.22470 Y0.05060 I0.06823 J0.22016
G03 X-0.15663 Y0.16878 I-0.22478 J-0.05099
G01 X-0.19146 Y0.19800
G03 X0.18404 Y-0.20489 I0.19092 J-0.19848
G03 X-0.19146 Y0.19800 I-0.18447 J0.20450
G01 X-0.21965 Y0.23338
G03 X0.21020 Y-0.24172 I0.21882 J-0.23403
G03 X-0.21965 Y0.23338 I-0.21090 J0.24119
G01 X-0.24453 Y0.27190
G03 X0.23404 Y-0.27927 I0.24338 J-0.27203
G03 X-0.24453 Y0.27190 I-0.23507 J0.27924
G01 X-0.27695 Y0.30349
G03 X0.26576 Y-0.31125 I0.27569 J-0.30354
G03 X-0.27695 Y0.30349 I-0.26689 J0.31131
G01 X-0.30183 Y0.34174
G03 X-0.14728 Y-0.43079 I0.30029 J-0.34165
G03 X0.44447 Y0.08933 I0.14573 J0.43088
G03 X-0.30183 Y0.34174 I-0.44602 J-0.08923
G00 Z-0.06031
G01 X-0.44581 Y0.09762
G01 Z-0.08000
G01 X-0.49011 Y0.10764
G01 X-0.49711 Y0.06476
G01 X-0.49160 Y0.09856
G01 X-0.53649 Y0.10589
G01 X-0.53999 Y0.08314
G01 X-0.53649 Y0.10589
G01 X-0.57849 Y0.12076
G01 X-0.58199 Y0.10939
G01 X-0.58461 Y0.08401
G01 X-0.57849 Y0.12076
G01 X-0.62049 Y0.13564
G01 X-0.62661 Y0.11726
G01 X-0.62924 Y0.08401
G01 X-0.62049 Y0.13564
G01 X-0.66249 Y0.15139
G01 X-0.67124 Y0.12426
G01 X-0.67386 Y0.08314
G01 X-0.66249 Y0.15139
G01 X-0.70449 Y0.16714
G01 X-0.71586 Y0.13126
G01 X-0.71849 Y0.08314
G01 X-0.70449 Y0.16714
G01 X-0.74649 Y0.18289
G01 X-0.76049 Y0.13826
G01 X-0.76311 Y0.08314
G01 X-0.74649 Y0.18289
G01 X-0.78849 Y0.19776
G01 X-0.80511 Y0.14526
G01 X-0.80774 Y0.08226
G01 X-0.78849 Y0.19776
G01 X-0.83049 Y0.21351
G01 X-0.84974 Y0.15226
G01 X-0.85236 Y0.08226
G01 X-0.83049 Y0.21351
G01 X-0.87249 Y0.22926
G01 X-0.89436 Y0.16014
G01 X-0.89699 Y0.08226
G01 X-0.87249 Y0.22926
G01 X-0.91449 Y0.24501
G01 X-0.93899 Y0.16801
G01 X-0.94161 Y0.08226
G01 X-0.91449 Y0.24501
G01 X-0.95649 Y0.25989
G01 X-0.98361 Y0.17589
G01 X-0.98624 Y0.08139
G00 Z0.19685
G00 X-0.40418 Y-0.21169
G00 Z-0.02031
G01 Z-0.08000
G01 X-0.44461 Y-0.23186
G01 X-0.42186 Y-0.26949
G01 X-0.43918 Y-0.24085
G01 X-0.47786 Y-0.26424
G01 X-0.46649 Y-0.28261
G01 X-0.47786 Y-0.26424
G01 X-0.51986 Y-0.27911
G01 X-0.51636 Y-0.28786
G01 X-0.50061 Y-0.31149
G01 X-0.51986 Y-0.27911
G01 X-0.56186 Y-0.29399
G01 X-0.55486 Y-0.31149
G01 X-0.53474 Y-0.34036
G01 X-0.56186 Y-0.29399
G01 X-0.60386 Y-0.31061
G01 X-0.59336 Y-0.33511
G01 X-0.56886 Y-0.36924
G01 X-0.60386 Y-0.31061
G01 X-0.64674 Y-0.32461
G01 X-0.63186 Y-0.35874
G01 X-0.60299 Y-0.39811
G01 X-0.64674 Y-0.32461
G01 X-0.68874 Y-0.33949
G01 X-0.67036 Y-0.38236
G01 X-0.63711 Y-0.42699
G01 X-0.68874 Y-0.33949
G01 X-0.73074 Y-0.35524
G01 X-0.70886 Y-0.40599
G01 X-0.67124 Y-0.45586
G01 X-0.73074 Y-0.35524
G01 X-0.77274 Y-0.37011
G01 X-0.74824 Y-0.42786
G01 X-0.70536 Y-0.48474
G01 X-0.77274 Y-0.37011
G01 X-0.81474 Y-0.38499
G01 X-0.78674 Y-0.45149
G01 X-0.73949 Y-0.51361
G01 X-0.81474 Y-0.38499
G01 X-0.85674 Y-0.39986
G01 X-0.82524 Y-0.47511
G01 X-0.77361 Y-0.54249
G01 X-0.85674 Y-0.39986
G01 X-0.89874 Y-0.41649
G01 X-0.86374 Y-0.49874
G01 X-0.80774 Y-0.57136
G00 Z0.19685
G00 X-0.17509 Y-0.42023
G00 Z-0.02031
G01 Z-0.08000
G01 X-0.19174 Y-0.46199
G01 X-0.14886 Y-0.47686
G01 X-0.18234 Y-0.46525
G01 X-0.19699 Y-0.50749
G01 X-0.17511 Y-0.51536
G01 X-0.19699 Y-0.50749
G01 X-0.21886 Y-0.54686
G01 X-0.18386 Y-0.55911
G01 X-0.21886 Y-0.54686
G01 X-0.24074 Y-0.58536
G01 X-0.23286 Y-0.58974
G01 X-0.19174 Y-0.60286
G01 X-0.24074 Y-0.58536
G01 X-0.26349 Y-0.62386
G01 X-0.25124 Y-0.63086
G01 X-0.19874 Y-0.64661
G01 X-0.26349 Y-0.62386
G01 X-0.28624 Y-0.66236
G01 X-0.26961 Y-0.67199
G01 X-0.20661 Y-0.69036
G01 X-0.28624 Y-0.66236
G01 X-0.30899 Y-0.70086
G01 X-0.28799 Y-0.71311
G01 X-0.21361 Y-0.73411
G01 X-0.30817 Y-0.70134
G01 X-0.33086 Y-0.74024
G01 X-0.30636 Y-0.75424
G01 X-0.22149 Y-0.77786
G01 X-0.33086 Y-0.74024
G01 X-0.35361 Y-0.77874
G01 X-0.32474 Y-0.79536
G01 X-0.22936 Y-0.82161
G01 X-0.35361 Y-0.77874
G01 X-0.37636 Y-0.81724
G01 X-0.34311 Y-0.83649
G01 X-0.23636 Y-0.86536
G01 X-0.37636 Y-0.81724
G01 X-0.39911 Y-0.85574
G01 X-0.36149 Y-0.87761
G01 X-0.24424 Y-0.90911
G01 X-0.39911 Y-0.85574
G01 X-0.42186 Y-0.89424
G01 X-0.37986 Y-0.91874
G01 X-0.25211 Y-0.95286
G00 Z0.19685
G00 X0.13462 Y-0.43370
G00 Z-0.02031
G01 Z-0.08000
G01 X0.14776 Y-0.47599
G01 X0.19151 Y-0.46111
G01 X0.16061 Y-0.47162
G01 X0.17489 Y-0.51361
G01 X0.19676 Y-0.50661
G01 X0.17489 Y-0.51361
G01 X0.18364 Y-0.55736
G01 X0.21776 Y-0.54599
G01 X0.18364 Y-0.55736
G01 X0.19064 Y-0.60111
G01 X0.24051 Y-0.58449
G01 X0.19064 Y-0.60111
G01 X0.19851 Y-0.64486
G01 X0.26326 Y-0.62299
G01 X0.19851 Y-0.64486
G01 X0.20639 Y-0.68861
G01 X0.27464 Y-0.66674
G01 X0.28514 Y-0.66149
G01 X0.20639 Y-0.68861
G01 X0.21339 Y-0.73236
G01 X0.29301 Y-0.70786
G01 X0.30789 Y-0.69999
G01 X0.21339 Y-0.73236
G01 X0.22126 Y-0.77611
G01 X0.31139 Y-0.74899
G01 X0.33064 Y-0.73849
G01 X0.22126 Y-0.77611
G01 X0.22826 Y-0.81986
G01 X0.32976 Y-0.79011
G01 X0.35251 Y-0.77786
G01 X0.22826 Y-0.81986
G01 X0.23614 Y-0.86361
G01 X0.34814 Y-0.83124
G01 X0.37526 Y-0.81636
G01 X0.23614 Y-0.86361
G01 X0.24401 Y-0.90736
G01 X0.36651 Y-0.87236
G01 X0.39801 Y-0.85486
G01 X0.24401 Y-0.90736
G01 X0.25101 Y-0.95111
G01 X0.38489 Y-0.91349
G01 X0.42076 Y-0.89336
G00 Z0.19685
G00 X0.38176 Y-0.24460
G00 Z-0.02031
G01 Z-0.08000
G01 X0.41901 Y-0.26949
G01 X0.44264 Y-0.22836
G01 X0.42479 Y-0.25942
G01 X0.46364 Y-0.28174
G01 X0.47501 Y-0.26161
G01 X0.46364 Y-0.28174
G01 X0.49864 Y-0.30974
G01 X0.51701 Y-0.27824
G01 X0.49864 Y-0.30974
G01 X0.53276 Y-0.33861
G01 X0.55464 Y-0.30361
G01 X0.55901 Y-0.29311
G01 X0.53276 Y-0.33861
G01 X0.56689 Y-0.36749
G01 X0.59314 Y-0.32724
G01 X0.60101 Y-0.30799
G01 X0.56689 Y-0.36749
G01 X0.60101 Y-0.39636
G01 X0.63164 Y-0.35086
G01 X0.64301 Y-0.32286
G01 X0.60101 Y-0.39636
G01 X0.63514 Y-0.42524
G01 X0.67014 Y-0.37449
G01 X0.68501 Y-0.33861
G01 X0.63514 Y-0.42524
G01 X0.66926 Y-0.45411
G01 X0.70864 Y-0.39811
G01 X0.72701 Y-0.35349
G01 X0.66926 Y-0.45411
G01 X0.70339 Y-0.48299
G01 X0.74714 Y-0.42174
G01 X0.76901 Y-0.36836
G01 X0.70339 Y-0.48299
G01 X0.73751 Y-0.51186
G01 X0.78564 Y-0.44536
G01 X0.81101 Y-0.38411
G01 X0.73751 Y-0.51186
G01 X0.77164 Y-0.54074
G01 X0.82414 Y-0.46899
G01 X0.85301 Y-0.39899
G01 X0.77164 Y-0.54074
G01 X0.80576 Y-0.56961
G01 X0.86351 Y-0.49086
G01 X0.89501 Y-0.41386
G00 Z0.19685
G00 X0.44972 Y0.05655
G00 Z-0.02031
G01 Z-0.08000
G01 X0.49426 Y0.06301
G01 X0.48639 Y0.10851
G01 X0.49225 Y0.07465
G01 X0.53626 Y0.08226
G01 X0.53276 Y0.10501
G01 X0.53626 Y0.08226
G01 X0.58089 Y0.08401
G01 X0.57826 Y0.10851
G01 X0.57476 Y0.11901
G01 X0.58089 Y0.08401
G01 X0.62551
G01 X0.62289 Y0.11551
G01 X0.61676 Y0.13476
G01 X0.62551 Y0.08401
G01 X0.67014 Y0.08314
G01 X0.66751 Y0.12339
G01 X0.65876 Y0.15051
G01 X0.67014 Y0.08314
G01 X0.71476
G01 X0.71214 Y0.13039
G01 X0.70076 Y0.16626
G01 X0.71476 Y0.08314
G01 X0.75939
G01 X0.75676 Y0.13739
G01 X0.74276 Y0.18201
G01 X0.75939 Y0.08314
G01 X0.80401 Y0.08226
G01 X0.80139 Y0.14439
G01 X0.78476 Y0.19689
G01 X0.80401 Y0.08226
G01 X0.84864
G01 X0.84601 Y0.15139
G01 X0.82676 Y0.21176
G01 X0.84864 Y0.08226
G01 X0.89326
G01 X0.89064 Y0.15839
G01 X0.86876 Y0.22751
G01 X0.89326 Y0.08226
G01 X0.93789
G01 X0.93526 Y0.16539
G01 X0.91076 Y0.24326
G01 X0.93789 Y0.08226
G01 X0.98251 Y0.08139
G01 X0.97989 Y0.17239
G01 X0.95276 Y0.25901
G00 Z0.19685
G00 X0.30734 Y0.33385
G00 Z-0.02031
G01 Z-0.08000
G01 X0.33764 Y0.36664
G01 X0.30351 Y0.39639
G01 X0.32827 Y0.37481
G01 X0.35776 Y0.40864
G01 X0.34026 Y0.42351
G01 X0.35776 Y0.40864
G01 X0.39189 Y0.43751
G01 X0.36389 Y0.46201
G01 X0.39189 Y0.43751
G01 X0.42601 Y0.46639
G01 X0.39539 Y0.49439
G01 X0.38576 Y0.50051
G01 X0.42601 Y0.46639
G01 X0.46014 Y0.49439
G01 X0.42689 Y0.52676
G01 X0.40851 Y0.53901
G01 X0.46014 Y0.49439
G01 X0.49426 Y0.52326
G01 X0.45926 Y0.55826
G01 X0.43039 Y0.57839
G01 X0.49426 Y0.52326
G01 X0.52839 Y0.55126
G01 X0.48726 Y0.59326
G01 X0.45314 Y0.61689
G01 X0.52839 Y0.55126
G01 X0.56251 Y0.58014
G01 X0.51526 Y0.62826
G01 X0.47501 Y0.65626
G01 X0.56251 Y0.58014
G01 X0.59664 Y0.60814
G01 X0.54326 Y0.66326
G01 X0.49776 Y0.69476
G01 X0.59664 Y0.60814
G01 X0.63076 Y0.63701
G01 X0.57126 Y0.69826
G01 X0.51964 Y0.73414
G01 X0.63076 Y0.63701
G01 X0.66576 Y0.66501
G01 X0.59926 Y0.73326
G01 X0.54239 Y0.77264
G01 X0.66576 Y0.66501
G01 X0.69989 Y0.69389
G01 X0.62726 Y0.76826
G01 X0.56426 Y0.81201
G00 Z0.19685
G00 X0.01881 Y0.45456
G00 Z-0.02031
G01 Z-0.08000
G01 X0.02176 Y0.49964
G01 X-0.02286 Y0.49876
G01 X0.01214 Y0.49945
G01 X0.01126 Y0.54426
G01 X-0.01149 Y0.54339
G01 X0.01126 Y0.54426
G01 X0.01914 Y0.58801
G01 X-0.00011 Y0.58889
G01 X-0.01761 Y0.58714
G01 X0.01914 Y0.58801
G01 X0.02701 Y0.63176
G01 X-0.00449 Y0.63351
G01 X-0.02636 Y0.63089
G01 X0.02701 Y0.63176
G01 X0.03489 Y0.67551
G01 X-0.00799 Y0.67814
G01 X-0.03424 Y0.67464
G01 X0.03489 Y0.67551
G01 X0.04276 Y0.71926
G01 X-0.01149 Y0.72276
G01 X-0.04211 Y0.71839
G01 X0.04276 Y0.71926
G01 X0.05064 Y0.76301
G01 X-0.01411 Y0.76739
G01 X-0.04999 Y0.76214
G01 X0.05064 Y0.76301
G01 X0.05851 Y0.80676
G01 X-0.01674 Y0.81201
G01 X-0.05786 Y0.80589
G01 X0.05851 Y0.80676
G01 X0.06639 Y0.85051
G01 X-0.01936 Y0.85664
G01 X-0.06574 Y0.84964
G01 X0.06639 Y0.85051
G01 X0.07426 Y0.89426
G01 X-0.02199 Y0.90126
G01 X-0.07361 Y0.89339
G01 X0.07426 Y0.89426
G01 X0.08214 Y0.93801
G01 X-0.02461 Y0.94589
G01 X-0.08149 Y0.93714
G01 X0.08214 Y0.93801
G01 X0.09001 Y0.98176
G01 X-0.02724 Y0.99051
G01 X-0.08936 Y0.98089
G00 Z0.19685
G00 X-0.27749 Y0.36176
G00 Z-0.02031
G01 Z-0.08000
G01 X-0.30549 Y0.39726
G01 X-0.33874 Y0.36926
G01 X-0.31320 Y0.39077
G01 X-0.34224 Y0.42526
G01 X-0.35974 Y0.41039
G01 X-0.34224 Y0.42526
G01 X-0.36499 Y0.46376
G01 X-0.39386 Y0.43926
G01 X-0.36499 Y0.46376
G01 X-0.38774 Y0.50226
G01 X-0.42799 Y0.46814
G01 X-0.38774 Y0.50226
G01 X-0.40961 Y0.54164
G01 X-0.45336 Y0.50576
G01 X-0.46211 Y0.49614
G01 X-0.40961 Y0.54164
G01 X-0.43236 Y0.58014
G01 X-0.47961 Y0.54251
G01 X-0.49624 Y0.52501
G01 X-0.43236 Y0.58014
G01 X-0.45424 Y0.61951
G01 X-0.50674 Y0.57839
G01 X-0.53036 Y0.55389
G01 X-0.45424 Y0.61951
G01 X-0.47699 Y0.65801
G01 X-0.53386 Y0.61426
G01 X-0.56536 Y0.58189
G01 X-0.47699 Y0.65801
G01 X-0.49886 Y0.69739
G01 X-0.56099 Y0.65014
G01 X-0.59949 Y0.61076
G01 X-0.49886 Y0.69739
G01 X-0.52161 Y0.73589
G01 X-0.58811 Y0.68601
G01 X-0.63361 Y0.63964
G01 X-0.52161 Y0.73589
G01 X-0.54349 Y0.77526
G01 X-0.61524 Y0.72189
G01 X-0.66774 Y0.66764
G00 Z0.19685
G00 X-0.54349 Y0.77526
G00 Z-0.02031
G01 Z-0.08000
G01 X-0.56624 Y0.81376
G01 X-0.64236 Y0.75776
G01 X-0.70186 Y0.69651
G00 Z0.19685
G00 X-0.70099 Y0.69476
G00 Z-0.06031
G01 Z-0.08000
G01 X-0.71321 Y0.67576
G01 X-0.38256 Y0.40076
G02 X-0.37319 Y0.31213 I-0.04030 J-0.04907
G03 X-0.45853 Y0.16336 I0.38367 J-0.31896
G02 X-0.53798 Y0.13079 I-0.05747 J0.02700
G01 X-0.99258 Y0.29842
G03 X-1.03452 Y0.05899 I0.97052 J-0.29339
G01 X-0.55067 Y0.06110
G02 X-0.48652 Y-0.00077 I0.00067 J-0.06350
G03 X-0.45626 Y-0.16960 I0.49893 J0.00228
G02 X-0.49619 Y-0.24562 I-0.06138 J-0.01626
G01 X-0.95218 Y-0.40942
G03 X-0.83040 Y-0.61979 I0.93205 J0.39909
G01 X-0.46111 Y-0.30716
G02 X-0.37220 Y-0.31332 I0.04133 J-0.04821
G03 X-0.24050 Y-0.42320 I0.38073 J0.32245
G02 X-0.22222 Y-0.50710 I-0.03657 J-0.05191
G01 X-0.46624 Y-0.92568
G03 X-0.23773 Y-1.00856 I0.45746 J0.90483
G01 X-0.15579 Y-0.53169
G02 X-0.08372 Y-0.47926 I0.06265 J-0.01037
G03 X0.08779 Y-0.47878 I0.08439 J0.49174
G02 X0.15573 Y-0.53130 I0.00535 J-0.06327
G01 X0.23785 Y-1.00881
G03 X0.46618 Y-0.92541 I-0.23117 J0.98719
G01 X0.22242 Y-0.50744
G02 X0.24393 Y-0.42095 I0.05466 J0.03233
G03 X0.37501 Y-0.31034 I-0.25144 J0.43094
G02 X0.46081 Y-0.30690 I0.04477 J-0.04503
G01 X0.83065 Y-0.61990
G03 X0.95196 Y-0.40926 I-0.81164 J0.60764
G01 X0.49656 Y-0.24575
G02 X0.45744 Y-0.16567 I0.02109 J0.05990
G03 X0.48675 Y0.00332 I-0.46962 J0.16850
G02 X0.55027 Y0.06110 I0.06324 J-0.00572
G01 X1.03478 Y0.05906
G03 X0.99230 Y0.29840 I-1.01234 J-0.05624
G01 X0.53835 Y0.13093
G02 X0.45691 Y0.16712 I-0.02235 J0.05944
G03 X0.37074 Y0.31542 I-0.46806 J-0.17279
G02 X0.38226 Y0.40051 I0.05212 J0.03627
G01 X0.75473 Y0.71039
G03 X0.56834 Y0.86643 I-0.73935 J-0.69380
G01 X0.32825 Y0.44634
G02 X0.24259 Y0.42172 I-0.05533 J0.03117
G03 X0.08125 Y0.47993 I-0.24749 J-0.43322
G02 X0.03538 Y0.55252 I0.01661 J0.06129
G01 X0.12152 Y1.02932
G03 X-0.12155 Y1.02905 I-0.12041 J-1.00672
G01 X-0.03545 Y0.55291
G02 X-0.08524 Y0.47899 I-0.06242 J-0.01168
G03 X-0.24625 Y0.41988 I0.08888 J-0.49095
G02 X-0.32805 Y0.44600 I-0.02667 J0.05763
G01 X-0.56854 Y0.86662
G03 X-0.75457 Y0.71016 I0.55487 J-0.84859
G01 X-0.71321 Y0.67576
G00 Z0.19685
G00 X-0.15663 Y0.16878
G00 Z-0.12000
G03 X-0.06831 Y-0.22055 I0.15655 J-0.16917
G03 X0.22470 Y0.05060 I0.06823 J0.22016
G03 X-0.15663 Y0.16878 I-0.22478 J-0.05099
G01 X-0.19146 Y0.19800
G03 X0.18404 Y-0.20489 I0.19092 J-0.19848
G03 X-0.19146 Y0.19800 I-0.18447 J0.20450
G01 X-0.21965 Y0.23338
G03 X0.21020 Y-0.24172 I0.21882 J-0.23403
G03 X-0.21965 Y0.23338 I-0.21090 J0.24119
G01 X-0.24453 Y0.27190
G03 X0.23404 Y-0.27927 I0.24338 J-0.27203
G03 X-0.24453 Y0.27190 I-0.23507 J0.27924
G01 X-0.27695 Y0.30349
G03 X0.26576 Y-0.31125 I0.27569 J-0.30354
G03 X-0.27695 Y0.30349 I-0.26689 J0.31131
G01 X-0.30183 Y0.34174
G03 X-0.14728 Y-0.43079 I0.30029 J-0.34165
G03 X0.44447 Y0.08933 I0.14573 J0.43088
G03 X-0.30183 Y0.34174 I-0.44602 J-0.08923
G00 Z-0.10031
G01 X-0.44581 Y0.09762
G01 Z-0.12000
G01 X-0.49011 Y0.10764
G01 X-0.49711 Y0.06476
G01 X-0.49160 Y0.09856
G01 X-0.53649 Y0.10589
G01 X-0.53999 Y0.08314
G01 X-0.53649 Y0.10589
G01 X-0.57849 Y0.12076
G01 X-0.58199 Y0.10939
G01 X-0.58461 Y0.08401
G01 X-0.57849 Y0.12076
G01 X-0.62049 Y0.13564
G01 X-0.62661 Y0.11726
G01 X-0.62924 Y0.08401
G01 X-0.62049 Y0.13564
G01 X-0.66249 Y0.15139
G01 X-0.67124 Y0.12426
G01 X-0.67386 Y0.08314
G01 X-0.66249 Y0.15139
G01 X-0.70449 Y0.16714
G01 X-0.71586 Y0.13126
G01 X-0.71849 Y0.08314
G01 X-0.70449 Y0.16714
G01 X-0.74649 Y0.18289
G01 X-0.76049 Y0.13826
G01 X-0.76311 Y0.08314
G01 X-0.74649 Y0.18289
G01 X-0.78849 Y0.19776
G01 X-0.80511 Y0.14526
G01 X-0.80774 Y0.08226
G01 X-0.78849 Y0.19776
G01 X-0.83049 Y0.21351
G01 X-0.84974 Y0.15226
G01 X-0.85236 Y0.08226
G01 X-0.83049 Y0.21351
G01 X-0.87249 Y0.22926
G01 X-0.89436 Y0.16014
G01 X-0.89699 Y0.08226
G01 X-0.87249 Y0.22926
G01 X-0.91449 Y0.24501
G01 X-0.93899 Y0.16801
G01 X-0.94161 Y0.08226
G01 X-0.91449 Y0.24501
G01 X-0.95649 Y0.25989
G01 X-0.98361 Y0.17589
G01 X-0.98624 Y0.08139
G00 Z0.19685
G00 X-0.40418 Y-0.21169
G00 Z-0.06031
G01 Z-0.12000
G01 X-0.44461 Y-0.23186
G01 X-0.42186 Y-0.26949
G01 X-0.43918 Y-0.24085
G01 X-0.47786 Y-0.26424
G01 X-0.46649 Y-0.28261
G01 X-0.47786 Y-0.26424
G01 X-0.51986 Y-0.27911
G01 X-0.51636 Y-0.28786
G01 X-0.50061 Y-0.31149
G01 X-0.51986 Y-0.27911
G01 X-0.56186 Y-0.29399
G01 X-0.55486 Y-0.31149
G01 X-0.53474 Y-0.34036
G01 X-0.56186 Y-0.29399
G01 X-0.60386 Y-0.31061
G01 X-0.59336 Y-0.33511
G01 X-0.56886 Y-0.36924
G01 X-0.60386 Y-0.31061
G01 X-0.64674 Y-0.32461
G01 X-0.63186 Y-0.35874
G01 X-0.60299 Y-0.39811
G01 X-0.64674 Y-0.32461
G01 X-0.68874 Y-0.33949
G01 X-0.67036 Y-0.38236
G01 X-0.63711 Y-0.42699
G01 X-0.68874 Y-0.33949
G01 X-0.73074 Y-0.35524
G01 X-0.70886 Y-0.40599
G01 X-0.67124 Y-0.45586
G01 X-0.73074 Y-0.35524
G01 X-0.77274 Y-0.37011
G01 X-0.74824 Y-0.42786
G01 X-0.70536 Y-0.48474
G01 X-0.77274 Y-0.37011
G01 X-0.81474 Y-0.38499
G01 X-0.78674 Y-0.45149
G01 X-0.73949 Y-0.51361
G01 X-0.81474 Y-0.38499
G01 X-0.85674 Y-0.39986
G01 X-0.82524 Y-0.47511
G01 X-0.77361 Y-0.54249
G01 X-0.85674 Y-0.39986
G01 X-0.89874 Y-0.41649
G01 X-0.86374 Y-0.49874
G01 X-0.80774 Y-0.57136
G00 Z0.19685
G00 X-0.17509 Y-0.42023
G00 Z-0.06031
G01 Z-0.12000
G01 X-0.19174 Y-0.46199
G01 X-0.14886 Y-0.47686
G01 X-0.18234 Y-0.46525
G01 X-0.19699 Y-0.50749
G01 X-0.17511 Y-0.51536
G01 X-0.19699 Y-0.50749
G01 X-0.21886 Y-0.54686
G01 X-0.18386 Y-0.55911
G01 X-0.21886 Y-0.54686
G01 X-0.24074 Y-0.58536
G01 X-0.23286 Y-0.58974
G01 X-0.19174 Y-0.60286
G01 X-0.24074 Y-0.58536
G01 X-0.26349 Y-0.62386
G01 X-0.25124 Y-0.63086
G01 X-0.19874 Y-0.64661
G01 X-0.26349 Y-0.62386
G01 X-0.28624 Y-0.66236
G01 X-0.26961 Y-0.67199
G01 X-0.20661 Y-0.69036
G01 X-0.28624 Y-0.66236
G01 X-0.30899 Y-0.70086
G01 X-0.28799 Y-0.71311
G01 X-0.21361 Y-0.73411
G01 X-0.30817 Y-0.70134
G01 X-0.33086 Y-0.74024
G01 X-0.30636 Y-0.75424
G01 X-0.22149 Y-0.77786
G01 X-0.33086 Y-0.74024
G01 X-0.35361 Y-0.77874
G01 X-0.32474 Y-0.79536
G01 X-0.22936 Y-0.82161
G01 X-0.35361 Y-0.77874
G01 X-0.37636 Y-0.81724
G01 X-0.34311 Y-0.83649
G01 X-0.23636 Y-0.86536
G01 X-0.37636 Y-0.81724
G01 X-0.39911 Y-0.85574
G01 X-0.36149 Y-0.87761
G01 X-0.24424 Y-0.90911
G01 X-0.39911 Y-0.85574
G01 X-0.42186 Y-0.89424
G01 X-0.37986 Y-0.91874
G01 X-0.25211 Y-0.95286
G00 Z0.19685
G00 X0.13462 Y-0.43370
G00 Z-0.06031
G01 Z-0.12000
G01 X0.14776 Y-0.47599
G01 X0.19151 Y-0.46111
G01 X0.16061 Y-0.47162
G01 X0.17489 Y-0.51361
G01 X0.19676 Y-0.50661
G01 X0.17489 Y-0.51361
G01 X0.18364 Y-0.55736
G01 X0.21776 Y-0.54599
G01 X0.18364 Y-0.55736
G01 X0.19064 Y-0.60111
G01 X0.24051 Y-0.58449
G01 X0.19064 Y-0.60111
G01 X0.19851 Y-0.64486
G01 X0.26326 Y-0.62299
G01 X0.19851 Y-0.64486
G01 X0.20639 Y-0.68861
G01 X0.27464 Y-0.66674
G01 X0.28514 Y-0.66149
G01 X0.20639 Y-0.68861
G01 X0.21339 Y-0.73236
G01 X0.29301 Y-0.70786
G01 X0.30789 Y-0.69999
G01 X0.21339 Y-0.73236
G01 X0.22126 Y-0.77611
G01 X0.31139 Y-0.74899
G01 X0.33064 Y-0.73849
G01 X0.22126 Y-0.77611
G01 X0.22826 Y-0.81986
G01 X0.32976 Y-0.79011
G01 X0.35251 Y-0.77786
G01 X0.22826 Y-0.81986
G01 X0.23614 Y-0.86361
G01 X0.34814 Y-0.83124
G01 X0.37526 Y-0.81636
G01 X0.23614 Y-0.86361
G01 X0.24401 Y-0.90736
G01 X0.36651 Y-0.87236
G01 X0.39801 Y-0.85486
G01 X0.24401 Y-0.90736
G01 X0.25101 Y-0.95111
G01 X0.38489 Y-0.91349
G01 X0.42076 Y-0.89336
G00 Z0.19685
G00 X0.38176 Y-0.24460
G00 Z-0.06031
G01 Z-0.12000
G01 X0.41901 Y-0.26949
G01 X0.44264 Y-0.22836
G01 X0.42479 Y-0.25942
G01 X0.46364 Y-0.28174
G01 X0.47501 Y-0.26161
G01 X0.46364 Y-0.28174
G01 X0.49864 Y-0.30974
G01 X0.51701 Y-0.27824
G01 X0.49864 Y-0.30974
G01 X0.53276 Y-0.33861
G01 X0.55464 Y-0.30361
G01 X0.55901 Y-0.29311
G01 X0.53276 Y-0.33861
G01 X0.56689 Y-0.36749
G01 X0.59314 Y-0.32724
G01 X0.60101 Y-0.30799
G01 X0.56689 Y-0.36749
G01 X0.60101 Y-0.39636
G01 X0.63164 Y-0.35086
G01 X0.64301 Y-0.32286
G01 X0.60101 Y-0.39636
G01 X0.63514 Y-0.42524
G01 X0.67014 Y-0.37449
G01 X0.68501 Y-0.33861
G01 X0.63514 Y-0.42524
G01 X0.66926 Y-0.45411
G01 X0.70864 Y-0.39811
G01 X0.72701 Y-0.35349
G01 X0.66926 Y-0.45411
G01 X0.70339 Y-0.48299
G01 X0.74714 Y-0.42174
G01 X0.76901 Y-0.36836
G01 X0.70339 Y-0.48299
G01 X0.73751 Y-0.51186
G01 X0.78564 Y-0.44536
G01 X0.81101 Y-0.38411
G01 X0.73751 Y-0.51186
G01 X0.77164 Y-0.54074
G01 X0.82414 Y-0.46899
G01 X0.85301 Y-0.39899
G01 X0.77164 Y-0.54074
G01 X0.80576 Y-0.56961
G01 X0.86351 Y-0.49086
G01 X0.89501 Y-0.41386
G00 Z0.19685
G00 X0.44972 Y0.05655
G00 Z-0.06031
G01 Z-0.12000
G01 X0.49426 Y0.06301
G01 X0.48639 Y0.10851
G01 X0.49225 Y0.07465
G01 X0.53626 Y0.08226
G01 X0.53276 Y0.10501
G01 X0.53626 Y0.08226
G01 X0.58089 Y0.08401
G01 X0.57826 Y0.10851
G01 X0.57476 Y0.11901
G01 X0.58089 Y0.08401
G01 X0.62551
G01 X0.62289 Y0.11551
G01 X0.61676 Y0.13476
G01 X0.62551 Y0.08401
G01 X0.67014 Y0.08314
G01 X0.66751 Y0.12339
G01 X0.65876 Y0.15051
G01 X0.67014 Y0.08314
G01 X0.71476
G01 X0.71214 Y0.13039
G01 X0.70076 Y0.16626
G01 X0.71476 Y0.08314
G01 X0.75939
G01 X0.75676 Y0.13739
G01 X0.74276 Y0.18201
G01 X0.75939 Y0.08314
G01 X0.80401 Y0.08226
G01 X0.80139 Y0.14439
G01 X0.78476 Y0.19689
G01 X0.80401 Y0.08226
G01 X0.84864
G01 X0.84601 Y0.15139
G01 X0.82676 Y0.21176
G01 X0.84864 Y0.08226
G01 X0.89326
G01 X0.89064 Y0.15839
G01 X0.86876 Y0.22751
G01 X0.89326 Y0.08226
G01 X0.93789
G01 X0.93526 Y0.16539
G01 X0.91076 Y0.24326
G01 X0.93789 Y0.08226
G01 X0.98251 Y0.08139
G01 X0.97989 Y0.17239
G01 X0.95276 Y0.25901
G00 Z0.19685
G00 X0.30734 Y0.33385
G00 Z-0.06031
G01 Z-0.12000
G01 X0.33764 Y0.36664
G01 X0.30351 Y0.39639
G01 X0.32827 Y0.37481
G01 X0.35776 Y0.40864
G01 X0.34026 Y0.42351
G01 X0.35776 Y0.40864
G01 X0.39189 Y0.43751
G01 X0.36389 Y0.46201
G01 X0.39189 Y0.43751
G01 X0.42601 Y0.46639
G01 X0.39539 Y0.49439
G01 X0.38576 Y0.50051
G01 X0.42601 Y0.46639
G01 X0.46014 Y0.49439
G01 X0.42689 Y0.52676
G01 X0.40851 Y0.53901
G01 X0.46014 Y0.49439
G01 X0.49426 Y0.52326
G01 X0.45926 Y0.55826
G01 X0.43039 Y0.57839
G01 X0.49426 Y0.52326
G01 X0.52839 Y0.55126
G01 X0.48726 Y0.59326
G01 X0.45314 Y0.61689
G01 X0.52839 Y0.55126
G01 X0.56251 Y0.58014
G01 X0.51526 Y0.62826
G01 X0.47501 Y0.65626
G01 X0.56251 Y0.58014
G01 X0.59664 Y0.60814
G01 X0.54326 Y0.66326
G01 X0.49776 Y0.69476
G01 X0.59664 Y0.60814
G01 X0.63076 Y0.63701
G01 X0.57126 Y0.69826
G01 X0.51964 Y0.73414
G01 X0.63076 Y0.63701
G01 X0.66576 Y0.66501
G01 X0.59926 Y0.73326
G01 X0.54239 Y0.77264
G01 X0.66576 Y0.66501
G01 X0.69989 Y0.69389
G01 X0.62726 Y0.76826
G01 X0.56426 Y0.81201
G00 Z0.19685
G00 X0.01881 Y0.45456
G00 Z-0.06031
G01 Z-0.12000
G01 X0.02176 Y0.49964
G01 X-0.02286 Y0.49876
G01 X0.01214 Y0.49945
G01 X0.01126 Y0.54426
G01 X-0.01149 Y0.54339
G01 X0.01126 Y0.54426
G01 X0.01914 Y0.58801
G01 X-0.00011 Y0.58889
G01 X-0.01761 Y0.58714
G01 X0.01914 Y0.58801
G01 X0.02701 Y0.63176
G01 X-0.00449 Y0.63351
G01 X-0.02636 Y0.63089
G01 X0.02701 Y0.63176
G01 X0.03489 Y0.67551
G01 X-0.00799 Y0.67814
G01 X-0.03424 Y0.67464
G01 X0.03489 Y0.67551
G01 X0.04276 Y0.71926
G01 X-0.01149 Y0.72276
G01 X-0.04211 Y0.71839
G01 X0.04276 Y0.71926
G01 X0.05064 Y0.76301
G01 X-0.01411 Y0.76739
G01 X-0.04999 Y0.76214
G01 X0.05064 Y0.76301
G01 X0.05851 Y0.80676
G01 X-0.01674 Y0.81201
G01 X-0.05786 Y0.80589
G01 X0.05851 Y0.80676
G01 X0.06639 Y0.85051
G01 X-0.01936 Y0.85664
G01 X-0.06574 Y0.84964
G01 X0.06639 Y0.85051
G01 X0.07426 Y0.89426
G01 X-0.02199 Y0.90126
G01 X-0.07361 Y0.89339
G01 X0.07426 Y0.89426
G01 X0.08214 Y0.93801
G01 X-0.02461 Y0.94589
G01 X-0.08149 Y0.93714
G01 X0.08214 Y0.93801
G01 X0.09001 Y0.98176
G01 X-0.02724 Y0.99051
G01 X-0.08936 Y0.98089
G00 Z0.19685
G00 X-0.27749 Y0.36176
G00 Z-0.06031
G01 Z-0.12000
G01 X-0.30549 Y0.39726
G01 X-0.33874 Y0.36926
G01 X-0.31320 Y0.39077
G01 X-0.34224 Y0.42526
G01 X-0.35974 Y0.41039
G01 X-0.34224 Y0.42526
G01 X-0.36499 Y0.46376
G01 X-0.39386 Y0.43926
G01 X-0.36499 Y0.46376
G01 X-0.38774 Y0.50226
G01 X-0.42799 Y0.46814
G01 X-0.38774 Y0.50226
G01 X-0.40961 Y0.54164
G01 X-0.45336 Y0.50576
G01 X-0.46211 Y0.49614
G01 X-0.40961 Y0.54164
G01 X-0.43236 Y0.58014
G01 X-0.47961 Y0.54251
G01 X-0.49624 Y0.52501
G01 X-0.43236 Y0.58014
G01 X-0.45424 Y0.61951
G01 X-0.50674 Y0.57839
G01 X-0.53036 Y0.55389
G01 X-0.45424 Y0.61951
G01 X-0.47699 Y0.65801
G01 X-0.53386 Y0.61426
G01 X-0.56536 Y0.58189
G01 X-0.47699 Y0.65801
G01 X-0.49886 Y0.69739
G01 X-0.56099 Y0.65014
G01 X-0.59949 Y0.61076
G01 X-0.49886 Y0.69739
G01 X-0.52161 Y0.73589
G01 X-0.58811 Y0.68601
G01 X-0.63361 Y0.63964
G01 X-0.52161 Y0.73589
G01 X-0.54349 Y0.77526
G01 X-0.61524 Y0.72189
G01 X-0.66774 Y0.66764
G00 Z0.19685
G00 X-0.54349 Y0.77526
G00 Z-0.06031
G01 Z-0.12000
G01 X-0.56624 Y0.81376
G01 X-0.64236 Y0.75776
G01 X-0.70186 Y0.69651
G00 Z0.19685
G00 X-0.70099 Y0.69476
G00 Z-0.10031
G01 Z-0.12000
G01 X-0.71321 Y0.67576
G01 X-0.38256 Y0.40076
G02 X-0.37319 Y0.31213 I-0.04030 J-0.04907
G03 X-0.45853 Y0.16336 I0.38367 J-0.31896
G02 X-0.53798 Y0.13079 I-0.05747 J0.02700
G01 X-0.99258 Y0.29842
G03 X-1.03452 Y0.05899 I0.97052 J-0.29339
G01 X-0.55067 Y0.06110
G02 X-0.48652 Y-0.00077 I0.00067 J-0.06350
G03 X-0.45626 Y-0.16960 I0.49893 J0.00228
G02 X-0.49619 Y-0.24562 I-0.06138 J-0.01626
G01 X-0.95218 Y-0.40942
G03 X-0.83040 Y-0.61979 I0.93205 J0.39909
G01 X-0.46111 Y-0.30716
G02 X-0.37220 Y-0.31332 I0.04133 J-0.04821
G03 X-0.24050 Y-0.42320 I0.38073 J0.32245
G02 X-0.22222 Y-0.50710 I-0.03657 J-0.05191
G01 X-0.46624 Y-0.92568
G03 X-0.23773 Y-1.00856 I0.45746 J0.90483
G01 X-0.15579 Y-0.53169
G02 X-0.08372 Y-0.47926 I0.06265 J-0.01037
G03 X0.08779 Y-0.47878 I0.08439 J0.49174
G02 X0.15573 Y-0.53130 I0.00535 J-0.06327
G01 X0.23785 Y-1.00881
G03 X0.46618 Y-0.92541 I-0.23117 J0.98719
G01 X0.22242 Y-0.50744
G02 X0.24393 Y-0.42095 I0.05466 J0.03233
G03 X0.37501 Y-0.31034 I-0.25144 J0.43094
G02 X0.46081 Y-0.30690 I0.04477 J-0.04503
G01 X0.83065 Y-0.61990
G03 X0.95196 Y-0.40926 I-0.81164 J0.60764
G01 X0.49656 Y-0.24575
G02 X0.45744 Y-0.16567 I0.02109 J0.05990
G03 X0.48675 Y0.00332 I-0.46962 J0.16850
G02 X0.55027 Y0.06110 I0.06324 J-0.00572
G01 X1.03478 Y0.05906
G03 X0.99230 Y0.29840 I-1.01234 J-0.05624
G01 X0.53835 Y0.13093
G02 X0.45691 Y0.16712 I-0.02235 J0.05944
G03 X0.37074 Y0.31542 I-0.46806 J-0.17279
G02 X0.38226 Y0.40051 I0.05212 J0.03627
G01 X0.75473 Y0.71039
G03 X0.56834 Y0.86643 I-0.73935 J-0.69380
G01 X0.32825 Y0.44634
G02 X0.24259 Y0.42172 I-0.05533 J0.03117
G03 X0.08125 Y0.47993 I-0.24749 J-0.43322
G02 X0.03538 Y0.55252 I0.01661 J0.06129
G01 X0.12152 Y1.02932
G03 X-0.12155 Y1.02905 I-0.12041 J-1.00672
G01 X-0.03545 Y0.55291
G02 X-0.08524 Y0.47899 I-0.06242 J-0.01168
G03 X-0.24625 Y0.41988 I0.08888 J-0.49095
G02 X-0.32805 Y0.44600 I-0.02667 J0.05763
G01 X-0.56854 Y0.86662
G03 X-0.75457 Y0.71016 I0.55487 J-0.84859
G01 X-0.71321 Y0.67576
G00 Z0.19685
G00 X-0.15663 Y0.16878
G00 Z-0.15000
G03 X-0.06831 Y-0.22055 I0.15655 J-0.16917
G03 X0.22470 Y0.05060 I0.06823 J0.22016
G03 X-0.15663 Y0.16878 I-0.22478 J-0.05099
G01 X-0.19146 Y0.19800
G03 X0.18404 Y-0.20489 I0.19092 J-0.19848
G03 X-0.19146 Y0.19800 I-0.18447 J0.20450
G01 X-0.21965 Y0.23338
G03 X0.21020 Y-0.24172 I0.21882 J-0.23403
G03 X-0.21965 Y0.23338 I-0.21090 J0.24119
G01 X-0.24453 Y0.27190
G03 X0.23404 Y-0.27927 I0.24338 J-0.27203
G03 X-0.24453 Y0.27190 I-0.23507 J0.27924
G01 X-0.27695 Y0.30349
G03 X0.26576 Y-0.31125 I0.27569 J-0.30354
G03 X-0.27695 Y0.30349 I-0.26689 J0.31131
G01 X-0.30183 Y0.34174
G03 X-0.14728 Y-0.43079 I0.30029 J-0.34165
G03 X0.44447 Y0.08933 I0.14573 J0.43088
G03 X-0.30183 Y0.34174 I-0.44602 J-0.08923
G00 Z-0.13031
G01 X-0.44581 Y0.09762
G01 Z-0.15000
G01 X-0.49011 Y0.10764
G01 X-0.49711 Y0.06476
G01 X-0.49160 Y0.09856
G01 X-0.53649 Y0.10589
G01 X-0.53999 Y0.08314
G01 X-0.53649 Y0.10589
G01 X-0.57849 Y0.12076
G01 X-0.58199 Y0.10939
G01 X-0.58461 Y0.08401
G01 X-0.57849 Y0.12076
G01 X-0.62049 Y0.13564
G01 X-0.62661 Y0.11726
G01 X-0.62924 Y0.08401
G01 X-0.62049 Y0.13564
G01 X-0.66249 Y0.15139
G01 X-0.67124 Y0.12426
G01 X-0.67386 Y0.08314
G01 X-0.66249 Y0.15139
G01 X-0.70449 Y0.16714
G01 X-0.71586 Y0.13126
G01 X-0.71849 Y0.08314
G01 X-0.70449 Y0.16714
G01 X-0.74649 Y0.18289
G01 X-0.76049 Y0.13826
G01 X-0.76311 Y0.08314
G01 X-0.74649 Y0.18289
G01 X-0.78849 Y0.19776
G01 X-0.80511 Y0.14526
G01 X-0.80774 Y0.08226
G01 X-0.78849 Y0.19776
G01 X-0.83049 Y0.21351
G01 X-0.84974 Y0.15226
G01 X-0.85236 Y0.08226
G01 X-0.83049 Y0.21351
G01 X-0.87249 Y0.22926
G01 X-0.89436 Y0.16014
G01 X-0.89699 Y0.08226
G01 X-0.87249 Y0.22926
G01 X-0.91449 Y0.24501
G01 X-0.93899 Y0.16801
G01 X-0.94161 Y0.08226
G01 X-0.91449 Y0.24501
G01 X-0.95649 Y0.25989
G01 X-0.98361 Y0.17589
G01 X-0.98624 Y0.08139
G00 Z0.19685
G00 X-0.40418 Y-0.21169
G00 Z-0.10031
G01 Z-0.15000
G01 X-0.44461 Y-0.23186
G01 X-0.42186 Y-0.26949
G01 X-0.43918 Y-0.24085
G01 X-0.47786 Y-0.26424
G01 X-0.46649 Y-0.28261
G01 X-0.47786 Y-0.26424
G01 X-0.51986 Y-0.27911
G01 X-0.51636 Y-0.28786
G01 X-0.50061 Y-0.31149
G01 X-0.51986 Y-0.27911
G01 X-0.56186 Y-0.29399
G01 X-0.55486 Y-0.31149
G01 X-0.53474 Y-0.34036
G01 X-0.56186 Y-0.29399
G01 X-0.60386 Y-0.31061
G01 X-0.59336 Y-0.33511
G01 X-0.56886 Y-0.36924
G01 X-0.60386 Y-0.31061
G01 X-0.64674 Y-0.32461
G01 X-0.63186 Y-0.35874
G01 X-0.60299 Y-0.39811
G01 X-0.64674 Y-0.32461
G01 X-0.68874 Y-0.33949
G01 X-0.67036 Y-0.38236
G01 X-0.63711 Y-0.42699
G01 X-0.68874 Y-0.33949
G01 X-0.73074 Y-0.35524
G01 X-0.70886 Y-0.40599
G01 X-0.67124 Y-0.45586
G01 X-0.73074 Y-0.35524
G01 X-0.77274 Y-0.37011
G01 X-0.74824 Y-0.42786
G01 X-0.70536 Y-0.48474
G01 X-0.77274 Y-0.37011
G01 X-0.81474 Y-0.38499
G01 X-0.78674 Y-0.45149
G01 X-0.73949 Y-0.51361
G01 X-0.81474 Y-0.38499
G01 X-0.85674 Y-0.39986
G01 X-0.82524 Y-0.47511
G01 X-0.77361 Y-0.54249
G01 X-0.85674 Y-0.39986
G01 X-0.89874 Y-0.41649
G01 X-0.86374 Y-0.49874
G01 X-0.80774 Y-0.57136
G00 Z0.19685
G00 X-0.17509 Y-0.42023
G00 Z-0.10031
G01 Z-0.15000
G01 X-0.19174 Y-0.46199
G01 X-0.14886 Y-0.47686
G01 X-0.18234 Y-0.46525
G01 X-0.19699 Y-0.50749
G01 X-0.17511 Y-0.51536
G01 X-0.19699 Y-0.50749
G01 X-0.21886 Y-0.54686
G01 X-0.18386 Y-0.55911
G01 X-0.21886 Y-0.54686
G01 X-0.24074 Y-0.58536
G01 X-0.23286 Y-0.58974
G01 X-0.19174 Y-0.60286
G01 X-0.24074 Y-0.58536
G01 X-0.26349 Y-0.62386
G01 X-0.25124 Y-0.63086
G01 X-0.19874 Y-0.64661
G01 X-0.26349 Y-0.62386
G01 X-0.28624 Y-0.66236
G01 X-0.26961 Y-0.67199
G01 X-0.20661 Y-0.69036
G01 X-0.28624 Y-0.66236
G01 X-0.30899 Y-0.70086
G01 X-0.28799 Y-0.71311
G01 X-0.21361 Y-0.73411
G01 X-0.30817 Y-0.70134
G01 X-0.33086 Y-0.74024
G01 X-0.30636 Y-0.75424
G01 X-0.22149 Y-0.77786
G01 X-0.33086 Y-0.74024
G01 X-0.35361 Y-0.77874
G01 X-0.32474 Y-0.79536
G01 X-0.22936 Y-0.82161
G01 X-0.35361 Y-0.77874
G01 X-0.37636 Y-0.81724
G01 X-0.34311 Y-0.83649
G01 X-0.23636 Y-0.86536
G01 X-0.37636 Y-0.81724
G01 X-0.39911 Y-0.85574
G01 X-0.36149 Y-0.87761
G01 X-0.24424 Y-0.90911
G01 X-0.39911 Y-0.85574
G01 X-0.42186 Y-0.89424
G01 X-0.37986 Y-0.91874
G01 X-0.25211 Y-0.95286
G00 Z0.19685
G00 X0.13462 Y-0.43370
G00 Z-0.10031
G01 Z-0.15000
G01 X0.14776 Y-0.47599
G01 X0.19151 Y-0.46111
G01 X0.16061 Y-0.47162
G01 X0.17489 Y-0.51361
G01 X0.19676 Y-0.50661
G01 X0.17489 Y-0.51361
G01 X0.18364 Y-0.55736
G01 X0.21776 Y-0.54599
G01 X0.18364 Y-0.55736
G01 X0.19064 Y-0.60111
G01 X0.24051 Y-0.58449
G01 X0.19064 Y-0.60111
G01 X0.19851 Y-0.64486
G01 X0.26326 Y-0.62299
G01 X0.19851 Y-0.64486
G01 X0.20639 Y-0.68861
G01 X0.27464 Y-0.66674
G01 X0.28514 Y-0.66149
G01 X0.20639 Y-0.68861
G01 X0.21339 Y-0.73236
G01 X0.29301 Y-0.70786
G01 X0.30789 Y-0.69999
G01 X0.21339 Y-0.73236
G01 X0.22126 Y-0.77611
G01 X0.31139 Y-0.74899
G01 X0.33064 Y-0.73849
G01 X0.22126 Y-0.77611
G01 X0.22826 Y-0.81986
G01 X0.32976 Y-0.79011
G01 X0.35251 Y-0.77786
G01 X0.22826 Y-0.81986
G01 X0.23614 Y-0.86361
G01 X0.34814 Y-0.83124
G01 X0.37526 Y-0.81636
G01 X0.23614 Y-0.86361
G01 X0.24401 Y-0.90736
G01 X0.36651 Y-0.87236
G01 X0.39801 Y-0.85486
G01 X0.24401 Y-0.90736
G01 X0.25101 Y-0.95111
G01 X0.38489 Y-0.91349
G01 X0.42076 Y-0.89336
G00 Z0.19685
G00 X0.38176 Y-0.24460
G00 Z-0.10031
G01 Z-0.15000
G01 X0.41901 Y-0.26949
G01 X0.44264 Y-0.22836
G01 X0.42479 Y-0.25942
G01 X0.46364 Y-0.28174
G01 X0.47501 Y-0.26161
G01 X0.46364 Y-0.28174
G01 X0.49864 Y-0.30974
G01 X0.51701 Y-0.27824
G01 X0.49864 Y-0.30974
G01 X0.53276 Y-0.33861
G01 X0.55464 Y-0.30361
G01 X0.55901 Y-0.29311
G01 X0.53276 Y-0.33861
G01 X0.56689 Y-0.36749
G01 X0.59314 Y-0.32724
G01 X0.60101 Y-0.30799
G01 X0.56689 Y-0.36749
G01 X0.60101 Y-0.39636
G01 X0.63164 Y-0.35086
G01 X0.64301 Y-0.32286
G01 X0.60101 Y-0.39636
G01 X0.63514 Y-0.42524
G01 X0.67014 Y-0.37449
G01 X0.68501 Y-0.33861
G01 X0.63514 Y-0.42524
G01 X0.66926 Y-0.45411
G01 X0.70864 Y-0.39811
G01 X0.72701 Y-0.35349
G01 X0.66926 Y-0.45411
G01 X0.70339 Y-0.48299
G01 X0.74714 Y-0.42174
G01 X0.76901 Y-0.36836
G01 X0.70339 Y-0.48299
G01 X0.73751 Y-0.51186
G01 X0.78564 Y-0.44536
G01 X0.81101 Y-0.38411
G01 X0.73751 Y-0.51186
G01 X0.77164 Y-0.54074
G01 X0.82414 Y-0.46899
G01 X0.85301 Y-0.39899
G01 X0.77164 Y-0.54074
G01 X0.80576 Y-0.56961
G01 X0.86351 Y-0.49086
G01 X0.89501 Y-0.41386
G00 Z0.19685
G00 X0.44972 Y0.05655
G00 Z-0.10031
G01 Z-0.15000
G01 X0.49426 Y0.06301
G01 X0.48639 Y0.10851
G01 X0.49225 Y0.07465
G01 X0.53626 Y0.08226
G01 X0.53276 Y0.10501
G01 X0.53626 Y0.08226
G01 X0.58089 Y0.08401
G01 X0.57826 Y0.10851
G01 X0.57476 Y0.11901
G01 X0.58089 Y0.08401
G01 X0.62551
G01 X0.62289 Y0.11551
G01 X0.61676 Y0.13476
G01 X0.62551 Y0.08401
G01 X0.67014 Y0.08314
G01 X0.66751 Y0.12339
G01 X0.65876 Y0.15051
G01 X0.67014 Y0.08314
G01 X0.71476
G01 X0.71214 Y0.13039
G01 X0.70076 Y0.16626
G01 X0.71476 Y0.08314
G01 X0.75939
G01 X0.75676 Y0.13739
G01 X0.74276 Y0.18201
G01 X0.75939 Y0.08314
G01 X0.80401 Y0.08226
G01 X0.80139 Y0.14439
G01 X0.78476 Y0.19689
G01 X0.80401 Y0.08226
G01 X0.84864
G01 X0.84601 Y0.15139
G01 X0.82676 Y0.21176
G01 X0.84864 Y0.08226
G01 X0.89326
G01 X0.89064 Y0.15839
G01 X0.86876 Y0.22751
G01 X0.89326 Y0.08226
G01 X0.93789
G01 X0.93526 Y0.16539
G01 X0.91076 Y0.24326
G01 X0.93789 Y0.08226
G01 X0.98251 Y0.08139
G01 X0.97989 Y0.17239
G01 X0.95276 Y0.25901
G00 Z0.19685
G00 X0.30734 Y0.33385
G00 Z-0.10031
G01 Z-0.15000
G01 X0.33764 Y0.36664
G01 X0.30351 Y0.39639
G01 X0.32827 Y0.37481
G01 X0.35776 Y0.40864
G01 X0.34026 Y0.42351
G01 X0.35776 Y0.40864
G01 X0.39189 Y0.43751
G01 X0.36389 Y0.46201
G01 X0.39189 Y0.43751
G01 X0.42601 Y0.46639
G01 X0.39539 Y0.49439
G01 X0.38576 Y0.50051
G01 X0.42601 Y0.46639
G01 X0.46014 Y0.49439
G01 X0.42689 Y0.52676
G01 X0.40851 Y0.53901
G01 X0.46014 Y0.49439
G01 X0.49426 Y0.52326
G01 X0.45926 Y0.55826
G01 X0.43039 Y0.57839
G01 X0.49426 Y0.52326
G01 X0.52839 Y0.55126
G01 X0.48726 Y0.59326
G01 X0.45314 Y0.61689
G01 X0.52839 Y0.55126
G01 X0.56251 Y0.58014
G01 X0.51526 Y0.62826
G01 X0.47501 Y0.65626
G01 X0.56251 Y0.58014
G01 X0.59664 Y0.60814
G01 X0.54326 Y0.66326
G01 X0.49776 Y0.69476
G01 X0.59664 Y0.60814
G01 X0.63076 Y0.63701
G01 X0.57126 Y0.69826
G01 X0.51964 Y0.73414
G01 X0.63076 Y0.63701
G01 X0.66576 Y0.66501
G01 X0.59926 Y0.73326
G01 X0.54239 Y0.77264
G01 X0.66576 Y0.66501
G01 X0.69989 Y0.69389
G01 X0.62726 Y0.76826
G01 X0.56426 Y0.81201
G00 Z0.19685
G00 X0.01881 Y0.45456
G00 Z-0.10031
G01 Z-0.15000
G01 X0.02176 Y0.49964
G01 X-0.02286 Y0.49876
G01 X0.01214 Y0.49945
G01 X0.01126 Y0.54426
G01 X-0.01149 Y0.54339
G01 X0.01126 Y0.54426
G01 X0.01914 Y0.58801
G01 X-0.00011 Y0.58889
G01 X-0.01761 Y0.58714
G01 X0.01914 Y0.58801
G01 X0.02701 Y0.63176
G01 X-0.00449 Y0.63351
G01 X-0.02636 Y0.63089
G01 X0.02701 Y0.63176
G01 X0.03489 Y0.67551
G01 X-0.00799 Y0.67814
G01 X-0.03424 Y0.67464
G01 X0.03489 Y0.67551
G01 X0.04276 Y0.71926
G01 X-0.01149 Y0.72276
G01 X-0.04211 Y0.71839
G01 X0.04276 Y0.71926
G01 X0.05064 Y0.76301
G01 X-0.01411 Y0.76739
G01 X-0.04999 Y0.76214
G01 X0.05064 Y0.76301
G01 X0.05851 Y0.80676
G01 X-0.01674 Y0.81201
G01 X-0.05786 Y0.80589
G01 X0.05851 Y0.80676
G01 X0.06639 Y0.85051
G01 X-0.01936 Y0.85664
G01 X-0.06574 Y0.84964
G01 X0.06639 Y0.85051
G01 X0.07426 Y0.89426
G01 X-0.02199 Y0.90126
G01 X-0.07361 Y0.89339
G01 X0.07426 Y0.89426
G01 X0.08214 Y0.93801
G01 X-0.02461 Y0.94589
G01 X-0.08149 Y0.93714
G01 X0.08214 Y0.93801
G01 X0.09001 Y0.98176
G01 X-0.02724 Y0.99051
G01 X-0.08936 Y0.98089
G00 Z0.19685
G00 X-0.27749 Y0.36176
G00 Z-0.10031
G01 Z-0.15000
G01 X-0.30549 Y0.39726
G01 X-0.33874 Y0.36926
G01 X-0.31320 Y0.39077
G01 X-0.34224 Y0.42526
G01 X-0.35974 Y0.41039
G01 X-0.34224 Y0.42526
G01 X-0.36499 Y0.46376
G01 X-0.39386 Y0.43926
G01 X-0.36499 Y0.46376
G01 X-0.38774 Y0.50226
G01 X-0.42799 Y0.46814
G01 X-0.38774 Y0.50226
G01 X-0.40961 Y0.54164
G01 X-0.45336 Y0.50576
G01 X-0.46211 Y0.49614
G01 X-0.40961 Y0.54164
G01 X-0.43236 Y0.58014
G01 X-0.47961 Y0.54251
G01 X-0.49624 Y0.52501
G01 X-0.43236 Y0.58014
G01 X-0.45424 Y0.61951
G01 X-0.50674 Y0.57839
G01 X-0.53036 Y0.55389
G01 X-0.45424 Y0.61951
G01 X-0.47699 Y0.65801
G01 X-0.53386 Y0.61426
G01 X-0.56536 Y0.58189
G01 X-0.47699 Y0.65801
G01 X-0.49886 Y0.69739
G01 X-0.56099 Y0.65014
G01 X-0.59949 Y0.61076
G01 X-0.49886 Y0.69739
G01 X-0.52161 Y0.73589
G01 X-0.58811 Y0.68601
G01 X-0.63361 Y0.63964
G01 X-0.52161 Y0.73589
G01 X-0.54349 Y0.77526
G01 X-0.61524 Y0.72189
G01 X-0.66774 Y0.66764
G00 Z0.19685
G00 X-0.54349 Y0.77526
G00 Z-0.10031
G01 Z-0.15000
G01 X-0.56624 Y0.81376
G01 X-0.64236 Y0.75776
G01 X-0.70186 Y0.69651
G00 Z0.19685
G00 X-0.70099 Y0.69476
G00 Z-0.13031
G01 Z-0.15000
G01 X-0.71321 Y0.67576
G01 X-0.38256 Y0.40076
G02 X-0.37319 Y0.31213 I-0.04030 J-0.04907
G03 X-0.45853 Y0.16336 I0.38367 J-0.31896
G02 X-0.53798 Y0.13079 I-0.05747 J0.02700
G01 X-0.99258 Y0.29842
G03 X-1.03452 Y0.05899 I0.97052 J-0.29339
G01 X-0.55067 Y0.06110
G02 X-0.48652 Y-0.00077 I0.00067 J-0.06350
G03 X-0.45626 Y-0.16960 I0.49893 J0.00228
G02 X-0.49619 Y-0.24562 I-0.06138 J-0.01626
G01 X-0.95218 Y-0.40942
G03 X-0.83040 Y-0.61979 I0.93205 J0.39909
G01 X-0.46111 Y-0.30716
G02 X-0.37220 Y-0.31332 I0.04133 J-0.04821
G03 X-0.24050 Y-0.42320 I0.38073 J0.32245
G02 X-0.22222 Y-0.50710 I-0.03657 J-0.05191
G01 X-0.46624 Y-0.92568
G03 X-0.23773 Y-1.00856 I0.45746 J0.90483
G01 X-0.15579 Y-0.53169
G02 X-0.08372 Y-0.47926 I0.06265 J-0.01037
G03 X0.08779 Y-0.47878 I0.08439 J0.49174
G02 X0.15573 Y-0.53130 I0.00535 J-0.06327
G01 X0.23785 Y-1.00881
G03 X0.46618 Y-0.92541 I-0.23117 J0.98719
G01 X0.22242 Y-0.50744
G02 X0.24393 Y-0.42095 I0.05466 J0.03233
G03 X0.37501 Y-0.31034 I-0.25144 J0.43094
G02 X0.46081 Y-0.30690 I0.04477 J-0.04503
G01 X0.83065 Y-0.61990
G03 X0.95196 Y-0.40926 I-0.81164 J0.60764
G01 X0.49656 Y-0.24575
G02 X0.45744 Y-0.16567 I0.02109 J0.05990
G03 X0.48675 Y0.00332 I-0.46962 J0.16850
G02 X0.55027 Y0.06110 I0.06324 J-0.00572
G01 X1.03478 Y0.05906
G03 X0.99230 Y0.29840 I-1.01234 J-0.05624
G01 X0.53835 Y0.13093
G02 X0.45691 Y0.16712 I-0.02235 J0.05944
G03 X0.37074 Y0.31542 I-0.46806 J-0.17279
G02 X0.38226 Y0.40051 I0.05212 J0.03627
G01 X0.75473 Y0.71039
G03 X0.56834 Y0.86643 I-0.73935 J-0.69380
G01 X0.32825 Y0.44634
G02 X0.24259 Y0.42172 I-0.05533 J0.03117
G03 X0.08125 Y0.47993 I-0.24749 J-0.43322
G02 X0.03538 Y0.55252 I0.01661 J0.06129
G01 X0.12152 Y1.02932
G03 X-0.12155 Y1.02905 I-0.12041 J-1.00672
G01 X-0.03545 Y0.55291
G02 X-0.08524 Y0.47899 I-0.06242 J-0.01168
G03 X-0.24625 Y0.41988 I0.08888 J-0.49095
G02 X-0.32805 Y0.44600 I-0.02667 J0.05763
G01 X-0.56854 Y0.86662
G03 X-0.75457 Y0.71016 I0.55487 J-0.84859
G01 X-0.71321 Y0.67576
G00 Z0.19685
G00 X0.00000 Y0.00000

M05
M30
