(Project circle_1in)
(Created by Estlcam version 11 build 11.245)
(Machining time about 00:01:12 hours)

(Required tools:)
(End mill 3/8)

G90
M03 S12000
G00 Z0.19685


(No. 4: Helical drill 1)
G00 X0.13150 Y0.00000 Z0.19685
G00 Z0.01969
G03 X-0.06575 Y0.11388 Z-0.01864 I-0.13150 J0.00000 F35.00
G03 Y-0.11388 Z-0.05696 I0.06575 J-0.11388
G03 X0.13150 Y0.00000 Z-0.09528 I0.06575 J0.11388
G03 X-0.06575 Y0.11388 Z-0.13360 I-0.13150 J0.00000
G03 Y-0.11388 Z-0.17192 I0.06575 J-0.11388
G03 X0.13150 Y0.00000 Z-0.21024 I0.06575 J0.11388
G03 X-0.06575 Y0.11388 Z-0.24856 I-0.13150 J0.00000
G03 Y-0.11388 Z-0.28688 I0.06575 J-0.11388
G03 X0.13150 Y0.00000 Z-0.32520 I0.06575 J0.11388
G03 X-0.06575 Y0.11388 Z-0.36352 I-0.13150 J0.00000
G03 Y-0.11388 Z-0.40184 I0.06575 J-0.11388
G03 X0.13150 Y0.00000 Z-0.44016 I0.06575 J0.11388
G03 X-0.06575 Y0.11388 Z-0.47848 I-0.13150 J0.00000
G03 Y-0.11388 Z-0.51680 I0.06575 J-0.11388
G03 X0.13150 Y0.00000 Z-0.55512 I0.06575 J0.11388
G03 X-0.06575 Y0.11388 Z-0.59344 I-0.13150 J0.00000
G03 Y-0.11388 Z-0.63176 I0.06575 J-0.11388
G03 X0.13150 Y0.00000 Z-0.67008 I0.06575 J0.11388
G03 X-0.06575 Y0.11388 Z-0.70840 I-0.13150 J0.00000
G03 Y-0.11388 Z-0.74672 I0.06575 J-0.11388
G03 X0.13150 Y0.00000 Z-0.78504 I0.06575 J0.11388
G03 X-0.06575 Y0.11388 Z-0.82336 I-0.13150 J0.00000
G03 Y-0.11388 Z-0.86168 I0.06575 J-0.11388
G03 X0.13150 Y0.00000 Z-0.90000 I0.06575 J0.11388
G03 X-0.06575 Y0.11388 I-0.13150 J0.00000
G03 Y-0.11388 I0.06575 J-0.11388
G03 X0.13150 Y0.00000 I0.06575 J0.11388
G03 X0.00000 Z-0.88031 I-0.06575 J0.00000
G00 Z0.19685

M05
M30
