(Project crankyanker_aug8)
(Created by Estlcam version 11 build 11.245)
(Machining time about 00:52:52 hours)

(Required tools:)
(End mill 3/8)

G90
M03 S12000
G00 Z0.19685


(No. 1: Hole 3)
G00 X0.16876 Y0.01589
G00 Z0.01969
G03 X-0.08436 Y0.16203 Z0.01312 I-0.16875 J0.00000 F35.00 S12000
G03 Y-0.13025 Z0.00656 I0.08438 J-0.14614
G03 X0.16876 Y0.01589 Z0.00000 I0.08438 J0.14614
G03 X-0.08436 Y0.16203 I-0.16875 J0.00000
G03 Y-0.13025 I0.08438 J-0.14614
G03 X0.16876 Y0.01589 I0.08438 J0.14614
G03 X0.17540 Y0.08854 I-0.16505 J0.05172 F70.00
G03 X0.14917 Y0.16504 I-0.19304 J-0.02345
G03 X0.08880 Y0.23026 I-0.18527 J-0.11094
G03 X0.00001 Y0.26901 I-0.13736 J-0.19361
G03 X-0.10493 Y0.26923 I-0.05300 J-0.25332
G03 X-0.20881 Y0.22471 I0.05618 J-0.27450
G03 X-0.29231 Y0.13697 I0.17222 J-0.24753
G03 X-0.33749 Y0.01589 I0.27380 J-0.17113
G03 X-0.33129 Y-0.12134 I0.34002 J-0.05339
G03 X-0.26847 Y-0.25259 I0.35447 J0.08899
G03 X-0.15336 Y-0.35439 I0.30865 J0.23304
G03 X0.00001 Y-0.40599 I0.20421 J0.35322
G03 X0.16953 Y-0.39336 I0.05351 J0.42589
G03 X0.32815 Y-0.31225 I-0.12172 J0.43372
G03 X0.44824 Y-0.16977 I-0.29353 J0.36923
G03 X0.50626 Y0.01589 I-0.43220 J0.23697
G03 X0.48721 Y0.21769 I-0.51131 J0.05354
G03 X0.38781 Y0.40369 I-0.51256 J-0.15436
G03 X0.21796 Y0.54207 I-0.42953 J-0.35381
G03 X0.00001 Y0.60651 I-0.26958 J-0.51091
G03 X-0.23408 Y0.58104 I-0.05354 J-0.59644
G03 X-0.44746 Y0.46335 I0.18692 J-0.59116
G03 X-0.60412 Y0.26613 I0.41394 J-0.48965
G03 X-0.67499 Y0.01589 I0.58943 J-0.30209
G03 X-0.64310 Y-0.25050 I0.68139 J-0.05352
G03 X-0.50712 Y-0.49124 I0.66961 J0.21944
G03 X-0.28252 Y-0.66619 I0.54965 J0.47398
G03 X0.00001 Y-0.74349 I0.33454 J0.66784
G03 X0.29868 Y-0.70517 I0.05350 J0.76622
G03 X0.56680 Y-0.55090 I-0.25191 J0.74794
G03 X0.76005 Y-0.29893 I-0.53395 J0.60959
G03 X0.84376 Y0.01589 I-0.74615 J0.36695
G03 X0.79902 Y0.34685 I-0.85096 J0.05347
G03 X0.62646 Y0.64234 I-0.82621 J-0.28435
G03 X0.34712 Y0.85388 I-0.66946 J-0.59386
G03 X0.00001 Y0.92839 I-0.36081 J-0.83504
G03 X-0.34919 Y0.85893 I0.00000 J-0.91250
G03 X-0.64522 Y0.66112 I0.34920 J-0.84304
G03 X-0.84303 Y0.36509 I0.64523 J-0.64523
G03 X-0.91249 Y0.01589 I0.84304 J-0.34920
G03 X-0.84303 Y-0.33331 I0.91250 J0.00000
G03 X-0.64522 Y-0.62935 I0.84304 J0.34920
G03 X-0.34919 Y-0.82715 I0.64523 J0.64523
G03 X0.00001 Y-0.89661 I0.34920 J0.84304
G03 X0.34921 Y-0.82715 I0.00000 J0.91250
G03 X0.64525 Y-0.62935 I-0.34920 J0.84304
G03 X0.84305 Y-0.33331 I-0.64523 J0.64523
G03 X0.91251 Y0.01589 I-0.84304 J0.34920
G03 X-0.45624 Y0.80614 I-0.91250 J0.00000
G03 Y-0.77436 I0.45625 J-0.79025
G03 X0.91251 Y0.01589 I0.45625 J0.79025
G03 X0.72501 Y0.20339 Z0.01969 I-0.18750 J0.00000 F35.00
G00 Z0.19685


(No. 2: Hole 4)
G00 X0.09263 Y-0.00450 Z0.19685
G00 Z0.01969
G03 X-0.04800 Y0.07669 Z-0.00360 I-0.09375 J0.00000 F35.00
G03 Y-0.08569 Z-0.02688 I0.04688 J-0.08119
G03 X0.09263 Y-0.00450 Z-0.05016 I0.04688 J0.08119
G03 X-0.04800 Y0.07669 Z-0.07344 I-0.09375 J0.00000
G03 Y-0.08569 Z-0.09672 I0.04688 J-0.08119
G03 X0.09263 Y-0.00450 Z-0.12000 I0.04688 J0.08119
G03 X-0.04800 Y0.07669 I-0.09375 J0.00000
G03 Y-0.08569 I0.04688 J-0.08119
G03 X0.09263 Y-0.00450 I0.04688 J0.08119
G00 Z0.19685
G00 X0.03938 Y-0.00419
G00 Z-0.10031
G01 Z-0.12000
G01 X0.12726 F70.00
G03 X-0.06007 Y0.11235 I-0.12731 J0.00419
G03 X-0.06733 Y-0.10816 I0.06003 J-0.11235
G03 X0.12726 Y-0.00419 I0.06728 J0.10816
G00 Z0.19685
G00 X0.09263 Y-0.00450
G00 Z-0.10031
G03 X-0.04800 Y0.07669 Z-0.12360 I-0.09375 J0.00000 F35.00
G03 Y-0.08569 Z-0.14688 I0.04688 J-0.08119
G03 X0.09263 Y-0.00450 Z-0.17016 I0.04688 J0.08119
G03 X-0.04800 Y0.07669 Z-0.19344 I-0.09375 J0.00000
G03 Y-0.08569 Z-0.21672 I0.04688 J-0.08119
G03 X0.09263 Y-0.00450 Z-0.24000 I0.04688 J0.08119
G03 X-0.04800 Y0.07669 I-0.09375 J0.00000
G03 Y-0.08569 I0.04688 J-0.08119
G03 X0.09263 Y-0.00450 I0.04688 J0.08119
G00 Z0.19685
G00 X0.03938 Y-0.00419
G00 Z-0.22031
G01 Z-0.24000
G01 X0.12726 F70.00
G03 X-0.06007 Y0.11235 I-0.12731 J0.00419
G03 X-0.06733 Y-0.10816 I0.06003 J-0.11235
G03 X0.12726 Y-0.00419 I0.06728 J0.10816
G00 Z0.19685
G00 X0.09263 Y-0.00450
G00 Z-0.22031
G03 X-0.04800 Y0.07669 Z-0.24360 I-0.09375 J0.00000 F35.00
G03 Y-0.08569 Z-0.26688 I0.04688 J-0.08119
G03 X0.09263 Y-0.00450 Z-0.29016 I0.04688 J0.08119
G03 X-0.04800 Y0.07669 Z-0.31344 I-0.09375 J0.00000
G03 Y-0.08569 Z-0.33672 I0.04688 J-0.08119
G03 X0.09263 Y-0.00450 Z-0.36000 I0.04688 J0.08119
G03 X-0.04800 Y0.07669 I-0.09375 J0.00000
G03 Y-0.08569 I0.04688 J-0.08119
G03 X0.09263 Y-0.00450 I0.04688 J0.08119
G00 Z0.19685
G00 X0.03938 Y-0.00419
G00 Z-0.34031
G01 Z-0.36000
G01 X0.12726 F70.00
G03 X-0.06007 Y0.11235 I-0.12731 J0.00419
G03 X-0.06733 Y-0.10816 I0.06003 J-0.11235
G03 X0.12726 Y-0.00419 I0.06728 J0.10816
G00 Z0.19685
G00 X0.09263 Y-0.00450
G00 Z-0.34031
G03 X-0.04800 Y0.07669 Z-0.36360 I-0.09375 J0.00000 F35.00
G03 Y-0.08569 Z-0.38688 I0.04688 J-0.08119
G03 X0.09263 Y-0.00450 Z-0.41016 I0.04688 J0.08119
G03 X-0.04800 Y0.07669 Z-0.43344 I-0.09375 J0.00000
G03 Y-0.08569 Z-0.45672 I0.04688 J-0.08119
G03 X0.09263 Y-0.00450 Z-0.48000 I0.04688 J0.08119
G03 X-0.04800 Y0.07669 I-0.09375 J0.00000
G03 Y-0.08569 I0.04688 J-0.08119
G03 X0.09263 Y-0.00450 I0.04688 J0.08119
G00 Z0.19685
G00 X0.03938 Y-0.00419
G00 Z-0.46031
G01 Z-0.48000
G01 X0.12726 F70.00
G03 X-0.06007 Y0.11235 I-0.12731 J0.00419
G03 X-0.06733 Y-0.10816 I0.06003 J-0.11235
G03 X0.12726 Y-0.00419 I0.06728 J0.10816
G00 Z0.19685
G00 X0.09263 Y-0.00450
G00 Z-0.46031
G03 X-0.04800 Y0.07669 Z-0.48360 I-0.09375 J0.00000 F35.00
G03 Y-0.08569 Z-0.50688 I0.04688 J-0.08119
G03 X0.09263 Y-0.00450 Z-0.53016 I0.04688 J0.08119
G03 X-0.04800 Y0.07669 Z-0.55344 I-0.09375 J0.00000
G03 Y-0.08569 Z-0.57672 I0.04688 J-0.08119
G03 X0.09263 Y-0.00450 Z-0.60000 I0.04688 J0.08119
G03 X-0.04800 Y0.07669 I-0.09375 J0.00000
G03 Y-0.08569 I0.04688 J-0.08119
G03 X0.09263 Y-0.00450 I0.04688 J0.08119
G00 Z0.19685
G00 X0.03938 Y-0.00419
G00 Z-0.58031
G01 Z-0.60000
G01 X0.12726 F70.00
G03 X-0.06007 Y0.11235 I-0.12731 J0.00419
G03 X-0.06733 Y-0.10816 I0.06003 J-0.11235
G03 X0.12726 Y-0.00419 I0.06728 J0.10816
G00 Z0.19685
G00 X0.09263 Y-0.00450
G00 Z-0.58031
G03 X-0.04800 Y0.07669 Z-0.60360 I-0.09375 J0.00000 F35.00
G03 Y-0.08569 Z-0.62688 I0.04688 J-0.08119
G03 X0.09263 Y-0.00450 Z-0.65016 I0.04688 J0.08119
G03 X-0.04800 Y0.07669 Z-0.67344 I-0.09375 J0.00000
G03 Y-0.08569 Z-0.69672 I0.04688 J-0.08119
G03 X0.09263 Y-0.00450 Z-0.72000 I0.04688 J0.08119
G03 X-0.04800 Y0.07669 I-0.09375 J0.00000
G03 Y-0.08569 I0.04688 J-0.08119
G03 X0.09263 Y-0.00450 I0.04688 J0.08119
G00 Z0.19685
G00 X0.03938 Y-0.00419
G00 Z-0.70031
G01 Z-0.72000
G01 X0.12726 F70.00
G03 X-0.06007 Y0.11235 I-0.12731 J0.00419
G03 X-0.06733 Y-0.10816 I0.06003 J-0.11235
G03 X0.12726 Y-0.00419 I0.06728 J0.10816
G00 Z0.19685
G00 X0.09263 Y-0.00450
G00 Z-0.70031
G03 X-0.04800 Y0.07669 Z-0.72360 I-0.09375 J0.00000 F35.00
G03 Y-0.08569 Z-0.74688 I0.04688 J-0.08119
G03 X0.09263 Y-0.00450 Z-0.77016 I0.04688 J0.08119
G03 X-0.04800 Y0.07669 Z-0.79344 I-0.09375 J0.00000
G03 Y-0.08569 Z-0.81672 I0.04688 J-0.08119
G03 X0.09263 Y-0.00450 Z-0.84000 I0.04688 J0.08119
G03 X-0.04800 Y0.07669 I-0.09375 J0.00000
G03 Y-0.08569 I0.04688 J-0.08119
G03 X0.09263 Y-0.00450 I0.04688 J0.08119
G00 Z0.19685
G00 X0.03938 Y-0.00419
G00 Z-0.82031
G01 Z-0.84000
G01 X0.12726 F70.00
G03 X-0.06007 Y0.11235 I-0.12731 J0.00419
G03 X-0.06733 Y-0.10816 I0.06003 J-0.11235
G03 X0.12726 Y-0.00419 I0.06728 J0.10816
G00 Z0.19685
G00 X0.09263 Y-0.00450
G00 Z-0.82031
G03 X-0.04800 Y0.07669 Z-0.83021 I-0.09375 J0.00000 F35.00
G03 Y-0.08569 Z-0.84010 I0.04688 J-0.08119
G03 X0.09263 Y-0.00450 Z-0.85000 I0.04688 J0.08119
G03 X-0.04800 Y0.07669 I-0.09375 J0.00000
G03 Y-0.08569 I0.04688 J-0.08119
G03 X0.09263 Y-0.00450 I0.04688 J0.08119
G00 Z0.19685
G00 X0.03938 Y-0.00419
G00 Z-0.83031
G01 Z-0.85000
G01 X0.12726 F70.00
G03 X-0.06007 Y0.11235 I-0.12731 J0.00419
G03 X-0.06733 Y-0.10816 I0.06003 J-0.11235
G03 X0.12726 Y-0.00419 I0.06728 J0.10816
G00 Z0.19685



M05
M30