(Project circle_1in)
(Created by Estlcam version 11 build 11.245)
(Machining time about 00:01:12 hours)

(Required tools:)
(End mill 3/8)

G90
M03 S12000
G00 Z0.19685


(No. 1: Hole 3)
G00 X0.16875 Y-0.00086
G00 Z0.01969
G03 X-0.08437 Y0.14528 Z0.01312 I-0.16875 J0.00000 F35.00 S12000
G03 Y-0.14700 Z0.00656 I0.08438 J-0.14614
G03 X0.16875 Y-0.00086 Z0.00000 I0.08438 J0.14614
G03 X-0.08437 Y0.14528 I-0.16875 J0.00000
G03 Y-0.14700 I0.08438 J-0.14614
G03 X0.16875 Y-0.00086 I0.08438 J0.14614
G03 X0.17540 Y0.07179 I-0.16505 J0.05172 F70.00
G03 X0.14916 Y0.14830 I-0.19304 J-0.02345
G03 X0.08880 Y0.21351 I-0.18527 J-0.11094
G03 X0.00000 Y0.25227 I-0.13736 J-0.19361
G03 X-0.10494 Y0.25249 I-0.05300 J-0.25332
G03 X-0.20881 Y0.20796 I0.05618 J-0.27450
G03 X-0.29232 Y0.12023 I0.17222 J-0.24753
G03 X-0.33750 Y-0.00086 I0.27380 J-0.17113
G03 X-0.33129 Y-0.13809 I0.34002 J-0.05339
G03 X-0.26848 Y-0.26934 I0.35447 J0.08899
G03 X-0.15337 Y-0.37113 I0.30865 J0.23304
G03 X0.00000 Y-0.42273 I0.20421 J0.35322
G03 X0.16952 Y-0.41011 I0.05351 J0.42589
G03 X0.32815 Y-0.32900 I-0.12172 J0.43372
G03 X0.44823 Y-0.18652 I-0.29353 J0.36923
G03 X0.50625 Y-0.00086 I-0.43220 J0.23697
G03 X0.48721 Y0.20095 I-0.51131 J0.05354
G03 X0.38781 Y0.38695 I-0.51256 J-0.15436
G03 X0.21795 Y0.52532 I-0.42953 J-0.35381
G03 X0.00000 Y0.58977 I-0.26958 J-0.51091
G03 X-0.23409 Y0.56430 I-0.05354 J-0.59644
G03 X-0.44746 Y0.44661 I0.18692 J-0.59116
G03 X-0.60413 Y0.24938 I0.41394 J-0.48965
G03 X-0.67500 Y-0.00086 I0.58943 J-0.30209
G03 X-0.64310 Y-0.26724 I0.68139 J-0.05352
G03 X-0.50712 Y-0.50799 I0.66961 J0.21944
G03 X-0.28252 Y-0.68294 I0.54965 J0.47398
G03 X0.00000 Y-0.76023 I0.33454 J0.66784
G03 X0.29868 Y-0.72192 I0.05350 J0.76622
G03 X0.56679 Y-0.56765 I-0.25191 J0.74794
G03 X0.76004 Y-0.31567 I-0.53395 J0.60959
G03 X0.84375 Y-0.00086 I-0.74615 J0.36695
G03 X0.79901 Y0.33010 I-0.85096 J0.05347
G03 X0.62646 Y0.62559 I-0.82621 J-0.28435
G03 X0.34203 Y0.82486 I-0.64284 J-0.61496
G03 X0.00000 Y0.89289 I-0.34202 J-0.82572
G03 X-0.34202 Y0.82486 I0.00000 J-0.89375
G03 X-0.63197 Y0.63112 I0.34202 J-0.82572
G03 X-0.82571 Y0.34117 I0.63198 J-0.63198
G03 X-0.89375 Y-0.00086 I0.82572 J-0.34202
G03 X-0.82571 Y-0.34288 I0.89375 J0.00000
G03 X-0.63197 Y-0.63283 I0.82572 J0.34202
G03 X-0.34202 Y-0.82658 I0.63198 J0.63198
G03 X0.00000 Y-0.89461 I0.34202 J0.82572
G03 X0.34203 Y-0.82658 I0.00000 J0.89375
G03 X0.63198 Y-0.63283 I-0.34202 J0.82572
G03 X0.82572 Y-0.34288 I-0.63198 J0.63198
G03 X0.89375 Y-0.00086 I-0.82572 J0.34202
G03 X-0.44687 Y0.77315 I-0.89375 J0.00000
G03 Y-0.77487 I0.44687 J-0.77401
G03 X0.89375 Y-0.00086 I0.44687 J0.77401
G03 X0.70625 Y0.18664 Z0.01969 I-0.18750 J0.00000 F35.00
G00 Z0.19685


(No. 2: Hole 3)
G00 X0.91250 Y-0.00086 Z0.19685
G00 Z0.01969
G03 X-0.45625 Y0.78939 Z0.01312 I-0.91250 J0.00000 F35.00
G03 Y-0.79111 Z0.00656 I0.45625 J-0.79025
G03 X0.91250 Y-0.00086 Z0.00000 I0.45625 J0.79025
G03 X-0.45625 Y0.78939 I-0.91250 J0.00000
G03 Y-0.79111 I0.45625 J-0.79025
G03 X0.91250 Y-0.00086 I0.45625 J0.79025
G03 X0.72500 Y0.18664 Z0.01969 I-0.18750 J0.00000
G00 Z0.19685


(No. 3: Helical drill 1)
G00 X0.12650 Y0.00000 Z0.19685
G00 Z0.01969
G03 X-0.06325 Y0.10955 Z-0.01864 I-0.12650 J0.00000 F35.00
G03 Y-0.10955 Z-0.05696 I0.06325 J-0.10955
G03 X0.12650 Y0.00000 Z-0.09528 I0.06325 J0.10955
G03 X-0.06325 Y0.10955 Z-0.13360 I-0.12650 J0.00000
G03 Y-0.10955 Z-0.17192 I0.06325 J-0.10955
G03 X0.12650 Y0.00000 Z-0.21024 I0.06325 J0.10955
G03 X-0.06325 Y0.10955 Z-0.24856 I-0.12650 J0.00000
G03 Y-0.10955 Z-0.28688 I0.06325 J-0.10955
G03 X0.12650 Y0.00000 Z-0.32520 I0.06325 J0.10955
G03 X-0.06325 Y0.10955 Z-0.36352 I-0.12650 J0.00000
G03 Y-0.10955 Z-0.40184 I0.06325 J-0.10955
G03 X0.12650 Y0.00000 Z-0.44016 I0.06325 J0.10955
G03 X-0.06325 Y0.10955 Z-0.47848 I-0.12650 J0.00000
G03 Y-0.10955 Z-0.51680 I0.06325 J-0.10955
G03 X0.12650 Y0.00000 Z-0.55512 I0.06325 J0.10955
G03 X-0.06325 Y0.10955 Z-0.59344 I-0.12650 J0.00000
G03 Y-0.10955 Z-0.63176 I0.06325 J-0.10955
G03 X0.12650 Y0.00000 Z-0.67008 I0.06325 J0.10955
G03 X-0.06325 Y0.10955 Z-0.70840 I-0.12650 J0.00000
G03 Y-0.10955 Z-0.74672 I0.06325 J-0.10955
G03 X0.12650 Y0.00000 Z-0.78504 I0.06325 J0.10955
G03 X-0.06325 Y0.10955 Z-0.82336 I-0.12650 J0.00000
G03 Y-0.10955 Z-0.86168 I0.06325 J-0.10955
G03 X0.12650 Y0.00000 Z-0.90000 I0.06325 J0.10955
G03 X-0.06325 Y0.10955 I-0.12650 J0.00000
G03 Y-0.10955 I0.06325 J-0.10955
G03 X0.12650 Y0.00000 I0.06325 J0.10955
G03 X0.00000 Z-0.88031 I-0.06325 J0.00000
G00 Z0.19685


(No. 4: Helical drill 1)
G00 X0.13150 Y0.00000 Z0.19685
G00 Z0.01969
G03 X-0.06575 Y0.11388 Z-0.01864 I-0.13150 J0.00000 F35.00
G03 Y-0.11388 Z-0.05696 I0.06575 J-0.11388
G03 X0.13150 Y0.00000 Z-0.09528 I0.06575 J0.11388
G03 X-0.06575 Y0.11388 Z-0.13360 I-0.13150 J0.00000
G03 Y-0.11388 Z-0.17192 I0.06575 J-0.11388
G03 X0.13150 Y0.00000 Z-0.21024 I0.06575 J0.11388
G03 X-0.06575 Y0.11388 Z-0.24856 I-0.13150 J0.00000
G03 Y-0.11388 Z-0.28688 I0.06575 J-0.11388
G03 X0.13150 Y0.00000 Z-0.32520 I0.06575 J0.11388
G03 X-0.06575 Y0.11388 Z-0.36352 I-0.13150 J0.00000
G03 Y-0.11388 Z-0.40184 I0.06575 J-0.11388
G03 X0.13150 Y0.00000 Z-0.44016 I0.06575 J0.11388
G03 X-0.06575 Y0.11388 Z-0.47848 I-0.13150 J0.00000
G03 Y-0.11388 Z-0.51680 I0.06575 J-0.11388
G03 X0.13150 Y0.00000 Z-0.55512 I0.06575 J0.11388
G03 X-0.06575 Y0.11388 Z-0.59344 I-0.13150 J0.00000
G03 Y-0.11388 Z-0.63176 I0.06575 J-0.11388
G03 X0.13150 Y0.00000 Z-0.67008 I0.06575 J0.11388
G03 X-0.06575 Y0.11388 Z-0.70840 I-0.13150 J0.00000
G03 Y-0.11388 Z-0.74672 I0.06575 J-0.11388
G03 X0.13150 Y0.00000 Z-0.78504 I0.06575 J0.11388
G03 X-0.06575 Y0.11388 Z-0.82336 I-0.13150 J0.00000
G03 Y-0.11388 Z-0.86168 I0.06575 J-0.11388
G03 X0.13150 Y0.00000 Z-0.90000 I0.06575 J0.11388
G03 X-0.06575 Y0.11388 I-0.13150 J0.00000
G03 Y-0.11388 I0.06575 J-0.11388
G03 X0.13150 Y0.00000 I0.06575 J0.11388
G03 X0.00000 Z-0.88031 I-0.06575 J0.00000
G00 Z0.19685

M05
M30
