%
(PSW_FIN)
(T1 D=0.25 CR=0. - ZMIN=-0.52 - FLAT END MILL)
N10 G90 G94 G17 G91.1
N15 G20
(WHEN USING FUSION FOR PERSONAL USE, THE FEEDRATE OF RAPID)
(MOVES IS REDUCED TO MATCH THE FEEDRATE OF CUTTING MOVES,)
(WHICH CAN INCREASE MACHINING TIME. UNRESTRICTED RAPID MOVES)
(ARE AVAILABLE WITH A FUSION SUBSCRIPTION.)
N20 G53 G0 Z0.
(2D CONTOUR1)
N25 T1 M6
N30 S3000 M3
N35 G17 G90 G94
N40 G54
N45 G64 P0.0004 Q0.0004
N50 M8
N55 G0 X0.1761 Y-0.2114
N60 G43 Z0.6 H1
N65 G1 Z0.2 F12.
N70 Z0.0394 F6.
N75 Z-0.495
N80 X0.1763 Y-0.2116 Z-0.4989 F10.
N85 X0.1769 Y-0.2123 Z-0.5027
N90 X0.178 Y-0.2134 Z-0.5063
N95 X0.1794 Y-0.2148 Z-0.5097
N100 X0.1812 Y-0.2166 Z-0.5127
N105 X0.1834 Y-0.2187 Z-0.5152
N110 X0.1857 Y-0.2211 Z-0.5173
N115 X0.1883 Y-0.2236 Z-0.5188
N120 X0.191 Y-0.2263 Z-0.5197
N125 X0.1937 Y-0.2291 Z-0.52
N130 X0.2114 Y-0.2468
N135 G3 X0.2468 I0.0177 J0.0177
N140 G1 X0.457 Y-0.0366 F12.
N145 G2 X0.5453 Y0. I0.0884 J-0.0884
N150 X0.457 Y0.0366 I0. J0.125
N155 G1 X0.0366 Y0.457
N160 G2 X0. Y0.5453 I0.0884 J0.0884
N165 X-0.0366 Y0.457 I-0.125 J0.
N170 G1 X-0.457 Y0.0366
N175 G2 X-0.5453 Y0. I-0.0884 J0.0884
N180 X-0.457 Y-0.0366 I0. J-0.125
N185 G1 X-0.0366 Y-0.457
N190 G2 X0. Y-0.5453 I-0.0884 J-0.0884
N195 X0.0366 Y-0.457 I0.125 J0.
N200 G1 X0.2468 Y-0.2468
N205 G3 Y-0.2114 I-0.0177 J0.0177 F10.
N210 G1 X0.2291 Y-0.1937
N215 X0.2263 Y-0.191 Z-0.5197
N220 X0.2236 Y-0.1883 Z-0.5188
N225 X0.2211 Y-0.1857 Z-0.5173
N230 X0.2187 Y-0.1834 Z-0.5152
N235 X0.2166 Y-0.1812 Z-0.5127
N240 X0.2148 Y-0.1794 Z-0.5097
N245 X0.2134 Y-0.178 Z-0.5063
N250 X0.2123 Y-0.1769 Z-0.5027
N255 X0.2116 Y-0.1763 Z-0.4989
N260 X0.2114 Y-0.1761 Z-0.495
N265 Z0.6 F12.
N270 M5
N275 M9
N280 G53 G0 Z0.
N285 M30
%
