%
(PSW_SPOROCKETHUB_FINISH2)
(T1 D=0.25 CR=0. - ZMIN=-0.125 - FLAT END MILL)
N10 G90 G94 G17 G91.1
N15 G20
(WHEN USING FUSION FOR PERSONAL USE, THE FEEDRATE OF RAPID)
(MOVES IS REDUCED TO MATCH THE FEEDRATE OF CUTTING MOVES,)
(WHICH CAN INCREASE MACHINING TIME. UNRESTRICTED RAPID MOVES)
(ARE AVAILABLE WITH A FUSION SUBSCRIPTION.)
N20 G53 G0 Z0.
(2D CONTOUR2)
N25 T1 M6
N30 S3000 M3
N35 G17 G90 G94
N40 G54
N45 G64 P0.0004 Q0.0004
N50 M8
N55 G0 X-0.9884 Y-0.025
N60 G43 Z0.6 H1
N65 G1 Z0.2 F12.
N70 Z0.0394 F6.
N75 Z-0.1
N80 G18 G2 X-0.9634 Z-0.125 I0.025 K0. F10.
N85 G1 X-0.9384
N90 G17 G3 X-0.9134 Y0. I0. J0.025
N95 G2 X0.9134 I0.9134 J0. F12.
N100 X-0.9134 I-0.9134 J0.
N105 G3 X-0.9384 Y0.025 I-0.025 J0. F10.
N110 G1 X-0.9634
N115 G18 G3 X-0.9884 Z-0.1 I0. K0.025
N120 G1 Z0.6 F12.
N125 G17
N130 M5
N135 M9
N140 G53 G0 Z0.
N145 M30
%
