%
(PSW_SPROCKETHUB)
(T1 D=0.25 CR=0. - ZMIN=-0.54 - FLAT END MILL)
N10 G90 G94 G17 G91.1
N15 G20
(WHEN USING FUSION FOR PERSONAL USE, THE FEEDRATE OF RAPID)
(MOVES IS REDUCED TO MATCH THE FEEDRATE OF CUTTING MOVES,)
(WHICH CAN INCREASE MACHINING TIME. UNRESTRICTED RAPID MOVES)
(ARE AVAILABLE WITH A FUSION SUBSCRIPTION.)
N20 G53 G0 Z0.
(ADAPTIVE3)
N25 T1 M6
N30 S3000 M3
N35 G17 G90 G94
N40 G54
N45 G64 P0.004 Q0.004
N50 M8
N55 G0 X-1.6245 Y-1.1658
N60 G43 Z0.6 H1
N65 G1 Z0.2 F12.
N70 Z0.125
N75 Z0.1 F10.
N80 Z-0.125 F6.
N85 X-1.6219 Y-1.1921 F12.
N90 X-1.62 Y-1.2086
N95 X-1.6196 Y-1.211
N100 X-1.6161 Y-1.225
N105 X-1.6138 Y-1.2332
N110 X-1.6089 Y-1.2497
N115 X-1.604 Y-1.2661
N120 X-1.5989 Y-1.2826
N125 X-1.5909 Y-1.3072
N130 X-1.5875 Y-1.3154
N135 X-1.5832 Y-1.3237
N140 X-1.5827 Y-1.3246
N145 X-1.5781 Y-1.3207
N150 X-1.5743 Y-1.3161
N155 X-1.5707 Y-1.3109
N160 X-1.5667 Y-1.304
N165 X-1.5626 Y-1.2951
N170 X-1.5563 Y-1.2783
N175 X-1.5479 Y-1.2487
N180 X-1.5408 Y-1.2132
N185 X-1.5359 Y-1.1774
N190 X-1.5324 Y-1.1413
N195 X-1.53 Y-1.1052
N200 X-1.5283 Y-1.0691
N205 X-1.5272 Y-1.0329
N210 X-1.5263 Y-0.9968
N215 X-1.5257 Y-0.9606
N220 X-1.5253 Y-0.9244
N225 X-1.525 Y-0.8882
N230 X-1.5248 Y-0.852
N235 X-1.5247 Y-0.8159
N240 X-1.5245 Y-0.7435
N245 X-1.5244 Y-0.6349
N250 Y-0.3093
N255 Y0.6676
N260 Y1.3912
N265 X-1.5187 Y1.4084
N270 X-1.4996 Y1.4391
N275 X-1.472 Y1.4626
N280 X-1.4403 Y1.4799
N285 X-1.4064 Y1.4926
N290 X-1.3714 Y1.5017
N295 X-1.3358 Y1.5083
N300 X-1.2999 Y1.513
N305 X-1.2639 Y1.5163
N310 X-1.2278 Y1.5187
N315 X-1.1916 Y1.5203
N320 X-1.1555 Y1.5215
N325 X-1.1193 Y1.5224
N330 X-1.0831 Y1.5229
N335 X-1.0469 Y1.5234
N340 X-1.0108 Y1.5237
N345 X-0.9746 Y1.5239
N350 X-0.9384 Y1.524
N355 X-0.866 Y1.5242
N360 X-0.7575 Y1.5243
N365 X-0.4319 Y1.5244
N370 X-0.3233
N375 X1.3772
N380 X1.3863 Y1.5243
N385 X1.3952 Y1.5228
N390 X1.4123 Y1.517
N395 X1.4422 Y1.4966
N400 X1.4649 Y1.4683
N405 X1.4816 Y1.4363
N410 X1.4938 Y1.4022
N415 X1.5026 Y1.3671
N420 X1.5089 Y1.3315
N425 X1.5134 Y1.2956
N430 X1.5166 Y1.2595
N435 X1.5189 Y1.2234
N440 X1.5205 Y1.1873
N445 X1.5216 Y1.1511
N450 X1.5224 Y1.115
N455 X1.523 Y1.0788
N460 X1.5234 Y1.0426
N465 X1.5237 Y1.0064
N470 X1.5239 Y0.9702
N475 X1.524 Y0.934
N480 X1.5242 Y0.8617
N485 X1.5243 Y0.7531
N490 X1.5244 Y0.4275
N495 Y-0.6941
N500 Y-1.3816
N505 X1.5219 Y-1.3995
N510 X1.5141 Y-1.4158
N515 X1.4926 Y-1.4449
N520 X1.4638 Y-1.4669
N525 X1.4315 Y-1.4831
N530 X1.3972 Y-1.4949
N535 X1.3621 Y-1.5034
N540 X1.3264 Y-1.5095
N545 X1.2905 Y-1.5138
N550 X1.2544 Y-1.5169
N555 X1.2183 Y-1.5191
N560 X1.1822 Y-1.5206
N565 X1.146 Y-1.5217
N570 X1.1098 Y-1.5225
N575 X1.0737 Y-1.523
N580 X1.0375 Y-1.5234
N585 X1.0013 Y-1.5237
N590 X0.9651 Y-1.5239
N595 X0.8928 Y-1.5241
N600 X0.7842 Y-1.5243
N605 X0.5671 Y-1.5244
N610 X0.2777
N615 X0.2415
N620 X0.2325 Y-1.5237
N625 X0.2192 Y-1.5228
N630 X0.2042 Y-1.5219
N635 X0.1872 Y-1.521
N640 X0.1674 Y-1.5201
N645 X0.1438 Y-1.5192
N650 X0.1145 Y-1.5183
N655 X0.0783 Y-1.5175
N660 X0.0421 Y-1.5168
N665 X0.006 Y-1.5164
N670 X-0.0302 Y-1.5161
N675 X-0.0664 Y-1.5159
N680 X-0.1026 Y-1.5158
N685 X-0.175 Y-1.5156
N690 X-0.2835 Y-1.5155
N695 X-0.573 Y-1.5154
N700 X-1.378
N705 X-1.387 Y-1.5144
N710 X-1.4044 Y-1.5096
N715 X-1.412 Y-1.5046
N720 X-1.4187 Y-1.4986
N725 X-1.4244 Y-1.4915
N730 X-1.4335 Y-1.4759
N735 X-1.4432 Y-1.441
N740 X-1.4461 Y-1.4049
N745 X-1.4452 Y-1.3688
N750 X-1.4425 Y-1.3327
N755 X-1.4389 Y-1.2967
N760 X-1.4351 Y-1.2607
N765 X-1.4334 Y-1.2427
N770 X-1.4312 Y-1.2202
N775 X-1.4293 Y-1.1978
N780 X-1.4291 Y-1.1616
N785 X-1.4285 Y-1.1255
N790 X-1.4273 Y-1.0531
N795 X-1.4267 Y-1.0169
N800 X-1.4263 Y-0.9808
N805 X-1.4258 Y-0.9446
N810 X-1.4255 Y-0.9084
N815 X-1.4253 Y-0.8722
N820 X-1.425 Y-0.836
N825 X-1.4248 Y-0.7637
N830 X-1.4246 Y-0.6913
N835 X-1.4245 Y-0.5828
N840 X-1.4244 Y-0.3295
N845 Y0.756
N850 Y1.2625
N855 X-1.4146 Y1.2973
N860 X-1.3939 Y1.327
N865 X-1.3666 Y1.3508
N870 X-1.3355 Y1.3693
N875 X-1.3022 Y1.3835
N880 X-1.2677 Y1.3941
N885 X-1.2324 Y1.4021
N890 X-1.1967 Y1.4081
N895 X-1.1608 Y1.4124
N900 X-1.1247 Y1.4157
N905 X-1.0886 Y1.418
N910 X-1.0525 Y1.4197
N915 X-1.0163 Y1.421
N920 X-0.9802 Y1.4219
N925 X-0.944 Y1.4226
N930 X-0.9078 Y1.4231
N935 X-0.8716 Y1.4234
N940 X-0.8354 Y1.4237
N945 X-0.7993 Y1.4239
N950 X-0.7269 Y1.4241
N955 X-0.6184 Y1.4243
N960 X-0.4013 Y1.4244
N965 X-0.0033
N970 X1.2631
N975 X1.2979 Y1.4144
N980 X1.3274 Y1.3935
N985 X1.3511 Y1.3662
N990 X1.3696 Y1.335
N995 X1.3837 Y1.3017
N1000 X1.3943 Y1.2671
N1005 X1.4022 Y1.2318
N1010 X1.4081 Y1.1961
N1015 X1.4125 Y1.1602
N1020 X1.4157 Y1.1242
N1025 X1.4181 Y1.0881
N1030 X1.4198 Y1.0519
N1035 X1.421 Y1.0158
N1040 X1.4219 Y0.9796
N1045 X1.4226 Y0.9434
N1050 X1.4231 Y0.9073
N1055 X1.4234 Y0.8711
N1060 X1.4237 Y0.8349
N1065 X1.4239 Y0.7987
N1070 X1.424 Y0.7625
N1075 X1.4242 Y0.6902
N1080 X1.4243 Y0.5816
N1085 X1.4244 Y0.2922
N1090 Y-1.2275
N1095 Y-1.2637
N1100 X1.414 Y-1.2983
N1105 X1.3929 Y-1.3277
N1110 X1.3655 Y-1.3513
N1115 X1.3343 Y-1.3697
N1120 X1.301 Y-1.3838
N1125 X1.2664 Y-1.3944
N1130 X1.2311 Y-1.4023
N1135 X1.1954 Y-1.4082
N1140 X1.1595 Y-1.4125
N1145 X1.1234 Y-1.4157
N1150 X1.0873 Y-1.4181
N1155 X1.0512 Y-1.4198
N1160 X1.015 Y-1.421
N1165 X0.9789 Y-1.4219
N1170 X0.9427 Y-1.4226
N1175 X0.9065 Y-1.4231
N1180 X0.8703 Y-1.4234
N1185 X0.8341 Y-1.4237
N1190 X0.798 Y-1.4239
N1195 X0.7256 Y-1.4241
N1200 X0.6171 Y-1.4243
N1205 X0.4 Y-1.4244
N1210 X0.3638
N1215 X0.3276 Y-1.4243
N1220 X0.2914 Y-1.4235
N1225 X0.2553 Y-1.4225
N1230 X0.1829 Y-1.4204
N1235 X0.1468 Y-1.4194
N1240 X0.1106 Y-1.4186
N1245 X0.0744 Y-1.4179
N1250 X0.0382 Y-1.4173
N1255 X0.0021 Y-1.4169
N1260 X-0.0341 Y-1.4165
N1265 X-0.0703 Y-1.4163
N1270 X-0.1065 Y-1.4161
N1275 X-0.1789 Y-1.4158
N1280 X-0.2512 Y-1.4156
N1285 X-0.3598 Y-1.4155
N1290 X-0.4683 Y-1.4154
N1295 X-1.201
N1300 X-1.21 Y-1.4145
N1305 X-1.2187 Y-1.4123
N1310 X-1.2353 Y-1.4051
N1315 X-1.2634 Y-1.3822
N1320 X-1.2833 Y-1.352
N1325 X-1.297 Y-1.3185
N1330 X-1.3063 Y-1.2836
N1335 X-1.3129 Y-1.248
N1340 X-1.3174 Y-1.2121
N1345 X-1.3205 Y-1.176
N1350 X-1.3225 Y-1.1399
N1355 X-1.3237 Y-1.1037
N1360 X-1.3245 Y-1.0676
N1365 X-1.3249 Y-1.0314
N1370 X-1.3251 Y-0.9952
N1375 Y-0.959
N1380 Y-0.9228
N1385 X-1.3246 Y-0.7058
N1390 X-1.3245 Y-0.561
N1395 X-1.3244 Y-0.3078
N1400 Y-0.1992
N1405 Y1.1395
N1410 X-1.3188 Y1.1753
N1415 X-1.3019 Y1.2073
N1420 X-1.2775 Y1.234
N1425 X-1.2483 Y1.2553
N1430 X-1.2162 Y1.2721
N1435 X-1.1824 Y1.285
N1440 X-1.1476 Y1.2949
N1445 X-1.1122 Y1.3023
N1450 X-1.0765 Y1.308
N1455 X-1.0405 Y1.3122
N1460 X-1.0045 Y1.3153
N1465 X-0.9684 Y1.3177
N1470 X-0.9322 Y1.3194
N1475 X-0.8961 Y1.3207
N1480 X-0.8599 Y1.3217
N1485 X-0.8237 Y1.3224
N1490 X-0.7875 Y1.3229
N1495 X-0.7514 Y1.3233
N1500 X-0.7152 Y1.3236
N1505 X-0.679 Y1.3238
N1510 X-0.6428 Y1.3239
N1515 X-0.5705 Y1.3241
N1520 X-0.4619 Y1.3243
N1525 X-0.2448 Y1.3244
N1530 X1.1301
N1535 X1.1662 Y1.3219
N1540 X1.1994 Y1.3075
N1545 X1.2275 Y1.2847
N1550 X1.2502 Y1.2566
N1555 X1.2681 Y1.2251
N1560 X1.2819 Y1.1917
N1565 X1.2925 Y1.1571
N1570 X1.3006 Y1.1218
N1575 X1.3066 Y1.0861
N1580 X1.3112 Y1.0502
N1585 X1.3146 Y1.0142
N1590 X1.3171 Y0.9781
N1595 X1.319 Y0.942
N1600 X1.3204 Y0.9058
N1605 X1.3215 Y0.8697
N1610 X1.3222 Y0.8335
N1615 X1.3228 Y0.7973
N1620 X1.3232 Y0.7611
N1625 X1.3235 Y0.725
N1630 X1.3237 Y0.6888
N1635 X1.3239 Y0.6526
N1640 X1.3241 Y0.5802
N1645 X1.3243 Y0.4717
N1650 X1.3244 Y0.2546
N1655 Y-0.6861
N1660 Y-1.1565
N1665 X1.3129 Y-1.1908
N1670 X1.292 Y-1.2203
N1675 X1.265 Y-1.2444
N1680 X1.2343 Y-1.2636
N1685 X1.2014 Y-1.2785
N1690 X1.167 Y-1.2899
N1695 X1.1319 Y-1.2986
N1700 X1.0963 Y-1.3051
N1705 X1.0605 Y-1.3101
N1710 X1.0245 Y-1.3138
N1715 X0.9884 Y-1.3165
N1720 X0.9523 Y-1.3186
N1725 X0.9161 Y-1.3201
N1730 X0.88 Y-1.3212
N1735 X0.8438 Y-1.322
N1740 X0.8076 Y-1.3227
N1745 X0.7714 Y-1.3231
N1750 X0.7353 Y-1.3234
N1755 X0.6991 Y-1.3237
N1760 X0.6629 Y-1.3239
N1765 X0.5905 Y-1.3241
N1770 X0.482 Y-1.3243
N1775 X0.4458
N1780 X0.4096
N1785 X0.3734 Y-1.324
N1790 X0.3373 Y-1.3235
N1795 X0.3011 Y-1.3228
N1800 X0.2649 Y-1.3221
N1805 X0.1926 Y-1.3204
N1810 X0.1564 Y-1.3197
N1815 X0.1202 Y-1.319
N1820 X0.084 Y-1.3183
N1825 X0.0479 Y-1.3178
N1830 X0.0117 Y-1.3173
N1835 X-0.0245 Y-1.317
N1840 X-0.0607 Y-1.3166
N1845 X-0.0969 Y-1.3164
N1850 X-0.133 Y-1.3162
N1855 X-0.2054 Y-1.3159
N1860 X-0.2778 Y-1.3157
N1865 X-0.3863 Y-1.3155
N1870 X-0.6034 Y-1.3154
N1875 X-1.0738
N1880 X-1.0911 Y-1.3103
N1885 X-1.1233 Y-1.2938
N1890 X-1.1493 Y-1.2686
N1895 X-1.1694 Y-1.2385
N1900 X-1.1846 Y-1.2057
N1905 X-1.1959 Y-1.1713
N1910 X-1.2042 Y-1.1361
N1915 X-1.2103 Y-1.1004
N1920 X-1.2146 Y-1.0645
N1925 X-1.2177 Y-1.0284
N1930 X-1.2198 Y-0.9923
N1935 X-1.2214 Y-0.9562
N1940 X-1.2224 Y-0.92
N1945 X-1.2231 Y-0.8838
N1950 X-1.2236 Y-0.8477
N1955 X-1.2239 Y-0.8115
N1960 X-1.2241 Y-0.7753
N1965 X-1.2243 Y-0.7391
N1970 X-1.2244 Y-0.6668
N1975 Y-0.522
N1980 Y-0.3411
N1985 Y1.0338
N1990 X-1.2184 Y1.0695
N1995 X-1.2018 Y1.1017
N2000 X-1.1779 Y1.1287
N2005 X-1.1491 Y1.1507
N2010 X-1.1174 Y1.1681
N2015 X-1.0838 Y1.1816
N2020 X-1.0492 Y1.1921
N2025 X-1.0139 Y1.2
N2030 X-0.9782 Y1.2061
N2035 X-0.9423 Y1.2107
N2040 X-0.9063 Y1.2141
N2045 X-0.8702 Y1.2167
N2050 X-0.8341 Y1.2187
N2055 X-0.7979 Y1.2201
N2060 X-0.7618 Y1.2212
N2065 X-0.7256 Y1.222
N2070 X-0.6894 Y1.2226
N2075 X-0.6532 Y1.2231
N2080 X-0.617 Y1.2234
N2085 X-0.5809 Y1.2237
N2090 X-0.5447 Y1.2238
N2095 X-0.4723 Y1.2241
N2100 X-0.3638 Y1.2243
N2105 X-0.1829 Y1.2244
N2110 X1.0111
N2115 X1.0473 Y1.2243
N2120 X1.082 Y1.2139
N2125 X1.1124 Y1.1943
N2130 X1.1375 Y1.1682
N2135 X1.1576 Y1.1382
N2140 X1.1735 Y1.1056
N2145 X1.1858 Y1.0716
N2150 X1.1952 Y1.0367
N2155 X1.2024 Y1.0012
N2160 X1.2079 Y0.9654
N2165 X1.212 Y0.9295
N2170 X1.2151 Y0.8935
N2175 X1.2175 Y0.8574
N2180 X1.2192 Y0.8212
N2185 X1.2205 Y0.7851
N2190 X1.2215 Y0.7489
N2195 X1.2223 Y0.7127
N2200 X1.2228 Y0.6765
N2205 X1.2232 Y0.6404
N2210 X1.2235 Y0.6042
N2215 X1.2237 Y0.568
N2220 X1.2239 Y0.5318
N2225 X1.2241 Y0.4594
N2230 X1.2243 Y0.3509
N2235 X1.2244 Y0.1338
N2240 Y-0.9516
N2245 Y-1.024
N2250 X1.2215 Y-1.0601
N2255 X1.2076 Y-1.0935
N2260 X1.1853 Y-1.122
N2265 X1.1576 Y-1.1453
N2270 X1.1266 Y-1.1638
N2275 X1.0934 Y-1.1783
N2280 X1.059 Y-1.1895
N2285 X1.0238 Y-1.1981
N2290 X0.9883 Y-1.2046
N2295 X0.9524 Y-1.2095
N2300 X0.9164 Y-1.2133
N2305 X0.8803 Y-1.2161
N2310 X0.8442 Y-1.2182
N2315 X0.8081 Y-1.2197
N2320 X0.7719 Y-1.2209
N2325 X0.7357 Y-1.2218
N2330 X0.6996 Y-1.2225
N2335 X0.6634 Y-1.223
N2340 X0.6272 Y-1.2233
N2345 X0.591 Y-1.2236
N2350 X0.5549 Y-1.2238
N2355 X0.5187 Y-1.2239
N2360 X0.4825 Y-1.224
N2365 X0.4463 Y-1.2239
N2370 X0.4101 Y-1.2237
N2375 X0.3739 Y-1.2234
N2380 X0.3378 Y-1.2229
N2385 X0.3016 Y-1.2223
N2390 X0.1569 Y-1.2197
N2395 X0.1207 Y-1.2191
N2400 X0.0845 Y-1.2185
N2405 X0.0484 Y-1.218
N2410 X0.0122 Y-1.2176
N2415 X-0.024 Y-1.2172
N2420 X-0.0602 Y-1.2169
N2425 X-0.0964 Y-1.2166
N2430 X-0.1687 Y-1.2162
N2435 X-0.2411 Y-1.2159
N2440 X-0.3496 Y-1.2156
N2445 X-0.4944 Y-1.2155
N2450 X-0.6029 Y-1.2154
N2455 X-0.9286
N2460 X-0.9647 Y-1.2153
N2465 X-0.9987 Y-1.2029
N2470 X-1.0277 Y-1.1813
N2475 X-1.0511 Y-1.1537
N2480 X-1.0695 Y-1.1225
N2485 X-1.0836 Y-1.0891
N2490 X-1.0943 Y-1.0546
N2495 X-1.1023 Y-1.0193
N2500 X-1.1083 Y-0.9836
N2505 X-1.1127 Y-0.9477
N2510 X-1.1159 Y-0.9117
N2515 X-1.1183 Y-0.8756
N2520 X-1.1201 Y-0.8394
N2525 X-1.1213 Y-0.8033
N2530 X-1.1222 Y-0.7671
N2535 X-1.1229 Y-0.7309
N2540 X-1.1233 Y-0.6947
N2545 X-1.1236 Y-0.6586
N2550 X-1.1239 Y-0.6224
N2555 X-1.124 Y-0.5862
N2560 X-1.1242 Y-0.5138
N2565 X-1.1243 Y-0.4053
N2570 X-1.1244 Y-0.0797
N2575 Y0.3545
N2580 Y0.9334
N2585 X-1.1172 Y0.9689
N2590 X-1.1001 Y1.0008
N2595 X-1.0759 Y1.0277
N2600 X-1.0471 Y1.0496
N2605 X-1.0154 Y1.0669
N2610 X-0.9818 Y1.0805
N2615 X-0.9472 Y1.0911
N2620 X-0.9119 Y1.0991
N2625 X-0.8763 Y1.1053
N2630 X-0.8404 Y1.11
N2635 X-0.8044 Y1.1136
N2640 X-0.7683 Y1.1162
N2645 X-0.7322 Y1.1183
N2650 X-0.6961 Y1.1198
N2655 X-0.6599 Y1.1209
N2660 X-0.6237 Y1.1218
N2665 X-0.5875 Y1.1225
N2670 X-0.5514 Y1.1229
N2675 X-0.5152 Y1.1233
N2680 X-0.479 Y1.1236
N2685 X-0.4428 Y1.1238
N2690 X-0.3705 Y1.124
N2695 X-0.2619 Y1.1242
N2700 X-0.081 Y1.1244
N2705 X0.2084
N2710 X0.9321
N2715 X0.9677 Y1.1178
N2720 X0.9997 Y1.101
N2725 X1.0268 Y1.077
N2730 X1.0489 Y1.0483
N2735 X1.0664 Y1.0167
N2740 X1.0801 Y0.9832
N2745 X1.0907 Y0.9486
N2750 X1.0989 Y0.9134
N2755 X1.1051 Y0.8777
N2760 X1.1098 Y0.8418
N2765 X1.1134 Y0.8058
N2770 X1.1161 Y0.7698
N2775 X1.1182 Y0.7336
N2780 X1.1197 Y0.6975
N2785 X1.1209 Y0.6613
N2790 X1.1218 Y0.6252
N2795 X1.1224 Y0.589
N2800 X1.1229 Y0.5528
N2805 X1.1233 Y0.5166
N2810 X1.1236 Y0.4804
N2815 X1.1238 Y0.4443
N2820 X1.124 Y0.3719
N2825 X1.1242 Y0.2634
N2830 X1.1244 Y0.0824
N2835 Y-0.0623
N2840 Y-0.9306
N2845 X1.1181 Y-0.9663
N2850 X1.1017 Y-0.9985
N2855 X1.078 Y-1.0258
N2860 X1.0495 Y-1.0481
N2865 X1.0179 Y-1.0658
N2870 X0.9845 Y-1.0796
N2875 X0.9499 Y-1.0903
N2880 X0.9147 Y-1.0986
N2885 X0.8791 Y-1.1049
N2890 X0.8432 Y-1.1097
N2895 X0.8072 Y-1.1133
N2900 X0.7711 Y-1.1161
N2905 X0.735 Y-1.1181
N2910 X0.6989 Y-1.1197
N2915 X0.6627 Y-1.1209
N2920 X0.6265 Y-1.1217
N2925 X0.5903 Y-1.1224
N2930 X0.5542 Y-1.1229
N2935 X0.518 Y-1.1232
N2940 X0.4818 Y-1.1233
N2945 X0.4456
N2950 X0.4094 Y-1.1231
N2955 X0.3733 Y-1.1228
N2960 X0.3371 Y-1.1224
N2965 X0.3009 Y-1.1219
N2970 X0.1562 Y-1.1196
N2975 X0.0838 Y-1.1186
N2980 X0.0477 Y-1.1182
N2985 X0.0115 Y-1.1177
N2990 X-0.0247 Y-1.1174
N2995 X-0.0609 Y-1.1171
N3000 X-0.1332 Y-1.1165
N3005 X-0.2056 Y-1.1162
N3010 X-0.278 Y-1.1159
N3015 X-0.3865 Y-1.1157
N3020 X-0.5312 Y-1.1155
N3025 X-0.7845 Y-1.1154
N3030 X-0.8207
N3035 X-0.8569 Y-1.1148
N3040 X-0.891 Y-1.1028
N3045 X-0.9204 Y-1.0817
N3050 X-0.9445 Y-1.0547
N3055 X-0.9636 Y-1.024
N3060 X-0.9785 Y-0.991
N3065 X-0.99 Y-0.9567
N3070 X-0.9987 Y-0.9216
N3075 X-1.0053 Y-0.886
N3080 X-1.0102 Y-0.8502
N3085 X-1.0139 Y-0.8142
N3090 X-1.0167 Y-0.7781
N3095 X-1.0187 Y-0.742
N3100 X-1.0203 Y-0.7058
N3105 X-1.0214 Y-0.6696
N3110 X-1.0222 Y-0.6335
N3115 X-1.0228 Y-0.5973
N3120 X-1.0232 Y-0.5611
N3125 X-1.0236 Y-0.5249
N3130 X-1.0238 Y-0.4888
N3135 X-1.024 Y-0.4526
N3140 X-1.0242 Y-0.3802
N3145 X-1.0243 Y-0.2717
N3150 X-1.0244 Y-0.1269
N3155 Y0.8138
N3160 X-1.0221 Y0.8499
N3165 X-1.0095 Y0.8838
N3170 X-0.9886 Y0.9133
N3175 X-0.9619 Y0.9378
N3180 X-0.9315 Y0.9574
N3185 X-0.8988 Y0.9729
N3190 X-0.8647 Y0.985
N3195 X-0.8298 Y0.9944
N3200 X-0.7943 Y1.0016
N3205 X-0.7586 Y1.0071
N3210 X-0.7226 Y1.0113
N3215 X-0.6866 Y1.0145
N3220 X-0.6505 Y1.017
N3225 X-0.6144 Y1.0188
N3230 X-0.5782 Y1.0202
N3235 X-0.542 Y1.0212
N3240 X-0.5059 Y1.022
N3245 X-0.4697 Y1.0226
N3250 X-0.4335 Y1.023
N3255 X-0.3973 Y1.0234
N3260 X-0.3612 Y1.0236
N3265 X-0.325 Y1.0238
N3270 X-0.2526 Y1.0241
N3275 X-0.1441 Y1.0243
N3280 X-0.0717
N3285 X0.2178 Y1.0244
N3290 X0.8328
N3295 X0.8682 Y1.0167
N3300 X0.9 Y0.9994
N3305 X0.9268 Y0.9751
N3310 X0.9486 Y0.9463
N3315 X0.9661 Y0.9146
N3320 X0.9797 Y0.881
N3325 X0.9903 Y0.8465
N3330 X0.9985 Y0.8112
N3335 X1.0047 Y0.7756
N3340 X1.0095 Y0.7397
N3345 X1.0131 Y0.7037
N3350 X1.0159 Y0.6676
N3355 X1.018 Y0.6315
N3360 X1.0196 Y0.5954
N3365 X1.0208 Y0.5592
N3370 X1.0217 Y0.523
N3375 X1.0223 Y0.4868
N3380 X1.0228 Y0.4507
N3385 X1.0232 Y0.4145
N3390 X1.0235 Y0.3783
N3395 X1.0237 Y0.3421
N3400 X1.0239 Y0.3059
N3405 X1.0241 Y0.2336
N3410 X1.0243 Y0.125
N3415 Y0.0165
N3420 X1.0244 Y-0.4901
N3425 Y-0.8157
N3430 X1.0216 Y-0.8518
N3435 X1.0086 Y-0.8855
N3440 X0.9873 Y-0.9148
N3445 X0.9603 Y-0.9389
N3450 X0.9298 Y-0.9583
N3455 X0.897 Y-0.9736
N3460 X0.8629 Y-0.9856
N3465 X0.8279 Y-0.9949
N3470 X0.7924 Y-1.002
N3475 X0.7566 Y-1.0074
N3480 X0.7207 Y-1.0115
N3485 X0.6847 Y-1.0147
N3490 X0.6486 Y-1.0171
N3495 X0.6124 Y-1.0188
N3500 X0.5763 Y-1.0201
N3505 X0.5401 Y-1.0211
N3510 X0.5039 Y-1.0217
N3515 X0.4677 Y-1.022
N3520 X0.4315 Y-1.0221
N3525 X0.3954
N3530 X0.3592 Y-1.0219
N3535 X0.323 Y-1.0216
N3540 X0.2868 Y-1.0212
N3545 X0.2145 Y-1.0203
N3550 X0.1059 Y-1.0189
N3555 X0.0336 Y-1.0181
N3560 X-0.0388 Y-1.0174
N3565 X-0.1112 Y-1.0168
N3570 X-0.1835 Y-1.0164
N3575 X-0.2559 Y-1.0161
N3580 X-0.3644 Y-1.0158
N3585 X-0.473 Y-1.0156
N3590 X-0.6539 Y-1.0155
N3595 X-0.7262
N3600 X-0.7622 Y-1.0116
N3605 X-0.7953 Y-0.9969
N3610 X-0.8235 Y-0.9742
N3615 X-0.8465 Y-0.9463
N3620 X-0.8648 Y-0.9151
N3625 X-0.8791 Y-0.8819
N3630 X-0.8901 Y-0.8474
N3635 X-0.8986 Y-0.8122
N3640 X-0.905 Y-0.7766
N3645 X-0.9099 Y-0.7408
N3650 X-0.9136 Y-0.7048
N3655 X-0.9163 Y-0.6687
N3660 X-0.9184 Y-0.6326
N3665 X-0.9199 Y-0.5964
N3670 X-0.9211 Y-0.5603
N3675 X-0.922 Y-0.5241
N3680 X-0.9226 Y-0.4879
N3685 X-0.9231 Y-0.4517
N3690 X-0.9234 Y-0.4156
N3695 X-0.9237 Y-0.3794
N3700 X-0.9239 Y-0.3432
N3705 X-0.9241 Y-0.2708
N3710 X-0.9243 Y-0.1623
N3715 Y-0.1234
N3720 X-0.9244 Y-0.1211
N3725 X-0.9245 Y-0.1188
N3730 X-0.9247 Y-0.1164
N3735 X-0.9275 Y-0.0904
N3740 X-0.9292 Y-0.074
N3745 X-0.9301 Y-0.0658
N3750 X-0.9313 Y-0.0411
N3755 X-0.9319 Y-0.0164
N3760 X-0.932 Y-0.0082
N3765 Y0.0082
N3770 X-0.9319 Y0.0164
N3775 X-0.931 Y0.0411
N3780 X-0.93 Y0.0658
N3785 X-0.9293 Y0.074
N3790 X-0.9275 Y0.1101
N3795 X-0.9266 Y0.1463
N3800 X-0.9259 Y0.1825
N3805 X-0.9255 Y0.2187
N3810 X-0.9252 Y0.2548
N3815 X-0.9249 Y0.291
N3820 X-0.9248 Y0.3272
N3825 X-0.9246 Y0.3996
N3830 X-0.9245 Y0.5081
N3835 X-0.9244 Y0.7252
N3840 X-0.9185 Y0.7609
N3845 X-0.9027 Y0.7935
N3850 X-0.8796 Y0.8213
N3855 X-0.8515 Y0.8441
N3860 X-0.8203 Y0.8623
N3865 X-0.7871 Y0.8767
N3870 X-0.7527 Y0.8879
N3875 X-0.7175 Y0.8966
N3880 X-0.682 Y0.9032
N3885 X-0.6461 Y0.9083
N3890 X-0.6102 Y0.9122
N3895 X-0.5741 Y0.9152
N3900 X-0.538 Y0.9174
N3905 X-0.5019 Y0.9191
N3910 X-0.4657 Y0.9204
N3915 X-0.4295 Y0.9214
N3920 X-0.3934 Y0.9221
N3925 X-0.3572 Y0.9227
N3930 X-0.321 Y0.9231
N3935 X-0.2848 Y0.9234
N3940 X-0.2486 Y0.9237
N3945 X-0.2125 Y0.9238
N3950 X-0.1401 Y0.9241
N3955 X-0.1251
N3960 X-0.1228 Y0.9242
N3965 X-0.1204 Y0.9243
N3970 X-0.1181 Y0.9245
N3975 X-0.1151 Y0.9249
N3980 X-0.0987 Y0.9267
N3985 X-0.0904 Y0.9276
N3990 X-0.074 Y0.9293
N3995 X-0.0658 Y0.93
N4000 X-0.0411 Y0.931
N4005 X-0.0164 Y0.9319
N4010 X-0.0082 Y0.932
N4015 X0.0082
N4020 X0.0164 Y0.9319
N4025 X0.0411 Y0.9313
N4030 X0.0576 Y0.9305
N4035 X0.0937
N4040 X0.1299 Y0.9287
N4045 X0.166 Y0.9274
N4050 X0.2022 Y0.9265
N4055 X0.2384 Y0.9259
N4060 X0.2746 Y0.9254
N4065 X0.3107 Y0.9251
N4070 X0.3469 Y0.9249
N4075 X0.3831 Y0.9248
N4080 X0.4555 Y0.9246
N4085 X0.564 Y0.9245
N4090 X0.7087 Y0.9244
N4095 X0.7449 Y0.9228
N4100 X0.7792 Y0.9114
N4105 X0.8092 Y0.8912
N4110 X0.8343 Y0.8651
N4115 X0.8546 Y0.8351
N4120 X0.8706 Y0.8027
N4125 X0.8832 Y0.7688
N4130 X0.8929 Y0.7339
N4135 X0.9004 Y0.6985
N4140 X0.9062 Y0.6628
N4145 X0.9106 Y0.6269
N4150 X0.9139 Y0.5909
N4155 X0.9165 Y0.5548
N4160 X0.9184 Y0.5187
N4165 X0.9199 Y0.4825
N4170 X0.921 Y0.4463
N4175 X0.9218 Y0.4102
N4180 X0.9224 Y0.374
N4185 X0.9229 Y0.3378
N4190 X0.9233 Y0.3016
N4195 X0.9236 Y0.2655
N4200 X0.9238 Y0.2293
N4205 X0.924 Y0.1569
N4210 X0.9241 Y0.1261
N4215 X0.9242 Y0.1238
N4220 X0.9243 Y0.1215
N4225 X0.9245 Y0.1193
N4230 X0.925 Y0.1151
N4235 X0.9292 Y0.074
N4240 X0.93 Y0.0658
N4245 X0.931 Y0.0411
N4250 X0.9319 Y0.0164
N4255 X0.9321 Y0.0082
N4260 X0.9322 Y-0.0082
N4265 X0.9321 Y-0.0164
N4270 X0.931 Y-0.0411
N4275 X0.93 Y-0.0658
N4280 X0.9292 Y-0.074
N4285 X0.9273 Y-0.1101
N4290 X0.9264 Y-0.1463
N4295 X0.9258 Y-0.1825
N4300 X0.9254 Y-0.2187
N4305 X0.9251 Y-0.2548
N4310 X0.9249 Y-0.291
N4315 X0.9248 Y-0.3272
N4320 X0.9246 Y-0.3996
N4325 X0.9245 Y-0.5081
N4330 X0.9244 Y-0.7252
N4335 X0.9185 Y-0.7609
N4340 X0.9028 Y-0.7935
N4345 X0.8796 Y-0.8213
N4350 X0.8515 Y-0.8441
N4355 X0.8203 Y-0.8623
N4360 X0.7871 Y-0.8767
N4365 X0.7527 Y-0.8879
N4370 X0.7175 Y-0.8966
N4375 X0.682 Y-0.9032
N4380 X0.6461 Y-0.9083
N4385 X0.6102 Y-0.9121
N4390 X0.5741 Y-0.9149
N4395 X0.538 Y-0.917
N4400 X0.5018 Y-0.9185
N4405 X0.4657 Y-0.9195
N4410 X0.4295 Y-0.9202
N4415 X0.3933 Y-0.9206
N4420 X0.3571 Y-0.9207
N4425 X0.3209
N4430 X0.2848 Y-0.9205
N4435 X0.2486 Y-0.9202
N4440 X0.1762 Y-0.9196
N4445 X0.1601 Y-0.9194
N4450 X0.1562 Y-0.9195
N4455 X0.1523 Y-0.9198
N4460 X0.1485 Y-0.9204
N4465 X0.1465 Y-0.9208
N4470 X0.1233 Y-0.9239
N4475 X0.1151 Y-0.9249
N4480 X0.0904 Y-0.9275
N4485 X0.074 Y-0.9292
N4490 X0.0658 Y-0.93
N4495 X0.0411 Y-0.931
N4500 X0.0164 Y-0.9321
N4505 X0.0082 Y-0.9322
N4510 X-0.0082 Y-0.9321
N4515 X-0.0164 Y-0.9319
N4520 X-0.0411 Y-0.931
N4525 X-0.0658 Y-0.93
N4530 X-0.0761 Y-0.929
N4535 X-0.0822 Y-0.9284
N4540 X-0.1183 Y-0.9265
N4545 X-0.1544 Y-0.9234
N4550 X-0.1905 Y-0.9212
N4555 X-0.2267 Y-0.9196
N4560 X-0.2628 Y-0.9185
N4565 X-0.299 Y-0.9177
N4570 X-0.3352 Y-0.9171
N4575 X-0.3714 Y-0.9167
N4580 X-0.4075 Y-0.9163
N4585 X-0.4437 Y-0.9161
N4590 X-0.4799 Y-0.9159
N4595 X-0.5523 Y-0.9157
N4600 X-0.6246 Y-0.9156
N4605 X-0.6605 Y-0.911
N4610 X-0.6935 Y-0.8962
N4615 X-0.7216 Y-0.8734
N4620 X-0.7447 Y-0.8456
N4625 X-0.7631 Y-0.8144
N4630 X-0.7776 Y-0.7813
N4635 X-0.7888 Y-0.7469
N4640 X-0.7974 Y-0.7117
N4645 X-0.804 Y-0.6761
N4650 X-0.8091 Y-0.6403
N4655 X-0.8129 Y-0.6043
N4660 X-0.8157 Y-0.5683
N4665 X-0.8179 Y-0.5321
N4670 X-0.8195 Y-0.496
N4675 X-0.8208 Y-0.4598
N4680 X-0.8209 Y-0.4545
N4685 X-0.8218 Y-0.4459
N4690 X-0.8239 Y-0.4375
N4695 X-0.8272 Y-0.4295
N4700 X-0.8324 Y-0.4193
N4705 X-0.8365 Y-0.4111
N4710 X-0.8405 Y-0.4029
N4715 X-0.8468 Y-0.39
N4720 X-0.8485 Y-0.3864
N4725 X-0.8622 Y-0.3535
N4730 X-0.8691 Y-0.3371
N4735 X-0.8715 Y-0.331
N4740 X-0.8797 Y-0.3088
N4745 X-0.8813 Y-0.3042
N4750 X-0.8891 Y-0.2795
N4755 X-0.8918 Y-0.2713
N4760 X-0.8945 Y-0.2631
N4765 X-0.8967 Y-0.2549
N4770 X-0.9072 Y-0.2138
N4775 X-0.9093 Y-0.2055
N4780 X-0.9112 Y-0.1973
N4785 X-0.9146 Y-0.1809
N4790 X-0.9162 Y-0.1727
N4795 X-0.9208 Y-0.1448
N4800 X-0.9239 Y-0.1233
N4805 X-0.9247 Y-0.1164
N4810 G3 X-0.928 Y-0.1068 Z-0.1229 I-0.0248 J-0.003 F10.
N4815 G2 X-0.9313 Y-0.0969 Z-0.1208 I0.0215 J0.0127
N4820 G1 X-0.9324 Y-0.0874 Z-0.1188
N4825 X-0.9334 Y-0.0785 Z-0.117 F12.
N4830 X-0.9456 Y0.0276
N4835 G2 X-0.9446 Y0.0383 I0.0248 J0.0029
N4840 G1 X-0.9436 Y0.0407 Z-0.1175
N4845 X-0.9424 Y0.0431 Z-0.1181
N4850 X-0.9409 Y0.0453 Z-0.1186
N4855 X-0.9403 Y0.0461 Z-0.1188
N4860 G3 X-0.9293 Y0.074 Z-0.125 I-0.0507 J0.0363 F10.
N4865 G1 X-0.9276 Y0.0904 F12.
N4870 X-0.9258 Y0.1069
N4875 X-0.9249 Y0.1151
N4880 X-0.9239 Y0.1233
N4885 X-0.9208 Y0.1448
N4890 X-0.9158 Y0.1727
N4895 X-0.9112 Y0.1973
N4900 X-0.9093 Y0.2055
N4905 X-0.8988 Y0.2466
N4910 X-0.8967 Y0.2549
N4915 X-0.8945 Y0.2631
N4920 X-0.8918 Y0.2713
N4925 X-0.8809 Y0.3042
N4930 X-0.8797 Y0.3078
N4935 X-0.8715 Y0.3313
N4940 X-0.8692 Y0.3371
N4945 X-0.8658 Y0.3453
N4950 X-0.8564 Y0.3709
N4955 X-0.8473 Y0.4038
N4960 X-0.8404 Y0.4393
N4965 X-0.8356 Y0.4752
N4970 X-0.8323 Y0.5112
N4975 X-0.8299 Y0.5473
N4980 X-0.8283 Y0.5835
N4985 X-0.8272 Y0.6196
N4990 X-0.822 Y0.6554
N4995 X-0.8072 Y0.6884
N5000 X-0.7848 Y0.7169
N5005 X-0.7572 Y0.7403
N5010 X-0.7264 Y0.7592
N5015 X-0.6934 Y0.7742
N5020 X-0.6592 Y0.7859
N5025 X-0.6242 Y0.795
N5030 X-0.5887 Y0.802
N5035 X-0.5529 Y0.8073
N5040 X-0.5169 Y0.8114
N5045 X-0.4809 Y0.8145
N5050 X-0.4619 Y0.8158
N5055 X-0.4541 Y0.8169
N5060 X-0.4466 Y0.819
N5065 X-0.4395 Y0.8221
N5070 X-0.4029 Y0.8405
N5075 X-0.39 Y0.8468
N5080 X-0.3864 Y0.8485
N5085 X-0.3617 Y0.8588
N5090 X-0.3453 Y0.8658
N5095 X-0.3371 Y0.8692
N5100 X-0.3313 Y0.8715
N5105 X-0.3078 Y0.8797
N5110 X-0.2795 Y0.8891
N5115 X-0.2713 Y0.8918
N5120 X-0.2631 Y0.8945
N5125 X-0.2549 Y0.8967
N5130 X-0.2138 Y0.9072
N5135 X-0.2055 Y0.9093
N5140 X-0.1973 Y0.9112
N5145 X-0.1727 Y0.9158
N5150 X-0.1448 Y0.9208
N5155 X-0.1233 Y0.9239
N5160 X-0.1181 Y0.9245
N5165 G3 X-0.1084 Y0.9279 Z-0.1229 I-0.0031 J0.0248 F10.
N5170 G2 X-0.0987 Y0.9312 Z-0.1208 I0.0128 J-0.0215
N5175 G1 X-0.0891 Y0.9323 Z-0.1188
N5180 X-0.0802 Y0.9334 Z-0.117 F12.
N5185 X0.0115 Y0.9446
N5190 X0.0147 Y0.9448
N5195 X0.0179 Y0.9446
N5200 X0.0211 Y0.944
N5205 X0.0236 Y0.9431 Z-0.1175
N5210 X0.0261 Y0.942 Z-0.1181
N5215 X0.0284 Y0.9407 Z-0.1186
N5220 X0.0292 Y0.9401 Z-0.1188
N5225 G3 X0.0576 Y0.9305 Z-0.125 I0.0337 J0.0524 F10.
N5230 G1 X0.0658 Y0.9301 F12.
N5235 X0.0761 Y0.929
N5240 X0.0987 Y0.9267
N5245 X0.1151 Y0.9249
N5250 X0.1233 Y0.9239
N5255 X0.1448 Y0.9208
N5260 X0.1727 Y0.9162
N5265 X0.1906 Y0.9126
N5270 X0.1973 Y0.9112
N5275 X0.2055 Y0.9093
N5280 X0.2466 Y0.8988
N5285 X0.2549 Y0.8967
N5290 X0.2631 Y0.8945
N5295 X0.2713 Y0.8918
N5300 X0.2795 Y0.8891
N5305 X0.3042 Y0.8813
N5310 X0.3088 Y0.8797
N5315 X0.331 Y0.8715
N5320 X0.3371 Y0.8691
N5325 X0.3453 Y0.8657
N5330 X0.3739 Y0.8554
N5335 X0.4082 Y0.8463
N5340 X0.4437 Y0.8397
N5345 X0.4796 Y0.8351
N5350 X0.5157 Y0.832
N5355 X0.5518 Y0.8297
N5360 X0.5879 Y0.8282
N5365 X0.6241 Y0.827
N5370 X0.6597 Y0.8207
N5375 X0.6922 Y0.8048
N5380 X0.7201 Y0.7817
N5385 X0.743 Y0.7537
N5390 X0.7613 Y0.7225
N5395 X0.7758 Y0.6894
N5400 X0.7872 Y0.655
N5405 X0.7959 Y0.6199
N5410 X0.8027 Y0.5843
N5415 X0.8079 Y0.5485
N5420 X0.8118 Y0.5126
N5425 X0.8149 Y0.4765
N5430 X0.8157 Y0.4633
N5435 X0.8168 Y0.4551
N5440 X0.8189 Y0.4471
N5445 X0.8221 Y0.4395
N5450 X0.8405 Y0.4029
N5455 X0.8485 Y0.3864
N5460 X0.8593 Y0.3617
N5465 X0.8633 Y0.3517
N5470 X0.8658 Y0.3453
N5475 X0.8691 Y0.3371
N5480 X0.8715 Y0.3309
N5485 X0.8797 Y0.3078
N5490 X0.8891 Y0.2795
N5495 X0.8918 Y0.2713
N5500 X0.8945 Y0.2631
N5505 X0.8967 Y0.2549
N5510 X0.9072 Y0.2138
N5515 X0.9093 Y0.2055
N5520 X0.9112 Y0.1973
N5525 X0.9158 Y0.1727
N5530 X0.9208 Y0.1449
N5535 X0.924 Y0.1233
N5540 X0.9245 Y0.1193
N5545 G3 X0.9278 Y0.1096 Z-0.1229 I0.0248 J0.003 F10.
N5550 G2 X0.9311 Y0.0998 Z-0.1208 I-0.0215 J-0.0127
N5555 G1 X0.9322 Y0.0903 Z-0.1188
N5560 X0.9332 Y0.0814 Z-0.117 F12.
N5565 X0.9458 Y-0.0276
N5570 G2 X0.9447 Y-0.0383 I-0.0248 J-0.0029
N5575 G1 X0.9437 Y-0.0408 Z-0.1175
N5580 X0.9424 Y-0.0432 Z-0.1181
N5585 X0.941 Y-0.0454 Z-0.1186
N5590 X0.9404 Y-0.0461 Z-0.1188
N5595 G3 X0.9292 Y-0.074 Z-0.125 I0.0505 J-0.0364 F10.
N5600 G1 X0.9267 Y-0.0987 F12.
N5605 X0.9249 Y-0.1151
N5610 X0.9239 Y-0.1233
N5615 X0.9208 Y-0.1465
N5620 X0.9143 Y-0.1809
N5625 X0.9112 Y-0.1973
N5630 X0.9093 Y-0.2055
N5635 X0.8988 Y-0.2466
N5640 X0.8967 Y-0.2549
N5645 X0.8945 Y-0.2631
N5650 X0.8919 Y-0.2713
N5655 X0.8893 Y-0.2795
N5660 X0.8797 Y-0.3078
N5665 X0.8715 Y-0.3309
N5670 X0.8691 Y-0.3371
N5675 X0.8657 Y-0.3453
N5680 X0.8554 Y-0.3741
N5685 X0.8462 Y-0.4083
N5690 X0.8397 Y-0.4438
N5695 X0.8351 Y-0.4797
N5700 X0.8319 Y-0.5158
N5705 X0.8297 Y-0.5519
N5710 X0.8281 Y-0.588
N5715 X0.827 Y-0.6242
N5720 X0.8207 Y-0.6598
N5725 X0.8048 Y-0.6923
N5730 X0.7816 Y-0.7201
N5735 X0.7536 Y-0.743
N5740 X0.7224 Y-0.7613
N5745 X0.6893 Y-0.7758
N5750 X0.6549 Y-0.7871
N5755 X0.6198 Y-0.7958
N5760 X0.5842 Y-0.8024
N5765 X0.5484 Y-0.8074
N5770 X0.5124 Y-0.8112
N5775 X0.4763 Y-0.8139
N5780 X0.4653 Y-0.8145
N5785 X0.4568 Y-0.8156
N5790 X0.4486 Y-0.8179
N5795 X0.4408 Y-0.8214
N5800 X0.4395 Y-0.8221
N5805 X0.4111 Y-0.8364
N5810 X0.4029 Y-0.8406
N5815 X0.39 Y-0.8468
N5820 X0.3864 Y-0.8485
N5825 X0.3535 Y-0.8622
N5830 X0.3371 Y-0.8691
N5835 X0.3309 Y-0.8715
N5840 X0.3078 Y-0.8797
N5845 X0.2795 Y-0.8893
N5850 X0.2713 Y-0.8919
N5855 X0.2631 Y-0.8945
N5860 X0.2549 Y-0.8967
N5865 X0.2138 Y-0.9072
N5870 X0.2055 Y-0.9093
N5875 X0.1973 Y-0.9112
N5880 X0.1727 Y-0.9158
N5885 X0.1485 Y-0.9204
N5890 G3 X0.139 Y-0.9244 Z-0.1229 I0.0047 J-0.0246 F10.
N5895 G2 X0.1274 Y-0.9286 Z-0.1203 I-0.0141 J0.0206
N5900 G1 X0.12 Y-0.9294 Z-0.1188
N5905 X0.1111 Y-0.9303 Z-0.117 F12.
N5910 X-0.0362 Y-0.9449
N5915 G2 X-0.0465 Y-0.9438 I-0.0025 J0.0249
N5920 G1 X-0.049 Y-0.9428 Z-0.1175
N5925 X-0.0514 Y-0.9416 Z-0.1181
N5930 X-0.0536 Y-0.9401 Z-0.1186
N5935 X-0.0544 Y-0.9396 Z-0.1188
N5940 G3 X-0.0822 Y-0.9284 Z-0.125 I-0.0364 J-0.0505 F10.
N5945 G1 X-0.1151 Y-0.925 F12.
N5950 X-0.1233 Y-0.924
N5955 X-0.1449 Y-0.9208
N5960 X-0.1727 Y-0.9158
N5965 X-0.1973 Y-0.9112
N5970 X-0.2055 Y-0.9093
N5975 X-0.2466 Y-0.8988
N5980 X-0.2549 Y-0.8967
N5985 X-0.2631 Y-0.8945
N5990 X-0.2713 Y-0.8918
N5995 X-0.3042 Y-0.8809
N6000 X-0.3078 Y-0.8797
N6005 X-0.3309 Y-0.8715
N6010 X-0.3371 Y-0.8691
N6015 X-0.3453 Y-0.8658
N6020 X-0.3535 Y-0.8626
N6025 X-0.3617 Y-0.8593
N6030 X-0.3896 Y-0.8488
N6035 X-0.4215 Y-0.8396
N6040 X-0.457 Y-0.8324
N6045 X-0.4928 Y-0.8274
N6050 X-0.5288 Y-0.8239
N6055 X-0.5641 Y-0.8159
N6060 X-0.5961 Y-0.799
N6065 X-0.6233 Y-0.7751
N6070 X-0.6456 Y-0.7467
N6075 X-0.6636 Y-0.7152
N6080 X-0.6777 Y-0.6819
N6085 X-0.6887 Y-0.6475
N6090 X-0.6916 Y-0.6353
N6095 X-0.6947 Y-0.6262
N6100 X-0.6992 Y-0.6176
N6105 X-0.7051 Y-0.6099
N6110 X-0.707 Y-0.6077
N6115 X-0.7331 Y-0.5755
N6120 X-0.7399 Y-0.5665
N6125 X-0.758 Y-0.5426
N6130 X-0.7638 Y-0.5344
N6135 X-0.7859 Y-0.5015
N6140 X-0.7893 Y-0.4961
N6145 X-0.8139 Y-0.4545
N6150 X-0.8197 Y-0.444
N6155 X-0.8221 Y-0.4395
N6160 X-0.8272 Y-0.4295
N6165 G3 X-0.8534 Y-0.417 I-0.0219 J-0.0121 F10.
N6170 G1 X-0.8572 Y-0.4177 Z-0.1247
N6175 X-0.861 Y-0.4183 Z-0.1238
N6180 X-0.8646 Y-0.4189 Z-0.1223
N6185 X-0.8678 Y-0.4195 Z-0.1202
N6190 X-0.8708 Y-0.42 Z-0.1177
N6195 X-0.8733 Y-0.4204 Z-0.1147
N6200 X-0.8753 Y-0.4208 Z-0.1113
N6205 X-0.8768 Y-0.4211 Z-0.1077
N6210 X-0.8777 Y-0.4212 Z-0.1039
N6215 X-0.878 Y-0.4213 Z-0.1
N6220 Z0.2 F12.
N6225 X-0.3234 Y-0.8994
N6230 Z-0.075
N6235 Z-0.1 F10.
N6240 X-0.3236 Y-0.8992 Z-0.1039
N6245 X-0.3241 Y-0.8984 Z-0.1077
N6250 X-0.325 Y-0.8972 Z-0.1113
N6255 X-0.3262 Y-0.8955 Z-0.1147
N6260 X-0.3277 Y-0.8935 Z-0.1177
N6265 X-0.3294 Y-0.8911 Z-0.1202
N6270 X-0.3314 Y-0.8883 Z-0.1223
N6275 X-0.3335 Y-0.8854 Z-0.1238
N6280 X-0.3357 Y-0.8823 Z-0.1247
N6285 X-0.338 Y-0.8791 Z-0.125
N6290 G3 X-0.3617 Y-0.8593 I-0.0506 J-0.0364
N6295 G1 X-0.3864 Y-0.8485 F12.
N6300 X-0.4029 Y-0.8405
N6305 X-0.4395 Y-0.8221
N6310 X-0.444 Y-0.8197
N6315 X-0.4545 Y-0.8139
N6320 X-0.4961 Y-0.7893
N6325 X-0.5015 Y-0.7859
N6330 X-0.5209 Y-0.7728
N6335 X-0.5446 Y-0.7564
N6340 X-0.5508 Y-0.7518
N6345 X-0.5673 Y-0.7394
N6350 X-0.5755 Y-0.7331
N6355 X-0.6002 Y-0.7132
N6360 X-0.6077 Y-0.707
N6365 X-0.6258 Y-0.6906
N6370 X-0.6523 Y-0.6659
N6375 X-0.6577 Y-0.6607
N6380 X-0.6659 Y-0.6524
N6385 X-0.6767 Y-0.6413
N6390 X-0.6824 Y-0.6352
N6395 X-0.6916 Y-0.6248
N6400 X-0.7051 Y-0.6099
N6405 G3 X-0.7336 Y-0.6047 I-0.018 J-0.0174 F10.
N6410 G1 X-0.7371 Y-0.6063 Z-0.1247
N6415 X-0.7406 Y-0.6079 Z-0.1238
N6420 X-0.7439 Y-0.6095 Z-0.1223
N6425 X-0.7469 Y-0.6109 Z-0.1202
N6430 X-0.7496 Y-0.6121 Z-0.1177
N6435 X-0.7519 Y-0.6132 Z-0.1147
N6440 X-0.7538 Y-0.6141 Z-0.1113
N6445 X-0.7551 Y-0.6147 Z-0.1077
N6450 X-0.7559 Y-0.6151 Z-0.1039
N6455 X-0.7562 Y-0.6152 Z-0.1
N6460 Z0.2 F12.
N6465 X-0.9056 Y0.3066
N6470 Z-0.075
N6475 Z-0.1 F10.
N6480 X-0.9053 Y0.3068 Z-0.1039
N6485 X-0.9046 Y0.3073 Z-0.1077
N6490 X-0.9034 Y0.3082 Z-0.1113
N6495 X-0.9017 Y0.3094 Z-0.1147
N6500 X-0.8997 Y0.311 Z-0.1177
N6505 X-0.8973 Y0.3127 Z-0.1202
N6510 X-0.8946 Y0.3147 Z-0.1223
N6515 X-0.8917 Y0.3168 Z-0.1238
N6520 X-0.8886 Y0.3191 Z-0.1247
N6525 X-0.8854 Y0.3214 Z-0.125
N6530 G3 X-0.8658 Y0.3453 I-0.0368 J0.0502
N6535 G1 X-0.8588 Y0.3617 F12.
N6540 X-0.8485 Y0.3864
N6545 X-0.8468 Y0.39
N6550 X-0.8405 Y0.4029
N6555 X-0.8221 Y0.4395
N6560 X-0.8198 Y0.444
N6565 X-0.8139 Y0.4548
N6570 X-0.8055 Y0.4686
N6575 X-0.7893 Y0.4961
N6580 X-0.7859 Y0.5015
N6585 X-0.7788 Y0.5132
N6590 X-0.7627 Y0.5456
N6595 X-0.7451 Y0.5772
N6600 X-0.7225 Y0.6054
N6605 X-0.6955 Y0.6295
N6610 X-0.6795 Y0.6401
N6615 X-0.6758 Y0.6428
N6620 X-0.6723 Y0.6457
N6625 X-0.6691 Y0.649
N6630 G3 X-0.666 Y0.6773 Z-0.1188 I-0.0189 J0.0164 F10.
N6635 G1 X-0.6676 Y0.6798 Z-0.1182 F12.
N6640 X-0.6694 Y0.6821 Z-0.1176
N6645 X-0.6715 Y0.6842 Z-0.117
N6650 G3 X-0.7075 Y0.6809 I-0.0164 J-0.0189
N6655 G1 X-0.8257 Y0.5317
N6660 G3 X-0.8207 Y0.4959 I0.0196 J-0.0155
N6665 G1 X-0.8182 Y0.4943 Z-0.1176
N6670 X-0.8155 Y0.493 Z-0.1182
N6675 X-0.8127 Y0.492 Z-0.1188
N6680 G3 X-0.7859 Y0.5015 Z-0.125 I0.0066 J0.0241 F10.
N6685 G1 X-0.7728 Y0.5209 F12.
N6690 X-0.7564 Y0.5446
N6695 X-0.7518 Y0.5508
N6700 X-0.7394 Y0.5673
N6705 X-0.7331 Y0.5755
N6710 X-0.7132 Y0.6002
N6715 X-0.707 Y0.6077
N6720 X-0.6906 Y0.6258
N6725 X-0.6659 Y0.6523
N6730 X-0.6607 Y0.6577
N6735 X-0.6577 Y0.6607
N6740 X-0.6523 Y0.6659
N6745 X-0.6258 Y0.6906
N6750 X-0.6077 Y0.707
N6755 X-0.5837 Y0.7264
N6760 X-0.5755 Y0.7331
N6765 X-0.5665 Y0.7399
N6770 X-0.5508 Y0.7518
N6775 X-0.5446 Y0.7564
N6780 X-0.5209 Y0.7728
N6785 X-0.5015 Y0.7859
N6790 X-0.4961 Y0.7893
N6795 X-0.4683 Y0.8057
N6800 X-0.4548 Y0.8139
N6805 X-0.444 Y0.8198
N6810 X-0.4395 Y0.8221
N6815 G3 X-0.4274 Y0.8485 I-0.0124 J0.0217 F10.
N6820 G1 X-0.4281 Y0.8523 Z-0.1247
N6825 X-0.4288 Y0.8561 Z-0.1238
N6830 X-0.4295 Y0.8596 Z-0.1223
N6835 X-0.4301 Y0.8629 Z-0.1202
N6840 X-0.4306 Y0.8659 Z-0.1177
N6845 X-0.4311 Y0.8684 Z-0.1147
N6850 X-0.4315 Y0.8704 Z-0.1113
N6855 X-0.4318 Y0.8718 Z-0.1077
N6860 X-0.432 Y0.8727 Z-0.1039
N6865 Y0.873 Z-0.1
N6870 Z0.2 F12.
N6875 X0.3063 Y0.9051
N6880 Z-0.075
N6885 Z-0.1 F10.
N6890 X0.3064 Y0.9048 Z-0.1039
N6895 X0.307 Y0.9041 Z-0.1077
N6900 X0.3079 Y0.9029 Z-0.1113
N6905 X0.3091 Y0.9013 Z-0.1147
N6910 X0.3106 Y0.8992 Z-0.1177
N6915 X0.3124 Y0.8968 Z-0.1202
N6920 X0.3144 Y0.8941 Z-0.1223
N6925 X0.3166 Y0.8912 Z-0.1238
N6930 X0.3189 Y0.8882 Z-0.1247
N6935 X0.3212 Y0.8851 Z-0.125
N6940 G3 X0.3453 Y0.8657 I0.0499 J0.0373
N6945 G1 X0.3708 Y0.855 F12.
N6950 X0.3864 Y0.8485
N6955 X0.39 Y0.8468
N6960 X0.4029 Y0.8405
N6965 X0.4111 Y0.8365
N6970 X0.4193 Y0.8324
N6975 X0.4395 Y0.8221
N6980 X0.444 Y0.8197
N6985 X0.4545 Y0.8139
N6990 X0.4961 Y0.7893
N6995 X0.5015 Y0.7859
N7000 X0.5126 Y0.7792
N7005 X0.545 Y0.7631
N7010 X0.5767 Y0.7456
N7015 X0.605 Y0.723
N7020 X0.6291 Y0.6961
N7025 X0.64 Y0.6798
N7030 X0.6424 Y0.6764
N7035 X0.6451 Y0.6732
N7040 X0.648 Y0.6702
N7045 G3 X0.6762 Y0.6666 Z-0.1188 I0.0168 J0.0185 F10.
N7050 G1 X0.6788 Y0.6681 Z-0.1182 F12.
N7055 X0.6811 Y0.6699 Z-0.1176
N7060 X0.6833 Y0.672 Z-0.117
N7065 G3 X0.6802 Y0.7084 I-0.0185 J0.0168
N7070 G1 X0.5317 Y0.8257
N7075 G3 X0.4959 Y0.8207 I-0.0155 J-0.0196
N7080 G1 X0.4943 Y0.8182 Z-0.1176
N7085 X0.493 Y0.8155 Z-0.1182
N7090 X0.492 Y0.8127 Z-0.1188
N7095 G3 X0.5015 Y0.7859 Z-0.125 I0.0241 J-0.0066 F10.
N7100 G1 X0.5344 Y0.7638 F12.
N7105 X0.5426 Y0.758
N7110 X0.5673 Y0.7394
N7115 X0.5755 Y0.7331
N7120 X0.6077 Y0.707
N7125 X0.6259 Y0.6906
N7130 X0.6352 Y0.6824
N7135 X0.6413 Y0.6767
N7140 X0.6524 Y0.6659
N7145 X0.6607 Y0.6577
N7150 X0.6659 Y0.6523
N7155 X0.6906 Y0.6258
N7160 X0.707 Y0.6077
N7165 X0.7264 Y0.5837
N7170 X0.7331 Y0.5755
N7175 X0.7399 Y0.5665
N7180 X0.7518 Y0.5508
N7185 X0.7564 Y0.5446
N7190 X0.7728 Y0.5209
N7195 X0.7859 Y0.5015
N7200 X0.7893 Y0.4961
N7205 X0.8139 Y0.4545
N7210 X0.8197 Y0.444
N7215 X0.8221 Y0.4395
N7220 G3 X0.8486 Y0.4275 I0.0216 J0.0126 F10.
N7225 G1 X0.8524 Y0.4283 Z-0.1247
N7230 X0.8562 Y0.429 Z-0.1238
N7235 X0.8597 Y0.4297 Z-0.1223
N7240 X0.863 Y0.4304 Z-0.1202
N7245 X0.8659 Y0.431 Z-0.1177
N7250 X0.8684 Y0.4315 Z-0.1147
N7255 X0.8704 Y0.4318 Z-0.1113
N7260 X0.8719 Y0.4321 Z-0.1077
N7265 X0.8728 Y0.4323 Z-0.1039
N7270 X0.8731 Y0.4324 Z-0.1
N7275 Z0.2 F12.
N7280 X0.9051 Y-0.3063
N7285 Z-0.075
N7290 Z-0.1 F10.
N7295 X0.9048 Y-0.3064 Z-0.1039
N7300 X0.9041 Y-0.307 Z-0.1077
N7305 X0.9029 Y-0.3079 Z-0.1113
N7310 X0.9013 Y-0.3091 Z-0.1147
N7315 X0.8992 Y-0.3106 Z-0.1177
N7320 X0.8968 Y-0.3124 Z-0.1202
N7325 X0.8941 Y-0.3144 Z-0.1223
N7330 X0.8912 Y-0.3166 Z-0.1238
N7335 X0.8882 Y-0.3189 Z-0.1247
N7340 X0.8851 Y-0.3212 Z-0.125
N7345 G3 X0.8657 Y-0.3453 I0.0373 J-0.0499
N7350 G1 X0.855 Y-0.3708 F12.
N7355 X0.8485 Y-0.3864
N7360 X0.8468 Y-0.39
N7365 X0.8406 Y-0.4029
N7370 X0.8364 Y-0.4111
N7375 X0.8221 Y-0.4395
N7380 X0.8197 Y-0.444
N7385 X0.8139 Y-0.4545
N7390 X0.7893 Y-0.4961
N7395 X0.7859 Y-0.5015
N7400 X0.7792 Y-0.5126
N7405 X0.7631 Y-0.545
N7410 X0.7456 Y-0.5766
N7415 X0.723 Y-0.6049
N7420 X0.6961 Y-0.6291
N7425 X0.6795 Y-0.6401
N7430 X0.6758 Y-0.6428
N7435 X0.6723 Y-0.6458
N7440 X0.6691 Y-0.649
N7445 G3 X0.666 Y-0.6773 Z-0.1188 I0.0189 J-0.0164 F10.
N7450 G1 X0.6675 Y-0.6798 Z-0.1182 F12.
N7455 X0.6694 Y-0.6821 Z-0.1176
N7460 X0.6715 Y-0.6842 Z-0.117
N7465 G3 X0.7075 Y-0.6809 I0.0164 J0.0189
N7470 G1 X0.8257 Y-0.5317
N7475 G3 X0.8207 Y-0.4959 I-0.0196 J0.0155
N7480 G1 X0.8182 Y-0.4943 Z-0.1176
N7485 X0.8155 Y-0.493 Z-0.1182
N7490 X0.8127 Y-0.492 Z-0.1188
N7495 G3 X0.7859 Y-0.5015 Z-0.125 I-0.0066 J-0.0241 F10.
N7500 G1 X0.7728 Y-0.5209 F12.
N7505 X0.7564 Y-0.5446
N7510 X0.7518 Y-0.5508
N7515 X0.7394 Y-0.5673
N7520 X0.7331 Y-0.5755
N7525 X0.7132 Y-0.6002
N7530 X0.707 Y-0.6077
N7535 X0.6906 Y-0.6258
N7540 X0.6659 Y-0.6523
N7545 X0.6607 Y-0.6577
N7550 X0.6577 Y-0.6607
N7555 X0.6523 Y-0.6659
N7560 X0.6258 Y-0.6906
N7565 X0.6077 Y-0.707
N7570 X0.5837 Y-0.7264
N7575 X0.5755 Y-0.7331
N7580 X0.5665 Y-0.7399
N7585 X0.5508 Y-0.7518
N7590 X0.5446 Y-0.7564
N7595 X0.5209 Y-0.7728
N7600 X0.5015 Y-0.7859
N7605 X0.4961 Y-0.7893
N7610 X0.4545 Y-0.8139
N7615 X0.4422 Y-0.8207
N7620 X0.4408 Y-0.8214
N7625 G3 X0.4289 Y-0.8478 I0.0126 J-0.0216 F10.
N7630 G1 X0.4297 Y-0.8517 Z-0.1247
N7635 X0.4304 Y-0.8554 Z-0.1238
N7640 X0.4311 Y-0.859 Z-0.1223
N7645 X0.4317 Y-0.8623 Z-0.1202
N7650 X0.4323 Y-0.8652 Z-0.1177
N7655 X0.4328 Y-0.8677 Z-0.1147
N7660 X0.4332 Y-0.8697 Z-0.1113
N7665 X0.4335 Y-0.8712 Z-0.1077
N7670 X0.4337 Y-0.8721 Z-0.1039
N7675 Y-0.8724 Z-0.1
N7680 Z0.6 F12.
(WHEN USING FUSION FOR PERSONAL USE, THE FEEDRATE OF RAPID)
(MOVES IS REDUCED TO MATCH THE FEEDRATE OF CUTTING MOVES,)
(WHICH CAN INCREASE MACHINING TIME. UNRESTRICTED RAPID MOVES)
(ARE AVAILABLE WITH A FUSION SUBSCRIPTION.)
(2D CONTOUR2)
N7685 G64 P0.0004 Q0.0004
N7690 G0 X-0.9974 Y-0.025
N7695 G1 Z0.6 F12.
N7700 Z0.2
N7705 Z0.0394 F6.
N7710 Z-0.1
N7715 G18 G2 X-0.9724 Z-0.125 I0.025 K0. F10.
N7720 G1 X-0.9474
N7725 G17 G3 X-0.9224 Y0. I0. J0.025
N7730 G2 X0.9224 I0.9224 J0. F12.
N7735 X-0.9224 I-0.9224 J0.
N7740 G3 X-0.9474 Y0.025 I-0.025 J0. F10.
N7745 G1 X-0.9724
N7750 G18 G3 X-0.9974 Z-0.1 I0. K0.025
N7755 G1 Z0.6 F12.
N7760 G17
(WHEN USING FUSION FOR PERSONAL USE, THE FEEDRATE OF RAPID)
(MOVES IS REDUCED TO MATCH THE FEEDRATE OF CUTTING MOVES,)
(WHICH CAN INCREASE MACHINING TIME. UNRESTRICTED RAPID MOVES)
(ARE AVAILABLE WITH A FUSION SUBSCRIPTION.)
(BORE1)
N7765 G0 X1.1224 Y-1.1066
N7770 G1 Z0.6 F12.
N7775 Z-0.07
N7780 Z-0.125 F10.
N7785 X1.1136 Y-1.0978
N7790 G3 X1.0978 I-0.0079 J-0.0079
N7795 X1.1293 Y-1.1293 Z-0.1379 I0.0158 J-0.0158 F12.
N7800 X1.0978 Y-1.0978 Z-0.1508 I-0.0158 J0.0158
N7805 X1.1293 Y-1.1293 Z-0.1637 I0.0158 J-0.0158
N7810 X1.0978 Y-1.0978 Z-0.1766 I-0.0158 J0.0158
N7815 X1.1293 Y-1.1293 Z-0.1894 I0.0158 J-0.0158
N7820 X1.0978 Y-1.0978 Z-0.2023 I-0.0158 J0.0158
N7825 X1.1293 Y-1.1293 Z-0.2152 I0.0158 J-0.0158
N7830 X1.0978 Y-1.0978 Z-0.2281 I-0.0158 J0.0158
N7835 X1.1293 Y-1.1293 Z-0.241 I0.0158 J-0.0158
N7840 X1.0978 Y-1.0978 Z-0.2539 I-0.0158 J0.0158
N7845 X1.1293 Y-1.1293 Z-0.2668 I0.0158 J-0.0158
N7850 X1.0978 Y-1.0978 Z-0.2797 I-0.0158 J0.0158
N7855 X1.1293 Y-1.1293 Z-0.2926 I0.0158 J-0.0158
N7860 X1.0978 Y-1.0978 Z-0.3054 I-0.0158 J0.0158
N7865 X1.1293 Y-1.1293 Z-0.3183 I0.0158 J-0.0158
N7870 X1.0978 Y-1.0978 Z-0.3312 I-0.0158 J0.0158
N7875 X1.1293 Y-1.1293 Z-0.3441 I0.0158 J-0.0158
N7880 X1.0978 Y-1.0978 Z-0.357 I-0.0158 J0.0158
N7885 X1.1293 Y-1.1293 Z-0.3699 I0.0158 J-0.0158
N7890 X1.0978 Y-1.0978 Z-0.3828 I-0.0158 J0.0158
N7895 X1.1293 Y-1.1293 Z-0.3957 I0.0158 J-0.0158
N7900 X1.0978 Y-1.0978 Z-0.4086 I-0.0158 J0.0158
N7905 X1.1293 Y-1.1293 Z-0.4214 I0.0158 J-0.0158
N7910 X1.0978 Y-1.0978 Z-0.4343 I-0.0158 J0.0158
N7915 X1.1293 Y-1.1293 Z-0.4472 I0.0158 J-0.0158
N7920 X1.0978 Y-1.0978 Z-0.4601 I-0.0158 J0.0158
N7925 X1.1293 Y-1.1293 Z-0.473 I0.0158 J-0.0158
N7930 X1.0978 Y-1.0978 Z-0.4859 I-0.0158 J0.0158
N7935 X1.1293 Y-1.1293 Z-0.4988 I0.0158 J-0.0158
N7940 X1.0978 Y-1.0978 Z-0.5117 I-0.0158 J0.0158
N7945 X1.1293 Y-1.1293 Z-0.5246 I0.0158 J-0.0158
N7950 X1.0978 Y-1.0978 Z-0.5375 I-0.0158 J0.0158
N7955 X1.0915 Y-1.1099 Z-0.54 I0.0158 J-0.0158
N7960 X1.1356 Y-1.1172 I0.022 J-0.0036
N7965 X1.0915 Y-1.1099 I-0.022 J0.0036
N7970 X1.1007 Y-1.1227 I0.011 J-0.0018 F10.
N7975 G1 X1.1131 Y-1.1248
N7980 Z0.2 F12.
N7985 Z0.6
N7990 X1.1401 Y-1.1101
N7995 Z-0.46
N8000 Z-0.515 F10.
N8005 X1.1399 Y-1.1099 Z-0.5189
N8010 X1.1392 Y-1.1093 Z-0.5227
N8015 X1.1381 Y-1.1082 Z-0.5263
N8020 X1.1367 Y-1.1068 Z-0.5297
N8025 X1.1349 Y-1.105 Z-0.5327
N8030 X1.1328 Y-1.1029 Z-0.5352
N8035 X1.1304 Y-1.1005 Z-0.5373
N8040 X1.1279 Y-1.0979 Z-0.5388
N8045 X1.1252 Y-1.0952 Z-0.5397
N8050 X1.1224 Y-1.0925 Z-0.54
N8055 X1.1136 Y-1.0836
N8060 G3 X1.0836 I-0.015 J-0.015
N8065 X1.1435 Y-1.1435 I0.0299 J-0.0299 F12.
N8070 X1.0836 Y-1.0836 I-0.0299 J0.0299
N8075 Y-1.1136 I0.015 J-0.015 F10.
N8080 G1 X1.0925 Y-1.1224
N8085 X1.0952 Y-1.1252 Z-0.5397
N8090 X1.0979 Y-1.1279 Z-0.5388
N8095 X1.1005 Y-1.1304 Z-0.5373
N8100 X1.1029 Y-1.1328 Z-0.5352
N8105 X1.105 Y-1.1349 Z-0.5327
N8110 X1.1068 Y-1.1367 Z-0.5297
N8115 X1.1082 Y-1.1381 Z-0.5263
N8120 X1.1093 Y-1.1392 Z-0.5227
N8125 X1.1099 Y-1.1399 Z-0.5189
N8130 X1.1101 Y-1.1401 Z-0.515
N8135 Z0.2 F12.
N8140 X-1.1047 Y-1.1066
N8145 Z-0.07
N8150 Z-0.125 F10.
N8155 X-1.1136 Y-1.0978
N8160 G3 X-1.1293 I-0.0079 J-0.0079
N8165 X-1.0978 Y-1.1293 Z-0.1379 I0.0158 J-0.0158 F12.
N8170 X-1.1293 Y-1.0978 Z-0.1508 I-0.0158 J0.0158
N8175 X-1.0978 Y-1.1293 Z-0.1637 I0.0158 J-0.0158
N8180 X-1.1293 Y-1.0978 Z-0.1766 I-0.0158 J0.0158
N8185 X-1.0978 Y-1.1293 Z-0.1894 I0.0158 J-0.0158
N8190 X-1.1293 Y-1.0978 Z-0.2023 I-0.0158 J0.0158
N8195 X-1.0978 Y-1.1293 Z-0.2152 I0.0158 J-0.0158
N8200 X-1.1293 Y-1.0978 Z-0.2281 I-0.0158 J0.0158
N8205 X-1.0978 Y-1.1293 Z-0.241 I0.0158 J-0.0158
N8210 X-1.1293 Y-1.0978 Z-0.2539 I-0.0158 J0.0158
N8215 X-1.0978 Y-1.1293 Z-0.2668 I0.0158 J-0.0158
N8220 X-1.1293 Y-1.0978 Z-0.2797 I-0.0158 J0.0158
N8225 X-1.0978 Y-1.1293 Z-0.2926 I0.0158 J-0.0158
N8230 X-1.1293 Y-1.0978 Z-0.3054 I-0.0158 J0.0158
N8235 X-1.0978 Y-1.1293 Z-0.3183 I0.0158 J-0.0158
N8240 X-1.1293 Y-1.0978 Z-0.3312 I-0.0158 J0.0158
N8245 X-1.0978 Y-1.1293 Z-0.3441 I0.0158 J-0.0158
N8250 X-1.1293 Y-1.0978 Z-0.357 I-0.0158 J0.0158
N8255 X-1.0978 Y-1.1293 Z-0.3699 I0.0158 J-0.0158
N8260 X-1.1293 Y-1.0978 Z-0.3828 I-0.0158 J0.0158
N8265 X-1.0978 Y-1.1293 Z-0.3957 I0.0158 J-0.0158
N8270 X-1.1293 Y-1.0978 Z-0.4086 I-0.0158 J0.0158
N8275 X-1.0978 Y-1.1293 Z-0.4214 I0.0158 J-0.0158
N8280 X-1.1293 Y-1.0978 Z-0.4343 I-0.0158 J0.0158
N8285 X-1.0978 Y-1.1293 Z-0.4472 I0.0158 J-0.0158
N8290 X-1.1293 Y-1.0978 Z-0.4601 I-0.0158 J0.0158
N8295 X-1.0978 Y-1.1293 Z-0.473 I0.0158 J-0.0158
N8300 X-1.1293 Y-1.0978 Z-0.4859 I-0.0158 J0.0158
N8305 X-1.0978 Y-1.1293 Z-0.4988 I0.0158 J-0.0158
N8310 X-1.1293 Y-1.0978 Z-0.5117 I-0.0158 J0.0158
N8315 X-1.0978 Y-1.1293 Z-0.5246 I0.0158 J-0.0158
N8320 X-1.1293 Y-1.0978 Z-0.5375 I-0.0158 J0.0158
N8325 X-1.1356 Y-1.1099 Z-0.54 I0.0158 J-0.0158
N8330 X-1.0915 Y-1.1172 I0.022 J-0.0036
N8335 X-1.1356 Y-1.1099 I-0.022 J0.0036
N8340 X-1.1264 Y-1.1227 I0.011 J-0.0018 F10.
N8345 G1 X-1.1141 Y-1.1248
N8350 Z0.2 F12.
N8355 X-1.087 Y-1.1101
N8360 Z-0.46
N8365 Z-0.515 F10.
N8370 X-1.0873 Y-1.1099 Z-0.5189
N8375 X-1.0879 Y-1.1093 Z-0.5227
N8380 X-1.089 Y-1.1082 Z-0.5263
N8385 X-1.0904 Y-1.1068 Z-0.5297
N8390 X-1.0922 Y-1.105 Z-0.5327
N8395 X-1.0943 Y-1.1029 Z-0.5352
N8400 X-1.0967 Y-1.1005 Z-0.5373
N8405 X-1.0993 Y-1.0979 Z-0.5388
N8410 X-1.1019 Y-1.0952 Z-0.5397
N8415 X-1.1047 Y-1.0925 Z-0.54
N8420 X-1.1136 Y-1.0836
N8425 G3 X-1.1435 I-0.015 J-0.015
N8430 X-1.0836 Y-1.1435 I0.0299 J-0.0299 F12.
N8435 X-1.1435 Y-1.0836 I-0.0299 J0.0299
N8440 Y-1.1136 I0.015 J-0.015 F10.
N8445 G1 X-1.1346 Y-1.1224
N8450 X-1.1319 Y-1.1252 Z-0.5397
N8455 X-1.1292 Y-1.1279 Z-0.5388
N8460 X-1.1266 Y-1.1304 Z-0.5373
N8465 X-1.1243 Y-1.1328 Z-0.5352
N8470 X-1.1221 Y-1.1349 Z-0.5327
N8475 X-1.1203 Y-1.1367 Z-0.5297
N8480 X-1.1189 Y-1.1381 Z-0.5263
N8485 X-1.1178 Y-1.1392 Z-0.5227
N8490 X-1.1172 Y-1.1399 Z-0.5189
N8495 X-1.117 Y-1.1401 Z-0.515
N8500 Z0.2 F12.
N8505 X-1.1047 Y1.1205
N8510 Z-0.07
N8515 Z-0.125 F10.
N8520 X-1.1136 Y1.1293
N8525 G3 X-1.1293 I-0.0079 J-0.0079
N8530 X-1.0978 Y1.0978 Z-0.1379 I0.0158 J-0.0158 F12.
N8535 X-1.1293 Y1.1293 Z-0.1508 I-0.0158 J0.0158
N8540 X-1.0978 Y1.0978 Z-0.1637 I0.0158 J-0.0158
N8545 X-1.1293 Y1.1293 Z-0.1766 I-0.0158 J0.0158
N8550 X-1.0978 Y1.0978 Z-0.1894 I0.0158 J-0.0158
N8555 X-1.1293 Y1.1293 Z-0.2023 I-0.0158 J0.0158
N8560 X-1.0978 Y1.0978 Z-0.2152 I0.0158 J-0.0158
N8565 X-1.1293 Y1.1293 Z-0.2281 I-0.0158 J0.0158
N8570 X-1.0978 Y1.0978 Z-0.241 I0.0158 J-0.0158
N8575 X-1.1293 Y1.1293 Z-0.2539 I-0.0158 J0.0158
N8580 X-1.0978 Y1.0978 Z-0.2668 I0.0158 J-0.0158
N8585 X-1.1293 Y1.1293 Z-0.2797 I-0.0158 J0.0158
N8590 X-1.0978 Y1.0978 Z-0.2926 I0.0158 J-0.0158
N8595 X-1.1293 Y1.1293 Z-0.3054 I-0.0158 J0.0158
N8600 X-1.0978 Y1.0978 Z-0.3183 I0.0158 J-0.0158
N8605 X-1.1293 Y1.1293 Z-0.3312 I-0.0158 J0.0158
N8610 X-1.0978 Y1.0978 Z-0.3441 I0.0158 J-0.0158
N8615 X-1.1293 Y1.1293 Z-0.357 I-0.0158 J0.0158
N8620 X-1.0978 Y1.0978 Z-0.3699 I0.0158 J-0.0158
N8625 X-1.1293 Y1.1293 Z-0.3828 I-0.0158 J0.0158
N8630 X-1.0978 Y1.0978 Z-0.3957 I0.0158 J-0.0158
N8635 X-1.1293 Y1.1293 Z-0.4086 I-0.0158 J0.0158
N8640 X-1.0978 Y1.0978 Z-0.4214 I0.0158 J-0.0158
N8645 X-1.1293 Y1.1293 Z-0.4343 I-0.0158 J0.0158
N8650 X-1.0978 Y1.0978 Z-0.4472 I0.0158 J-0.0158
N8655 X-1.1293 Y1.1293 Z-0.4601 I-0.0158 J0.0158
N8660 X-1.0978 Y1.0978 Z-0.473 I0.0158 J-0.0158
N8665 X-1.1293 Y1.1293 Z-0.4859 I-0.0158 J0.0158
N8670 X-1.0978 Y1.0978 Z-0.4988 I0.0158 J-0.0158
N8675 X-1.1293 Y1.1293 Z-0.5117 I-0.0158 J0.0158
N8680 X-1.0978 Y1.0978 Z-0.5246 I0.0158 J-0.0158
N8685 X-1.1293 Y1.1293 Z-0.5375 I-0.0158 J0.0158
N8690 X-1.1356 Y1.1172 Z-0.54 I0.0158 J-0.0158
N8695 X-1.0915 Y1.1099 I0.022 J-0.0036
N8700 X-1.1356 Y1.1172 I-0.022 J0.0036
N8705 X-1.1264 Y1.1044 I0.011 J-0.0018 F10.
N8710 G1 X-1.1141 Y1.1023
N8715 Z0.2 F12.
N8720 X-1.087 Y1.117
N8725 Z-0.46
N8730 Z-0.515 F10.
N8735 X-1.0873 Y1.1172 Z-0.5189
N8740 X-1.0879 Y1.1178 Z-0.5227
N8745 X-1.089 Y1.1189 Z-0.5263
N8750 X-1.0904 Y1.1203 Z-0.5297
N8755 X-1.0922 Y1.1221 Z-0.5327
N8760 X-1.0943 Y1.1243 Z-0.5352
N8765 X-1.0967 Y1.1266 Z-0.5373
N8770 X-1.0993 Y1.1292 Z-0.5388
N8775 X-1.1019 Y1.1319 Z-0.5397
N8780 X-1.1047 Y1.1346 Z-0.54
N8785 X-1.1136 Y1.1435
N8790 G3 X-1.1435 I-0.015 J-0.015
N8795 X-1.0836 Y1.0836 I0.0299 J-0.0299 F12.
N8800 X-1.1435 Y1.1435 I-0.0299 J0.0299
N8805 Y1.1136 I0.015 J-0.015 F10.
N8810 G1 X-1.1346 Y1.1047
N8815 X-1.1319 Y1.1019 Z-0.5397
N8820 X-1.1292 Y1.0993 Z-0.5388
N8825 X-1.1266 Y1.0967 Z-0.5373
N8830 X-1.1243 Y1.0943 Z-0.5352
N8835 X-1.1221 Y1.0922 Z-0.5327
N8840 X-1.1203 Y1.0904 Z-0.5297
N8845 X-1.1189 Y1.089 Z-0.5263
N8850 X-1.1178 Y1.0879 Z-0.5227
N8855 X-1.1172 Y1.0873 Z-0.5189
N8860 X-1.117 Y1.087 Z-0.515
N8865 Z0.2 F12.
N8870 X1.1224 Y1.1205
N8875 Z-0.07
N8880 Z-0.125 F10.
N8885 X1.1136 Y1.1293
N8890 G3 X1.0978 I-0.0079 J-0.0079
N8895 X1.1293 Y1.0978 Z-0.1379 I0.0158 J-0.0158 F12.
N8900 X1.0978 Y1.1293 Z-0.1508 I-0.0158 J0.0158
N8905 X1.1293 Y1.0978 Z-0.1637 I0.0158 J-0.0158
N8910 X1.0978 Y1.1293 Z-0.1766 I-0.0158 J0.0158
N8915 X1.1293 Y1.0978 Z-0.1894 I0.0158 J-0.0158
N8920 X1.0978 Y1.1293 Z-0.2023 I-0.0158 J0.0158
N8925 X1.1293 Y1.0978 Z-0.2152 I0.0158 J-0.0158
N8930 X1.0978 Y1.1293 Z-0.2281 I-0.0158 J0.0158
N8935 X1.1293 Y1.0978 Z-0.241 I0.0158 J-0.0158
N8940 X1.0978 Y1.1293 Z-0.2539 I-0.0158 J0.0158
N8945 X1.1293 Y1.0978 Z-0.2668 I0.0158 J-0.0158
N8950 X1.0978 Y1.1293 Z-0.2797 I-0.0158 J0.0158
N8955 X1.1293 Y1.0978 Z-0.2926 I0.0158 J-0.0158
N8960 X1.0978 Y1.1293 Z-0.3054 I-0.0158 J0.0158
N8965 X1.1293 Y1.0978 Z-0.3183 I0.0158 J-0.0158
N8970 X1.0978 Y1.1293 Z-0.3312 I-0.0158 J0.0158
N8975 X1.1293 Y1.0978 Z-0.3441 I0.0158 J-0.0158
N8980 X1.0978 Y1.1293 Z-0.357 I-0.0158 J0.0158
N8985 X1.1293 Y1.0978 Z-0.3699 I0.0158 J-0.0158
N8990 X1.0978 Y1.1293 Z-0.3828 I-0.0158 J0.0158
N8995 X1.1293 Y1.0978 Z-0.3957 I0.0158 J-0.0158
N9000 X1.0978 Y1.1293 Z-0.4086 I-0.0158 J0.0158
N9005 X1.1293 Y1.0978 Z-0.4214 I0.0158 J-0.0158
N9010 X1.0978 Y1.1293 Z-0.4343 I-0.0158 J0.0158
N9015 X1.1293 Y1.0978 Z-0.4472 I0.0158 J-0.0158
N9020 X1.0978 Y1.1293 Z-0.4601 I-0.0158 J0.0158
N9025 X1.1293 Y1.0978 Z-0.473 I0.0158 J-0.0158
N9030 X1.0978 Y1.1293 Z-0.4859 I-0.0158 J0.0158
N9035 X1.1293 Y1.0978 Z-0.4988 I0.0158 J-0.0158
N9040 X1.0978 Y1.1293 Z-0.5117 I-0.0158 J0.0158
N9045 X1.1293 Y1.0978 Z-0.5246 I0.0158 J-0.0158
N9050 X1.0978 Y1.1293 Z-0.5375 I-0.0158 J0.0158
N9055 X1.0915 Y1.1172 Z-0.54 I0.0158 J-0.0158
N9060 X1.1356 Y1.1099 I0.022 J-0.0036
N9065 X1.0915 Y1.1172 I-0.022 J0.0036
N9070 X1.1007 Y1.1044 I0.011 J-0.0018 F10.
N9075 G1 X1.1131 Y1.1023
N9080 Z0.2 F12.
N9085 X1.1401 Y1.117
N9090 Z-0.46
N9095 Z-0.515 F10.
N9100 X1.1399 Y1.1172 Z-0.5189
N9105 X1.1392 Y1.1178 Z-0.5227
N9110 X1.1381 Y1.1189 Z-0.5263
N9115 X1.1367 Y1.1203 Z-0.5297
N9120 X1.1349 Y1.1221 Z-0.5327
N9125 X1.1328 Y1.1243 Z-0.5352
N9130 X1.1304 Y1.1266 Z-0.5373
N9135 X1.1279 Y1.1292 Z-0.5388
N9140 X1.1252 Y1.1319 Z-0.5397
N9145 X1.1224 Y1.1346 Z-0.54
N9150 X1.1136 Y1.1435
N9155 G3 X1.0836 I-0.015 J-0.015
N9160 X1.1435 Y1.0836 I0.0299 J-0.0299 F12.
N9165 X1.0836 Y1.1435 I-0.0299 J0.0299
N9170 Y1.1136 I0.015 J-0.015 F10.
N9175 G1 X1.0925 Y1.1047
N9180 X1.0952 Y1.1019 Z-0.5397
N9185 X1.0979 Y1.0993 Z-0.5388
N9190 X1.1005 Y1.0967 Z-0.5373
N9195 X1.1029 Y1.0943 Z-0.5352
N9200 X1.105 Y1.0922 Z-0.5327
N9205 X1.1068 Y1.0904 Z-0.5297
N9210 X1.1082 Y1.089 Z-0.5263
N9215 X1.1093 Y1.0879 Z-0.5227
N9220 X1.1099 Y1.0873 Z-0.5189
N9225 X1.1101 Y1.087 Z-0.515
N9230 Z0.6 F12.
(WHEN USING FUSION FOR PERSONAL USE, THE FEEDRATE OF RAPID)
(MOVES IS REDUCED TO MATCH THE FEEDRATE OF CUTTING MOVES,)
(WHICH CAN INCREASE MACHINING TIME. UNRESTRICTED RAPID MOVES)
(ARE AVAILABLE WITH A FUSION SUBSCRIPTION.)
(2D ADAPTIVE2)
N9235 G64 P0.004 Q0.004
N9240 G0 X0.0846 Y-0.088
N9245 G1 Z0.6 F12.
N9250 Z0.2
N9255 Z0.1
N9260 G3 X0.0822 Y0.0904 Z0.0825 I-0.0846 J0.088 F10.
N9265 X-0.0952 Y0.076 Z0.065 I-0.082 J-0.0901
N9270 X-0.069 Y-0.0996 Z0.0475 I0.0952 J-0.0755
N9275 X0.104 Y-0.0618 Z0.03 I0.0688 J0.0998
N9280 X0.0548 Y0.1078 Z0.0125 I-0.1039 J0.0618
N9285 X-0.1108 Y0.0475 Z-0.005 I-0.0546 J-0.1075
N9290 X-0.0397 Y-0.1132 Z-0.0225 I0.1107 J-0.0471
N9295 X0.1155 Y-0.0317 Z-0.04 I0.0395 J0.1133
N9300 X0.024 Y0.1173 Z-0.0575 I-0.1154 J0.0317
N9305 X-0.1181 Y0.0163 Z-0.075 I-0.0239 J-0.117
N9310 X-0.0081 Y-0.1184 Z-0.0925 I0.118 J-0.0159
N9315 X0.1186 Y0.0001 Z-0.11 I0.008 J0.1185
N9320 X-0.1189 I-0.1188 J0.
N9325 X0.1186 I0.1188 J0.
N9330 G1 X0.1188 Y0.0098 F12.
N9335 X0.1259 Y0.0481
N9340 X0.1277 Y0.0539
N9345 X0.1288 Y0.0598
N9350 X0.1293 Y0.0658
N9355 X0.1294 Y0.0718
N9360 X0.1289 Y0.0783
N9365 X0.1278 Y0.0852
N9370 X0.1261 Y0.0924
N9375 X0.1236 Y0.1
N9380 X0.1204 Y0.1077
N9385 X0.1163 Y0.1155
N9390 X0.1114 Y0.1233
N9395 X0.1057 Y0.1311
N9400 X0.099 Y0.1387
N9405 X0.0915 Y0.146
N9410 X0.0831 Y0.153
N9415 X0.0739 Y0.1595
N9420 X0.0639 Y0.1654
N9425 X0.0532 Y0.1706
N9430 X0.0417 Y0.175
N9435 X0.0297 Y0.1786
N9440 X0.0171 Y0.1813
N9445 X0.0042 Y0.183
N9450 X-0.0092 Y0.1837
N9455 X-0.0227 Y0.1832
N9460 X-0.0363 Y0.1817
N9465 X-0.05 Y0.1791
N9470 X-0.0635 Y0.1753
N9475 X-0.0768 Y0.1704
N9480 X-0.0898 Y0.1644
N9485 X-0.1024 Y0.1573
N9490 X-0.1144 Y0.1492
N9495 X-0.1259 Y0.1401
N9500 X-0.1366 Y0.13
N9505 X-0.1465 Y0.1191
N9510 X-0.1556 Y0.1073
N9515 X-0.1637 Y0.0948
N9520 X-0.1708 Y0.0817
N9525 X-0.1768 Y0.068
N9530 X-0.1818 Y0.0538
N9535 X-0.1856 Y0.0393
N9540 X-0.1882 Y0.0244
N9545 X-0.1896 Y0.0094
N9550 X-0.1898 Y-0.0057
N9555 X-0.1888 Y-0.0209
N9560 X-0.1866 Y-0.0359
N9565 X-0.1831 Y-0.0506
N9570 X-0.1785 Y-0.0651
N9575 X-0.1728 Y-0.0792
N9580 X-0.1659 Y-0.0927
N9585 X-0.158 Y-0.1057
N9590 X-0.149 Y-0.118
N9595 X-0.1391 Y-0.1296
N9600 X-0.1283 Y-0.1403
N9605 X-0.1166 Y-0.1501
N9610 X-0.1042 Y-0.159
N9615 X-0.0911 Y-0.1668
N9620 X-0.0775 Y-0.1736
N9625 X-0.0633 Y-0.1793
N9630 X-0.0487 Y-0.1838
N9635 X-0.0338 Y-0.1871
N9640 X-0.0187 Y-0.1892
N9645 X-0.0035 Y-0.19
N9650 X0.0118 Y-0.1897
N9655 X0.027 Y-0.1881
N9660 X0.042 Y-0.1854
N9665 X0.0567 Y-0.1814
N9670 X0.0711 Y-0.1762
N9675 X0.085 Y-0.1699
N9680 X0.0984 Y-0.1626
N9685 X0.1111 Y-0.1541
N9690 X0.1231 Y-0.1447
N9695 X0.1344 Y-0.1343
N9700 X0.1447 Y-0.1231
N9705 X0.1541 Y-0.1111
N9710 X0.1626 Y-0.0984
N9715 X0.1771 Y-0.072
N9720 X0.1895 Y-0.0444
N9725 X0.1974 Y-0.0224
N9730 X0.2028 Y-0.0025
N9735 X0.2062 Y0.0161
N9740 X0.208 Y0.034
N9745 X0.2084 Y0.0514
N9750 X0.2074 Y0.0683
N9755 X0.2051 Y0.0847
N9760 X0.2015 Y0.1008
N9765 X0.1967 Y0.1165
N9770 X0.1906 Y0.1318
N9775 X0.1832 Y0.1467
N9780 X0.1746 Y0.161
N9785 X0.1648 Y0.1746
N9790 X0.1539 Y0.1876
N9795 X0.1418 Y0.1998
N9800 X0.1286 Y0.2111
N9805 X0.1144 Y0.2214
N9810 X0.0991 Y0.2308
N9815 X0.083 Y0.2389
N9820 X0.066 Y0.2459
N9825 X0.0482 Y0.2515
N9830 X0.0299 Y0.2557
N9835 X0.011 Y0.2585
N9840 X-0.0083 Y0.2598
N9845 X-0.0277 Y0.2595
N9850 X-0.0473 Y0.2576
N9855 X-0.0669 Y0.2542
N9860 X-0.0863 Y0.2491
N9865 X-0.1053 Y0.2425
N9870 X-0.1239 Y0.2343
N9875 X-0.1419 Y0.2246
N9880 X-0.1591 Y0.2133
N9885 X-0.1755 Y0.2007
N9890 X-0.1909 Y0.1867
N9895 X-0.2051 Y0.1715
N9900 X-0.2182 Y0.1551
N9905 X-0.2299 Y0.1377
N9910 X-0.2403 Y0.1193
N9915 X-0.2492 Y0.1
N9920 X-0.2565 Y0.0801
N9925 X-0.2622 Y0.0596
N9930 X-0.2662 Y0.0386
N9935 X-0.2686 Y0.0174
N9940 X-0.2692 Y-0.004
N9945 X-0.2681 Y-0.0254
N9950 X-0.2653 Y-0.0467
N9955 X-0.2608 Y-0.0678
N9960 X-0.2547 Y-0.0884
N9965 X-0.2468 Y-0.1084
N9970 X-0.2374 Y-0.1278
N9975 X-0.2265 Y-0.1464
N9980 X-0.214 Y-0.1641
N9985 X-0.2002 Y-0.1807
N9990 X-0.1852 Y-0.1962
N9995 X-0.1689 Y-0.2104
N10000 X-0.1515 Y-0.2232
N10005 X-0.1331 Y-0.2347
N10010 X-0.1139 Y-0.2446
N10015 X-0.0939 Y-0.2529
N10020 X-0.0733 Y-0.2596
N10025 X-0.0523 Y-0.2647
N10030 X-0.0309 Y-0.268
N10035 X-0.0093 Y-0.2696
N10040 X0.0124 Y-0.2695
N10045 X0.034 Y-0.2676
N10050 X0.0553 Y-0.264
N10055 X0.0763 Y-0.2587
N10060 X0.0969 Y-0.2518
N10065 X0.1168 Y-0.2432
N10070 X0.1359 Y-0.233
N10075 X0.1542 Y-0.2213
N10080 X0.1714 Y-0.2082
N10085 X0.1898 Y-0.1918
N10090 X0.2081 Y-0.1727
N10095 X0.2252 Y-0.1515
N10100 X0.241 Y-0.1285
N10105 X0.2547 Y-0.1045
N10110 X0.2662 Y-0.08
N10115 X0.2755 Y-0.0553
N10120 X0.2826 Y-0.0306
N10125 X0.2876 Y-0.0059
N10130 X0.2905 Y0.0187
N10135 X0.2915 Y0.0431
N10140 X0.2905 Y0.0673
N10145 X0.2875 Y0.091
N10150 X0.2827 Y0.1144
N10155 X0.2761 Y0.1372
N10160 X0.2677 Y0.1593
N10165 X0.2575 Y0.1807
N10170 X0.2456 Y0.2012
N10175 X0.2321 Y0.2208
N10180 X0.217 Y0.2394
N10185 X0.2003 Y0.2567
N10190 X0.1821 Y0.2728
N10195 X0.1626 Y0.2875
N10200 X0.1418 Y0.3007
N10205 X0.1198 Y0.3123
N10210 X0.0968 Y0.3221
N10215 X0.0728 Y0.3301
N10220 X0.0481 Y0.3363
N10225 X0.0228 Y0.3404
N10230 X-0.003 Y0.3426
N10235 X-0.0291
N10240 X-0.0552 Y0.3406
N10245 X-0.0813 Y0.3364
N10250 X-0.1071 Y0.3301
N10255 X-0.1325 Y0.3217
N10260 X-0.1411 Y0.3181
N10265 X-0.1478 Y0.3147
N10270 X-0.154 Y0.3106
N10275 X-0.1597 Y0.3056
N10280 X-0.2699 Y0.1954
N10285 X-0.2881 Y0.1753
N10290 X-0.2997 Y0.1601
N10295 X-0.311 Y0.1428
N10300 X-0.3213 Y0.1235
N10305 X-0.3305 Y0.1027
N10310 X-0.3381 Y0.0808
N10315 X-0.3441 Y0.0575
N10320 X-0.3484 Y0.033
N10325 X-0.3508 Y0.0075
N10330 X-0.3511 Y-0.0187
N10335 X-0.3493 Y-0.0452
N10340 X-0.3453 Y-0.0718
N10345 X-0.3391 Y-0.0984
N10350 X-0.3308 Y-0.1246
N10355 X-0.3283 Y-0.1306
N10360 X-0.3249 Y-0.1375
N10365 X-0.3206 Y-0.1439
N10370 X-0.3155 Y-0.1497
N10375 G3 X-0.2874 Y-0.1538 Z-0.1038 I0.017 J0.0183 F10.
N10380 G1 X-0.2848 Y-0.1524 Z-0.1032 F12.
N10385 X-0.2824 Y-0.1506 Z-0.1026
N10390 X-0.2802 Y-0.1485 Z-0.102
N10395 G3 X-0.2738 Y-0.1351 I-0.0183 J0.0171
N10400 G1 X-0.2281 Y0.1734
N10405 G3 X-0.2346 Y0.1942 I-0.0247 J0.0037
N10410 G1 X-0.2367 Y0.1962 Z-0.1026
N10415 X-0.2391 Y0.198 Z-0.1032
N10420 X-0.2417 Y0.1995 Z-0.1038
N10425 G3 X-0.2699 Y0.1954 Z-0.11 I-0.0111 J-0.0224 F10.
N10430 G1 X-0.3724 Y0.0929 F12.
N10435 X-0.3814 Y0.0829
N10440 X-0.3885 Y0.0737
N10445 X-0.3953 Y0.0632
N10450 X-0.402 Y0.0508
N10455 X-0.4081 Y0.0368
N10460 X-0.4138 Y0.0205
N10465 X-0.4183 Y0.0031
N10470 X-0.4205 Y-0.0097
N10475 X-0.4214 Y-0.0208
N10480 X-0.4201 Y-0.0319
N10485 X-0.4167 Y-0.0426
N10490 X-0.4114 Y-0.0524
N10495 X-0.4043 Y-0.061
N10500 G3 X-0.3761 Y-0.0651 Z-0.1038 I0.017 J0.0183 F10.
N10505 G1 X-0.3735 Y-0.0636 Z-0.1032 F12.
N10510 X-0.3711 Y-0.0618 Z-0.1026
N10515 X-0.369 Y-0.0598 Z-0.102
N10520 G3 X-0.3631 Y-0.0493 I-0.0183 J0.0171
N10525 G1 X-0.3312 Y0.0681
N10530 G3 X-0.337 Y0.0917 I-0.0241 J0.0066
N10535 G1 X-0.3392 Y0.0938 Z-0.1026
N10540 X-0.3416 Y0.0955 Z-0.1032
N10545 X-0.3442 Y0.097 Z-0.1038
N10550 G3 X-0.3724 Y0.0929 Z-0.11 I-0.0111 J-0.0224 F10.
N10555 G1 X-0.4432 Y0.0221 F12.
N10560 X-0.4473 Y0.0178
N10565 X-0.4513 Y0.0103
N10570 X-0.4531 Y0.002
N10575 X-0.4525 Y-0.0064
N10580 X-0.4495 Y-0.0143
N10585 X-0.4443 Y-0.0211
N10590 G3 X-0.4243 Y-0.0292 Z-0.1055 I0.0208 J0.0226 F10.
N10595 G1 X-0.4202 Y-0.029 Z-0.1047
N10600 X-0.4162 Y-0.0283 Z-0.1038
N10605 X-0.4133 Y-0.0274 Z-0.1032 F12.
N10610 X-0.4106 Y-0.0262 Z-0.1026
N10615 X-0.408 Y-0.0248 Z-0.102
N10620 G3 X-0.4068 Y0.0244 I-0.0156 J0.025
N10625 G1 X-0.4094 Y0.026 Z-0.1026
N10630 X-0.412 Y0.0273 Z-0.1032
N10635 X-0.4148 Y0.0283 Z-0.1038
N10640 G3 X-0.4432 Y0.0221 Z-0.11 I-0.0087 J-0.0281 F10.
N10645 G1 X-0.4469 Y0.0186 F12.
N10650 X-0.4494 Y0.0159
N10655 X-0.4513 Y0.0133
N10660 X-0.4525 Y0.0111
N10665 X-0.4535 Y0.0088
N10670 X-0.4542 Y0.0066
N10675 X-0.4547 Y0.0044
N10680 X-0.455 Y0.0022
N10685 X-0.4551 Y0.
N10690 X-0.455 Y-0.0022
N10695 X-0.4547 Y-0.0044
N10700 X-0.4542 Y-0.0066
N10705 X-0.4535 Y-0.0088
N10710 X-0.4525 Y-0.0111
N10715 X-0.4513 Y-0.0133
N10720 X-0.4494 Y-0.0159
N10725 X-0.4469 Y-0.0186
N10730 X-0.4292 Y-0.0361
N10735 X-0.1954 Y-0.2699
N10740 X-0.174 Y-0.2892
N10745 X-0.1588 Y-0.3009
N10750 X-0.1417 Y-0.312
N10755 X-0.1233 Y-0.3219
N10760 X-0.1031 Y-0.3308
N10765 X-0.0811 Y-0.3384
N10770 X-0.0576 Y-0.3445
N10775 X-0.033 Y-0.3488
N10780 X-0.0074 Y-0.3512
N10785 X0.0186 Y-0.3515
N10790 X0.045 Y-0.3497
N10795 X0.0716 Y-0.3457
N10800 X0.098 Y-0.3396
N10805 X0.1241 Y-0.3312
N10810 X0.1301 Y-0.3288
N10815 X0.137 Y-0.3254
N10820 X0.1434 Y-0.3211
N10825 X0.1492 Y-0.3161
N10830 G3 X0.1533 Y-0.2879 Z-0.1038 I-0.0183 J0.017 F10.
N10835 G1 X0.1518 Y-0.2853 Z-0.1032 F12.
N10840 X0.15 Y-0.2829 Z-0.1026
N10845 X0.148 Y-0.2807 Z-0.102
N10850 G3 X0.1346 Y-0.2743 I-0.0171 J-0.0183
N10855 G1 X-0.1734 Y-0.2281
N10860 G3 X-0.1942 Y-0.2346 I-0.0037 J-0.0247
N10865 G1 X-0.1962 Y-0.2367 Z-0.1026
N10870 X-0.198 Y-0.2391 Z-0.1032
N10875 X-0.1995 Y-0.2417 Z-0.1038
N10880 G3 X-0.1954 Y-0.2699 Z-0.11 I0.0224 J-0.0111 F10.
N10885 G1 X-0.0929 Y-0.3724 F12.
N10890 X-0.0824 Y-0.3818
N10895 X-0.0732 Y-0.3889
N10900 X-0.0628 Y-0.3957
N10905 X-0.0504 Y-0.4024
N10910 X-0.0365 Y-0.4085
N10915 X-0.0202 Y-0.4141
N10920 X-0.0029 Y-0.4186
N10925 X0.0094 Y-0.4208
N10930 X0.0206 Y-0.4216
N10935 X0.0317 Y-0.4203
N10940 X0.0423 Y-0.417
N10945 X0.0521 Y-0.4116
N10950 X0.0607 Y-0.4045
N10955 G3 X0.0648 Y-0.3764 Z-0.1038 I-0.0183 J0.017 F10.
N10960 G1 X0.0633 Y-0.3738 Z-0.1032 F12.
N10965 X0.0616 Y-0.3714 Z-0.1026
N10970 X0.0595 Y-0.3692 Z-0.102
N10975 G3 X0.0491 Y-0.3634 I-0.0171 J-0.0183
N10980 G1 X-0.068 Y-0.3312
N10985 G3 X-0.0917 Y-0.337 I-0.0066 J-0.0241
N10990 G1 X-0.0938 Y-0.3392 Z-0.1026
N10995 X-0.0955 Y-0.3416 Z-0.1032
N11000 X-0.097 Y-0.3442 Z-0.1038
N11005 G3 X-0.0929 Y-0.3724 Z-0.11 I0.0224 J-0.0111 F10.
N11010 G1 X-0.0361 Y-0.4292 F12.
N11015 X-0.0221 Y-0.4433
N11020 X-0.0177 Y-0.4474
N11025 X-0.0102 Y-0.4514
N11030 X-0.0019 Y-0.4532
N11035 X0.0066 Y-0.4525
N11040 X0.0145 Y-0.4494
N11045 X0.0212 Y-0.4442
N11050 G3 X0.0292 Y-0.4239 Z-0.1055 I-0.0234 J0.0209 F10.
N11055 G1 X0.029 Y-0.4199 Z-0.1046
N11060 X0.0282 Y-0.4159 Z-0.1038
N11065 X0.0273 Y-0.4131 Z-0.1032 F12.
N11070 X0.0262 Y-0.4103 Z-0.1026
N11075 X0.0247 Y-0.4077 Z-0.102
N11080 G3 X-0.025 Y-0.407 I-0.0251 J-0.0156
N11085 G1 X-0.0266 Y-0.4096 Z-0.1026
N11090 X-0.0278 Y-0.4123 Z-0.1032
N11095 X-0.0288 Y-0.4151 Z-0.1038
N11100 G3 X-0.0221 Y-0.4433 Z-0.11 I0.0284 J-0.0082 F10.
N11105 G1 X-0.0186 Y-0.4469 F12.
N11110 X-0.0159 Y-0.4494
N11115 X-0.0133 Y-0.4513
N11120 X-0.0111 Y-0.4525
N11125 X-0.0088 Y-0.4535
N11130 X-0.0066 Y-0.4542
N11135 X-0.0044 Y-0.4547
N11140 X-0.0022 Y-0.455
N11145 X0. Y-0.4551
N11150 X0.0022 Y-0.455
N11155 X0.0044 Y-0.4547
N11160 X0.0066 Y-0.4542
N11165 X0.0088 Y-0.4535
N11170 X0.0111 Y-0.4525
N11175 X0.0133 Y-0.4513
N11180 X0.0159 Y-0.4494
N11185 X0.0186 Y-0.4469
N11190 X0.0221 Y-0.4432
N11195 X0.2839 Y-0.1814
N11200 X0.3052 Y-0.1578
N11205 X0.3184 Y-0.1407
N11210 X0.331 Y-0.1212
N11215 X0.3422 Y-0.1003
N11220 X0.3523 Y-0.0774
N11225 X0.361 Y-0.0524
N11230 X0.3678 Y-0.0259
N11235 X0.3727 Y0.0018
N11240 X0.3753 Y0.0303
N11245 X0.3757 Y0.0594
N11250 X0.375 Y0.07
N11255 X0.3733 Y0.0803
N11260 X0.3699 Y0.0902
N11265 X0.3647 Y0.0992
N11270 X0.358 Y0.1073
N11275 G3 X0.3298 Y0.1114 Z-0.1038 I-0.017 J-0.0183 F10.
N11280 G1 X0.3272 Y0.1099 Z-0.1032 F12.
N11285 X0.3249 Y0.1081 Z-0.1026
N11290 X0.3227 Y0.106 Z-0.102
N11295 G3 X0.317 Y0.096 I0.0183 J-0.0171
N11300 G1 X0.2428 Y-0.1561
N11305 G3 X0.2486 Y-0.1802 I0.024 J-0.0071
N11310 G1 X0.2507 Y-0.1822 Z-0.1026
N11315 X0.2531 Y-0.184 Z-0.1032
N11320 X0.2557 Y-0.1855 Z-0.1038
N11325 G3 X0.2839 Y-0.1814 Z-0.11 I0.0111 J0.0224 F10.
N11330 G1 X0.3938 Y-0.0715 F12.
N11335 X0.4057 Y-0.0583
N11340 X0.4129 Y-0.0489
N11345 X0.4206 Y-0.0371
N11350 X0.4276 Y-0.0241
N11355 X0.4304 Y-0.0177
N11360 X0.434 Y-0.0066
N11365 X0.4353 Y0.005
N11370 X0.4343 Y0.0166
N11375 X0.431 Y0.0277
N11380 X0.4256 Y0.038
N11385 X0.4182 Y0.047
N11390 G3 X0.3901 Y0.0511 Z-0.1038 I-0.017 J-0.0183 F10.
N11395 G1 X0.3875 Y0.0497 Z-0.1032 F12.
N11400 X0.3851 Y0.0479 Z-0.1026
N11405 X0.3829 Y0.0458 Z-0.102
N11410 G3 X0.3772 Y0.0359 I0.0183 J-0.0171
N11415 G1 X0.3528 Y-0.0461
N11420 G3 X0.3585 Y-0.0703 I0.024 J-0.0071
N11425 G1 X0.3606 Y-0.0723 Z-0.1026
N11430 X0.363 Y-0.0741 Z-0.1032
N11435 X0.3656 Y-0.0756 Z-0.1038
N11440 G3 X0.3938 Y-0.0715 Z-0.11 I0.0111 J0.0224 F10.
N11445 G1 X0.4432 Y-0.0221 F12.
N11450 X0.4469 Y-0.0186
N11455 X0.4494 Y-0.0159
N11460 X0.4513 Y-0.0133
N11465 X0.4525 Y-0.0111
N11470 X0.4535 Y-0.0088
N11475 X0.4542 Y-0.0066
N11480 X0.4547 Y-0.0044
N11485 X0.455 Y-0.0022
N11490 X0.4551 Y0.
N11495 X0.455 Y0.0022
N11500 X0.4547 Y0.0044
N11505 X0.4542 Y0.0066
N11510 X0.4535 Y0.0088
N11515 X0.4525 Y0.0111
N11520 X0.4513 Y0.0133
N11525 X0.4494 Y0.0159
N11530 X0.4469 Y0.0186
N11535 X0.4292 Y0.0361
N11540 X0.1018 Y0.3635
N11545 X0.0918 Y0.3725
N11550 X0.082 Y0.38
N11555 X0.0705 Y0.3875
N11560 X0.0573 Y0.3946
N11565 X0.0418 Y0.4014
N11570 X0.0252 Y0.4072
N11575 X0.0057 Y0.4122
N11580 X-0.015 Y0.4158
N11585 X-0.0192 Y0.4162
N11590 X-0.032 Y0.416
N11595 X-0.0444 Y0.413
N11600 X-0.0559 Y0.4074
N11605 X-0.0659 Y0.3994
N11610 G3 X-0.07 Y0.3712 Z-0.1038 I0.0183 J-0.017 F10.
N11615 G1 X-0.0685 Y0.3686 Z-0.1032 F12.
N11620 X-0.0667 Y0.3662 Z-0.1026
N11625 X-0.0647 Y0.3641 Z-0.102
N11630 G3 X-0.0542 Y0.3582 I0.0171 J0.0183
N11635 G1 X0.0769 Y0.3224
N11640 G3 X0.1005 Y0.3282 I0.0066 J0.0241
N11645 G1 X0.1026 Y0.3304 Z-0.1026
N11650 X0.1044 Y0.3327 Z-0.1032
N11655 X0.1059 Y0.3353 Z-0.1038
N11660 G3 X0.1018 Y0.3635 Z-0.11 I-0.0224 J0.0111 F10.
N11665 G1 X0.0272 Y0.438 F12.
N11670 X0.0215 Y0.4433
N11675 X0.0125 Y0.4483
N11680 X0.0026 Y0.4505
N11685 X-0.0076 Y0.4498
N11690 X-0.0171 Y0.4462
N11695 X-0.0253 Y0.4401
N11700 G3 X-0.0358 Y0.4146 Z-0.1043 I0.0293 J-0.027 F10.
N11705 G1 Y0.4125 Z-0.1038
N11710 X-0.0355 Y0.408 Z-0.1029 F12.
N11715 X-0.0346 Y0.4036 Z-0.102
N11720 G3 X0.0351 Y0.4015 I0.0352 J0.0096
N11725 G1 X0.0363 Y0.4058 Z-0.1029
N11730 X0.0369 Y0.4102 Z-0.1038
N11735 G3 X0.0272 Y0.438 Z-0.11 I-0.0363 J0.003 F10.
N11740 G1 X0.0221 Y0.4432 F12.
N11745 X0.0186 Y0.4469
N11750 X0.0159 Y0.4494
N11755 X0.0133 Y0.4513
N11760 X0.0111 Y0.4525
N11765 X0.0088 Y0.4535
N11770 X0.0066 Y0.4542
N11775 X0.0044 Y0.4547
N11780 X0.0022 Y0.455
N11785 X0. Y0.4551
N11790 X-0.0022 Y0.455
N11795 X-0.0044 Y0.4547
N11800 X-0.0066 Y0.4542
N11805 X-0.0088 Y0.4535
N11810 X-0.0111 Y0.4525
N11815 X-0.0133 Y0.4513
N11820 X-0.0159 Y0.4494
N11825 X-0.0186 Y0.4469
N11830 X-0.0361 Y0.4292
N11835 X-0.1597 Y0.3056
N11840 X-0.1616 Y0.3033 F10.
N11845 X-0.1632 Y0.3008
N11850 X-0.1642 Y0.298 Z-0.1098
N11855 X-0.1651 Y0.2952 Z-0.1093
N11860 X-0.1661 Y0.2925 Z-0.1084
N11865 X-0.1662 Y0.2905 Z-0.1075
N11870 X-0.1664 Y0.2886 Z-0.1065
N11875 X-0.1659 Y0.286 Z-0.1046
N11880 X-0.1655 Y0.2837 Z-0.1025
N11885 X-0.1652 Y0.2816 Z-0.1001
N11890 X-0.1648 Y0.2799 Z-0.0974
N11895 X-0.1643 Y0.2786 Z-0.0945
N11900 X-0.1638 Y0.2776 Z-0.0914
N11905 X-0.1636 Y0.2771 Z-0.0883
N11910 X-0.1635 Y0.2769 Z-0.085
N11915 Z0.2 F12.
N11920 X0.0846 Y-0.088
N11925 Z-0.01
N11930 G3 X0.0822 Y0.0904 Z-0.0275 I-0.0846 J0.088 F10.
N11935 X-0.0952 Y0.076 Z-0.045 I-0.082 J-0.0901
N11940 X-0.069 Y-0.0996 Z-0.0625 I0.0952 J-0.0755
N11945 X0.104 Y-0.0618 Z-0.08 I0.0688 J0.0998
N11950 X0.0548 Y0.1078 Z-0.0975 I-0.1039 J0.0618
N11955 X-0.1108 Y0.0475 Z-0.115 I-0.0546 J-0.1075
N11960 X-0.0397 Y-0.1132 Z-0.1325 I0.1107 J-0.0471
N11965 X0.1155 Y-0.0317 Z-0.15 I0.0395 J0.1133
N11970 X0.024 Y0.1173 Z-0.1675 I-0.1154 J0.0317
N11975 X-0.1181 Y0.0163 Z-0.185 I-0.0239 J-0.117
N11980 X-0.0081 Y-0.1184 Z-0.2025 I0.118 J-0.0159
N11985 X0.1186 Y0.0001 Z-0.22 I0.008 J0.1185
N11990 X-0.1189 I-0.1188 J0.
N11995 X0.1186 I0.1188 J0.
N12000 G1 X0.1188 Y0.0098 F12.
N12005 X0.1259 Y0.0481
N12010 X0.1277 Y0.0539
N12015 X0.1288 Y0.0598
N12020 X0.1293 Y0.0658
N12025 X0.1294 Y0.0718
N12030 X0.1289 Y0.0783
N12035 X0.1278 Y0.0852
N12040 X0.1261 Y0.0924
N12045 X0.1236 Y0.1
N12050 X0.1204 Y0.1077
N12055 X0.1163 Y0.1155
N12060 X0.1114 Y0.1233
N12065 X0.1057 Y0.1311
N12070 X0.099 Y0.1387
N12075 X0.0915 Y0.146
N12080 X0.0831 Y0.153
N12085 X0.0739 Y0.1595
N12090 X0.0639 Y0.1654
N12095 X0.0532 Y0.1706
N12100 X0.0417 Y0.175
N12105 X0.0297 Y0.1786
N12110 X0.0171 Y0.1813
N12115 X0.0042 Y0.183
N12120 X-0.0092 Y0.1837
N12125 X-0.0227 Y0.1832
N12130 X-0.0363 Y0.1817
N12135 X-0.05 Y0.1791
N12140 X-0.0635 Y0.1753
N12145 X-0.0768 Y0.1704
N12150 X-0.0898 Y0.1644
N12155 X-0.1024 Y0.1573
N12160 X-0.1144 Y0.1492
N12165 X-0.1259 Y0.1401
N12170 X-0.1366 Y0.13
N12175 X-0.1465 Y0.1191
N12180 X-0.1556 Y0.1073
N12185 X-0.1637 Y0.0948
N12190 X-0.1708 Y0.0817
N12195 X-0.1768 Y0.068
N12200 X-0.1818 Y0.0538
N12205 X-0.1856 Y0.0393
N12210 X-0.1882 Y0.0244
N12215 X-0.1896 Y0.0094
N12220 X-0.1898 Y-0.0057
N12225 X-0.1888 Y-0.0209
N12230 X-0.1866 Y-0.0359
N12235 X-0.1831 Y-0.0506
N12240 X-0.1785 Y-0.0651
N12245 X-0.1728 Y-0.0792
N12250 X-0.1659 Y-0.0927
N12255 X-0.158 Y-0.1057
N12260 X-0.149 Y-0.118
N12265 X-0.1391 Y-0.1296
N12270 X-0.1283 Y-0.1403
N12275 X-0.1166 Y-0.1501
N12280 X-0.1042 Y-0.159
N12285 X-0.0911 Y-0.1668
N12290 X-0.0775 Y-0.1736
N12295 X-0.0633 Y-0.1793
N12300 X-0.0487 Y-0.1838
N12305 X-0.0338 Y-0.1871
N12310 X-0.0187 Y-0.1892
N12315 X-0.0035 Y-0.19
N12320 X0.0118 Y-0.1897
N12325 X0.027 Y-0.1881
N12330 X0.042 Y-0.1854
N12335 X0.0567 Y-0.1814
N12340 X0.0711 Y-0.1762
N12345 X0.085 Y-0.1699
N12350 X0.0984 Y-0.1626
N12355 X0.1111 Y-0.1541
N12360 X0.1231 Y-0.1447
N12365 X0.1344 Y-0.1343
N12370 X0.1447 Y-0.1231
N12375 X0.1541 Y-0.1111
N12380 X0.1626 Y-0.0984
N12385 X0.1771 Y-0.072
N12390 X0.1895 Y-0.0444
N12395 X0.1974 Y-0.0224
N12400 X0.2028 Y-0.0025
N12405 X0.2062 Y0.0161
N12410 X0.208 Y0.034
N12415 X0.2084 Y0.0514
N12420 X0.2074 Y0.0683
N12425 X0.2051 Y0.0847
N12430 X0.2015 Y0.1008
N12435 X0.1967 Y0.1165
N12440 X0.1906 Y0.1318
N12445 X0.1832 Y0.1467
N12450 X0.1746 Y0.161
N12455 X0.1648 Y0.1746
N12460 X0.1539 Y0.1876
N12465 X0.1418 Y0.1998
N12470 X0.1286 Y0.2111
N12475 X0.1144 Y0.2214
N12480 X0.0991 Y0.2308
N12485 X0.083 Y0.2389
N12490 X0.066 Y0.2459
N12495 X0.0482 Y0.2515
N12500 X0.0299 Y0.2557
N12505 X0.011 Y0.2585
N12510 X-0.0083 Y0.2598
N12515 X-0.0277 Y0.2595
N12520 X-0.0473 Y0.2576
N12525 X-0.0669 Y0.2542
N12530 X-0.0863 Y0.2491
N12535 X-0.1053 Y0.2425
N12540 X-0.1239 Y0.2343
N12545 X-0.1419 Y0.2246
N12550 X-0.1591 Y0.2133
N12555 X-0.1755 Y0.2007
N12560 X-0.1909 Y0.1867
N12565 X-0.2051 Y0.1715
N12570 X-0.2182 Y0.1551
N12575 X-0.2299 Y0.1377
N12580 X-0.2403 Y0.1193
N12585 X-0.2492 Y0.1
N12590 X-0.2565 Y0.0801
N12595 X-0.2622 Y0.0596
N12600 X-0.2662 Y0.0386
N12605 X-0.2686 Y0.0174
N12610 X-0.2692 Y-0.004
N12615 X-0.2681 Y-0.0254
N12620 X-0.2653 Y-0.0467
N12625 X-0.2608 Y-0.0678
N12630 X-0.2547 Y-0.0884
N12635 X-0.2468 Y-0.1084
N12640 X-0.2374 Y-0.1278
N12645 X-0.2265 Y-0.1464
N12650 X-0.214 Y-0.1641
N12655 X-0.2002 Y-0.1807
N12660 X-0.1852 Y-0.1962
N12665 X-0.1689 Y-0.2104
N12670 X-0.1515 Y-0.2232
N12675 X-0.1331 Y-0.2347
N12680 X-0.1139 Y-0.2446
N12685 X-0.0939 Y-0.2529
N12690 X-0.0733 Y-0.2596
N12695 X-0.0523 Y-0.2647
N12700 X-0.0309 Y-0.268
N12705 X-0.0093 Y-0.2696
N12710 X0.0124 Y-0.2695
N12715 X0.034 Y-0.2676
N12720 X0.0553 Y-0.264
N12725 X0.0763 Y-0.2587
N12730 X0.0969 Y-0.2518
N12735 X0.1168 Y-0.2432
N12740 X0.1359 Y-0.233
N12745 X0.1542 Y-0.2213
N12750 X0.1714 Y-0.2082
N12755 X0.1898 Y-0.1918
N12760 X0.2081 Y-0.1727
N12765 X0.2252 Y-0.1515
N12770 X0.241 Y-0.1285
N12775 X0.2547 Y-0.1045
N12780 X0.2662 Y-0.08
N12785 X0.2755 Y-0.0553
N12790 X0.2826 Y-0.0306
N12795 X0.2876 Y-0.0059
N12800 X0.2905 Y0.0187
N12805 X0.2915 Y0.0431
N12810 X0.2905 Y0.0673
N12815 X0.2875 Y0.091
N12820 X0.2827 Y0.1144
N12825 X0.2761 Y0.1372
N12830 X0.2677 Y0.1593
N12835 X0.2575 Y0.1807
N12840 X0.2456 Y0.2012
N12845 X0.2321 Y0.2208
N12850 X0.217 Y0.2394
N12855 X0.2003 Y0.2567
N12860 X0.1821 Y0.2728
N12865 X0.1626 Y0.2875
N12870 X0.1418 Y0.3007
N12875 X0.1198 Y0.3123
N12880 X0.0968 Y0.3221
N12885 X0.0728 Y0.3301
N12890 X0.0481 Y0.3363
N12895 X0.0228 Y0.3404
N12900 X-0.003 Y0.3426
N12905 X-0.0291
N12910 X-0.0552 Y0.3406
N12915 X-0.0813 Y0.3364
N12920 X-0.1071 Y0.3301
N12925 X-0.1325 Y0.3217
N12930 X-0.1411 Y0.3181
N12935 X-0.1478 Y0.3147
N12940 X-0.154 Y0.3106
N12945 X-0.1597 Y0.3056
N12950 X-0.2699 Y0.1954
N12955 X-0.2881 Y0.1753
N12960 X-0.2997 Y0.1601
N12965 X-0.311 Y0.1428
N12970 X-0.3213 Y0.1235
N12975 X-0.3305 Y0.1027
N12980 X-0.3381 Y0.0808
N12985 X-0.3441 Y0.0575
N12990 X-0.3484 Y0.033
N12995 X-0.3508 Y0.0075
N13000 X-0.3511 Y-0.0187
N13005 X-0.3493 Y-0.0452
N13010 X-0.3453 Y-0.0718
N13015 X-0.3391 Y-0.0984
N13020 X-0.3308 Y-0.1246
N13025 X-0.3283 Y-0.1306
N13030 X-0.3249 Y-0.1375
N13035 X-0.3206 Y-0.1439
N13040 X-0.3155 Y-0.1497
N13045 G3 X-0.2874 Y-0.1538 Z-0.2138 I0.017 J0.0183 F10.
N13050 G1 X-0.2848 Y-0.1524 Z-0.2132 F12.
N13055 X-0.2824 Y-0.1506 Z-0.2126
N13060 X-0.2802 Y-0.1485 Z-0.212
N13065 G3 X-0.2738 Y-0.1351 I-0.0183 J0.0171
N13070 G1 X-0.2281 Y0.1734
N13075 G3 X-0.2346 Y0.1942 I-0.0247 J0.0037
N13080 G1 X-0.2367 Y0.1962 Z-0.2126
N13085 X-0.2391 Y0.198 Z-0.2132
N13090 X-0.2417 Y0.1995 Z-0.2138
N13095 G3 X-0.2699 Y0.1954 Z-0.22 I-0.0111 J-0.0224 F10.
N13100 G1 X-0.3724 Y0.0929 F12.
N13105 X-0.3814 Y0.0829
N13110 X-0.3885 Y0.0737
N13115 X-0.3953 Y0.0632
N13120 X-0.402 Y0.0508
N13125 X-0.4081 Y0.0368
N13130 X-0.4138 Y0.0205
N13135 X-0.4183 Y0.0031
N13140 X-0.4205 Y-0.0097
N13145 X-0.4214 Y-0.0208
N13150 X-0.4201 Y-0.0319
N13155 X-0.4167 Y-0.0426
N13160 X-0.4114 Y-0.0524
N13165 X-0.4043 Y-0.061
N13170 G3 X-0.3761 Y-0.0651 Z-0.2138 I0.017 J0.0183 F10.
N13175 G1 X-0.3735 Y-0.0636 Z-0.2132 F12.
N13180 X-0.3711 Y-0.0618 Z-0.2126
N13185 X-0.369 Y-0.0598 Z-0.212
N13190 G3 X-0.3631 Y-0.0493 I-0.0183 J0.0171
N13195 G1 X-0.3312 Y0.0681
N13200 G3 X-0.337 Y0.0917 I-0.0241 J0.0066
N13205 G1 X-0.3392 Y0.0938 Z-0.2126
N13210 X-0.3416 Y0.0955 Z-0.2132
N13215 X-0.3442 Y0.097 Z-0.2138
N13220 G3 X-0.3724 Y0.0929 Z-0.22 I-0.0111 J-0.0224 F10.
N13225 G1 X-0.4432 Y0.0221 F12.
N13230 X-0.4473 Y0.0178
N13235 X-0.4513 Y0.0103
N13240 X-0.4531 Y0.002
N13245 X-0.4525 Y-0.0064
N13250 X-0.4495 Y-0.0143
N13255 X-0.4443 Y-0.0211
N13260 G3 X-0.4243 Y-0.0292 Z-0.2155 I0.0208 J0.0226 F10.
N13265 G1 X-0.4202 Y-0.029 Z-0.2147
N13270 X-0.4162 Y-0.0283 Z-0.2138
N13275 X-0.4133 Y-0.0274 Z-0.2132 F12.
N13280 X-0.4106 Y-0.0262 Z-0.2126
N13285 X-0.408 Y-0.0248 Z-0.212
N13290 G3 X-0.4068 Y0.0244 I-0.0156 J0.025
N13295 G1 X-0.4094 Y0.026 Z-0.2126
N13300 X-0.412 Y0.0273 Z-0.2132
N13305 X-0.4148 Y0.0283 Z-0.2138
N13310 G3 X-0.4432 Y0.0221 Z-0.22 I-0.0087 J-0.0281 F10.
N13315 G1 X-0.4469 Y0.0186 F12.
N13320 X-0.4494 Y0.0159
N13325 X-0.4513 Y0.0133
N13330 X-0.4525 Y0.0111
N13335 X-0.4535 Y0.0088
N13340 X-0.4542 Y0.0066
N13345 X-0.4547 Y0.0044
N13350 X-0.455 Y0.0022
N13355 X-0.4551 Y0.
N13360 X-0.455 Y-0.0022
N13365 X-0.4547 Y-0.0044
N13370 X-0.4542 Y-0.0066
N13375 X-0.4535 Y-0.0088
N13380 X-0.4525 Y-0.0111
N13385 X-0.4513 Y-0.0133
N13390 X-0.4494 Y-0.0159
N13395 X-0.4469 Y-0.0186
N13400 X-0.4292 Y-0.0361
N13405 X-0.1954 Y-0.2699
N13410 X-0.174 Y-0.2892
N13415 X-0.1588 Y-0.3009
N13420 X-0.1417 Y-0.312
N13425 X-0.1233 Y-0.3219
N13430 X-0.1031 Y-0.3308
N13435 X-0.0811 Y-0.3384
N13440 X-0.0576 Y-0.3445
N13445 X-0.033 Y-0.3488
N13450 X-0.0074 Y-0.3512
N13455 X0.0186 Y-0.3515
N13460 X0.045 Y-0.3497
N13465 X0.0716 Y-0.3457
N13470 X0.098 Y-0.3396
N13475 X0.1241 Y-0.3312
N13480 X0.1301 Y-0.3288
N13485 X0.137 Y-0.3254
N13490 X0.1434 Y-0.3211
N13495 X0.1492 Y-0.3161
N13500 G3 X0.1533 Y-0.2879 Z-0.2138 I-0.0183 J0.017 F10.
N13505 G1 X0.1518 Y-0.2853 Z-0.2132 F12.
N13510 X0.15 Y-0.2829 Z-0.2126
N13515 X0.148 Y-0.2807 Z-0.212
N13520 G3 X0.1346 Y-0.2743 I-0.0171 J-0.0183
N13525 G1 X-0.1734 Y-0.2281
N13530 G3 X-0.1942 Y-0.2346 I-0.0037 J-0.0247
N13535 G1 X-0.1962 Y-0.2367 Z-0.2126
N13540 X-0.198 Y-0.2391 Z-0.2132
N13545 X-0.1995 Y-0.2417 Z-0.2138
N13550 G3 X-0.1954 Y-0.2699 Z-0.22 I0.0224 J-0.0111 F10.
N13555 G1 X-0.0929 Y-0.3724 F12.
N13560 X-0.0824 Y-0.3818
N13565 X-0.0732 Y-0.3889
N13570 X-0.0628 Y-0.3957
N13575 X-0.0504 Y-0.4024
N13580 X-0.0365 Y-0.4085
N13585 X-0.0202 Y-0.4141
N13590 X-0.0029 Y-0.4186
N13595 X0.0094 Y-0.4208
N13600 X0.0206 Y-0.4216
N13605 X0.0317 Y-0.4203
N13610 X0.0423 Y-0.417
N13615 X0.0521 Y-0.4116
N13620 X0.0607 Y-0.4045
N13625 G3 X0.0648 Y-0.3764 Z-0.2138 I-0.0183 J0.017 F10.
N13630 G1 X0.0633 Y-0.3738 Z-0.2132 F12.
N13635 X0.0616 Y-0.3714 Z-0.2126
N13640 X0.0595 Y-0.3692 Z-0.212
N13645 G3 X0.0491 Y-0.3634 I-0.0171 J-0.0183
N13650 G1 X-0.068 Y-0.3312
N13655 G3 X-0.0917 Y-0.337 I-0.0066 J-0.0241
N13660 G1 X-0.0938 Y-0.3392 Z-0.2126
N13665 X-0.0955 Y-0.3416 Z-0.2132
N13670 X-0.097 Y-0.3442 Z-0.2138
N13675 G3 X-0.0929 Y-0.3724 Z-0.22 I0.0224 J-0.0111 F10.
N13680 G1 X-0.0361 Y-0.4292 F12.
N13685 X-0.0221 Y-0.4433
N13690 X-0.0177 Y-0.4474
N13695 X-0.0102 Y-0.4514
N13700 X-0.0019 Y-0.4532
N13705 X0.0066 Y-0.4525
N13710 X0.0145 Y-0.4494
N13715 X0.0212 Y-0.4442
N13720 G3 X0.0292 Y-0.4239 Z-0.2155 I-0.0234 J0.0209 F10.
N13725 G1 X0.029 Y-0.4199 Z-0.2146
N13730 X0.0282 Y-0.4159 Z-0.2138
N13735 X0.0273 Y-0.4131 Z-0.2132 F12.
N13740 X0.0262 Y-0.4103 Z-0.2126
N13745 X0.0247 Y-0.4077 Z-0.212
N13750 G3 X-0.025 Y-0.407 I-0.0251 J-0.0156
N13755 G1 X-0.0266 Y-0.4096 Z-0.2126
N13760 X-0.0278 Y-0.4123 Z-0.2132
N13765 X-0.0288 Y-0.4151 Z-0.2138
N13770 G3 X-0.0221 Y-0.4433 Z-0.22 I0.0284 J-0.0082 F10.
N13775 G1 X-0.0186 Y-0.4469 F12.
N13780 X-0.0159 Y-0.4494
N13785 X-0.0133 Y-0.4513
N13790 X-0.0111 Y-0.4525
N13795 X-0.0088 Y-0.4535
N13800 X-0.0066 Y-0.4542
N13805 X-0.0044 Y-0.4547
N13810 X-0.0022 Y-0.455
N13815 X0. Y-0.4551
N13820 X0.0022 Y-0.455
N13825 X0.0044 Y-0.4547
N13830 X0.0066 Y-0.4542
N13835 X0.0088 Y-0.4535
N13840 X0.0111 Y-0.4525
N13845 X0.0133 Y-0.4513
N13850 X0.0159 Y-0.4494
N13855 X0.0186 Y-0.4469
N13860 X0.0221 Y-0.4432
N13865 X0.2839 Y-0.1814
N13870 X0.3052 Y-0.1578
N13875 X0.3184 Y-0.1407
N13880 X0.331 Y-0.1212
N13885 X0.3422 Y-0.1003
N13890 X0.3523 Y-0.0774
N13895 X0.361 Y-0.0524
N13900 X0.3678 Y-0.0259
N13905 X0.3727 Y0.0018
N13910 X0.3753 Y0.0303
N13915 X0.3757 Y0.0594
N13920 X0.375 Y0.07
N13925 X0.3733 Y0.0803
N13930 X0.3699 Y0.0902
N13935 X0.3647 Y0.0992
N13940 X0.358 Y0.1073
N13945 G3 X0.3298 Y0.1114 Z-0.2138 I-0.017 J-0.0183 F10.
N13950 G1 X0.3272 Y0.1099 Z-0.2132 F12.
N13955 X0.3249 Y0.1081 Z-0.2126
N13960 X0.3227 Y0.106 Z-0.212
N13965 G3 X0.317 Y0.096 I0.0183 J-0.0171
N13970 G1 X0.2428 Y-0.1561
N13975 G3 X0.2486 Y-0.1802 I0.024 J-0.0071
N13980 G1 X0.2507 Y-0.1822 Z-0.2126
N13985 X0.2531 Y-0.184 Z-0.2132
N13990 X0.2557 Y-0.1855 Z-0.2138
N13995 G3 X0.2839 Y-0.1814 Z-0.22 I0.0111 J0.0224 F10.
N14000 G1 X0.3938 Y-0.0715 F12.
N14005 X0.4057 Y-0.0583
N14010 X0.4129 Y-0.0489
N14015 X0.4206 Y-0.0371
N14020 X0.4276 Y-0.0241
N14025 X0.4304 Y-0.0177
N14030 X0.434 Y-0.0066
N14035 X0.4353 Y0.005
N14040 X0.4343 Y0.0166
N14045 X0.431 Y0.0277
N14050 X0.4256 Y0.038
N14055 X0.4182 Y0.047
N14060 G3 X0.3901 Y0.0511 Z-0.2138 I-0.017 J-0.0183 F10.
N14065 G1 X0.3875 Y0.0497 Z-0.2132 F12.
N14070 X0.3851 Y0.0479 Z-0.2126
N14075 X0.3829 Y0.0458 Z-0.212
N14080 G3 X0.3772 Y0.0359 I0.0183 J-0.0171
N14085 G1 X0.3528 Y-0.0461
N14090 G3 X0.3585 Y-0.0703 I0.024 J-0.0071
N14095 G1 X0.3606 Y-0.0723 Z-0.2126
N14100 X0.363 Y-0.0741 Z-0.2132
N14105 X0.3656 Y-0.0756 Z-0.2138
N14110 G3 X0.3938 Y-0.0715 Z-0.22 I0.0111 J0.0224 F10.
N14115 G1 X0.4432 Y-0.0221 F12.
N14120 X0.4469 Y-0.0186
N14125 X0.4494 Y-0.0159
N14130 X0.4513 Y-0.0133
N14135 X0.4525 Y-0.0111
N14140 X0.4535 Y-0.0088
N14145 X0.4542 Y-0.0066
N14150 X0.4547 Y-0.0044
N14155 X0.455 Y-0.0022
N14160 X0.4551 Y0.
N14165 X0.455 Y0.0022
N14170 X0.4547 Y0.0044
N14175 X0.4542 Y0.0066
N14180 X0.4535 Y0.0088
N14185 X0.4525 Y0.0111
N14190 X0.4513 Y0.0133
N14195 X0.4494 Y0.0159
N14200 X0.4469 Y0.0186
N14205 X0.4292 Y0.0361
N14210 X0.1018 Y0.3635
N14215 X0.0918 Y0.3725
N14220 X0.082 Y0.38
N14225 X0.0705 Y0.3875
N14230 X0.0573 Y0.3946
N14235 X0.0418 Y0.4014
N14240 X0.0252 Y0.4072
N14245 X0.0057 Y0.4122
N14250 X-0.015 Y0.4158
N14255 X-0.0192 Y0.4162
N14260 X-0.032 Y0.416
N14265 X-0.0444 Y0.413
N14270 X-0.0559 Y0.4074
N14275 X-0.0659 Y0.3994
N14280 G3 X-0.07 Y0.3712 Z-0.2138 I0.0183 J-0.017 F10.
N14285 G1 X-0.0685 Y0.3686 Z-0.2132 F12.
N14290 X-0.0667 Y0.3662 Z-0.2126
N14295 X-0.0647 Y0.3641 Z-0.212
N14300 G3 X-0.0542 Y0.3582 I0.0171 J0.0183
N14305 G1 X0.0769 Y0.3224
N14310 G3 X0.1005 Y0.3282 I0.0066 J0.0241
N14315 G1 X0.1026 Y0.3304 Z-0.2126
N14320 X0.1044 Y0.3327 Z-0.2132
N14325 X0.1059 Y0.3353 Z-0.2138
N14330 G3 X0.1018 Y0.3635 Z-0.22 I-0.0224 J0.0111 F10.
N14335 G1 X0.0272 Y0.438 F12.
N14340 X0.0215 Y0.4433
N14345 X0.0125 Y0.4483
N14350 X0.0026 Y0.4505
N14355 X-0.0076 Y0.4498
N14360 X-0.0171 Y0.4462
N14365 X-0.0253 Y0.4401
N14370 G3 X-0.0358 Y0.4146 Z-0.2143 I0.0293 J-0.027 F10.
N14375 G1 Y0.4125 Z-0.2138
N14380 X-0.0355 Y0.408 Z-0.2129 F12.
N14385 X-0.0346 Y0.4036 Z-0.212
N14390 G3 X0.0351 Y0.4015 I0.0352 J0.0096
N14395 G1 X0.0363 Y0.4058 Z-0.2129
N14400 X0.0369 Y0.4102 Z-0.2138
N14405 X0.037 Y0.411 Z-0.214 F10.
N14410 G3 X0.0272 Y0.438 Z-0.22 I-0.0364 J0.0022
N14415 G1 X0.0221 Y0.4432 F12.
N14420 X0.0186 Y0.4469
N14425 X0.0159 Y0.4494
N14430 X0.0133 Y0.4513
N14435 X0.0111 Y0.4525
N14440 X0.0088 Y0.4535
N14445 X0.0066 Y0.4542
N14450 X0.0044 Y0.4547
N14455 X0.0022 Y0.455
N14460 X0. Y0.4551
N14465 X-0.0022 Y0.455
N14470 X-0.0044 Y0.4547
N14475 X-0.0066 Y0.4542
N14480 X-0.0088 Y0.4535
N14485 X-0.0111 Y0.4525
N14490 X-0.0133 Y0.4513
N14495 X-0.0159 Y0.4494
N14500 X-0.0186 Y0.4469
N14505 X-0.0361 Y0.4292
N14510 X-0.1597 Y0.3056
N14515 X-0.1616 Y0.3033 F10.
N14520 X-0.1632 Y0.3008
N14525 X-0.1642 Y0.298 Z-0.2198
N14530 X-0.1651 Y0.2952 Z-0.2193
N14535 X-0.1661 Y0.2925 Z-0.2184
N14540 X-0.1662 Y0.2905 Z-0.2175
N14545 X-0.1664 Y0.2886 Z-0.2165
N14550 X-0.1659 Y0.286 Z-0.2146
N14555 X-0.1655 Y0.2837 Z-0.2125
N14560 X-0.1652 Y0.2816 Z-0.2101
N14565 X-0.1648 Y0.2799 Z-0.2074
N14570 X-0.1643 Y0.2786 Z-0.2045
N14575 X-0.1638 Y0.2776 Z-0.2014
N14580 X-0.1636 Y0.2771 Z-0.1983
N14585 X-0.1635 Y0.2769 Z-0.195
N14590 Z0.2 F12.
N14595 X0.0846 Y-0.088
N14600 Z-0.12
N14605 G3 X0.0822 Y0.0904 Z-0.1375 I-0.0846 J0.088 F10.
N14610 X-0.0952 Y0.076 Z-0.155 I-0.082 J-0.0901
N14615 X-0.069 Y-0.0996 Z-0.1725 I0.0952 J-0.0755
N14620 X0.104 Y-0.0618 Z-0.19 I0.0688 J0.0998
N14625 X0.0548 Y0.1078 Z-0.2075 I-0.1039 J0.0618
N14630 X-0.1108 Y0.0475 Z-0.225 I-0.0546 J-0.1075
N14635 X-0.0397 Y-0.1132 Z-0.2425 I0.1107 J-0.0471
N14640 X0.1155 Y-0.0317 Z-0.26 I0.0395 J0.1133
N14645 X0.024 Y0.1173 Z-0.2775 I-0.1154 J0.0317
N14650 X-0.1181 Y0.0163 Z-0.295 I-0.0239 J-0.117
N14655 X-0.0081 Y-0.1184 Z-0.3125 I0.118 J-0.0159
N14660 X0.1186 Y0.0001 Z-0.33 I0.008 J0.1185
N14665 X-0.1189 I-0.1188 J0.
N14670 X0.1186 I0.1188 J0.
N14675 G1 X0.1188 Y0.0098 F12.
N14680 X0.1259 Y0.0481
N14685 X0.1277 Y0.0539
N14690 X0.1288 Y0.0598
N14695 X0.1293 Y0.0658
N14700 X0.1294 Y0.0718
N14705 X0.1289 Y0.0783
N14710 X0.1278 Y0.0852
N14715 X0.1261 Y0.0924
N14720 X0.1236 Y0.1
N14725 X0.1204 Y0.1077
N14730 X0.1163 Y0.1155
N14735 X0.1114 Y0.1233
N14740 X0.1057 Y0.1311
N14745 X0.099 Y0.1387
N14750 X0.0915 Y0.146
N14755 X0.0831 Y0.153
N14760 X0.0739 Y0.1595
N14765 X0.0639 Y0.1654
N14770 X0.0532 Y0.1706
N14775 X0.0417 Y0.175
N14780 X0.0297 Y0.1786
N14785 X0.0171 Y0.1813
N14790 X0.0042 Y0.183
N14795 X-0.0092 Y0.1837
N14800 X-0.0227 Y0.1832
N14805 X-0.0363 Y0.1817
N14810 X-0.05 Y0.1791
N14815 X-0.0635 Y0.1753
N14820 X-0.0768 Y0.1704
N14825 X-0.0898 Y0.1644
N14830 X-0.1024 Y0.1573
N14835 X-0.1144 Y0.1492
N14840 X-0.1259 Y0.1401
N14845 X-0.1366 Y0.13
N14850 X-0.1465 Y0.1191
N14855 X-0.1556 Y0.1073
N14860 X-0.1637 Y0.0948
N14865 X-0.1708 Y0.0817
N14870 X-0.1768 Y0.068
N14875 X-0.1818 Y0.0538
N14880 X-0.1856 Y0.0393
N14885 X-0.1882 Y0.0244
N14890 X-0.1896 Y0.0094
N14895 X-0.1898 Y-0.0057
N14900 X-0.1888 Y-0.0209
N14905 X-0.1866 Y-0.0359
N14910 X-0.1831 Y-0.0506
N14915 X-0.1785 Y-0.0651
N14920 X-0.1728 Y-0.0792
N14925 X-0.1659 Y-0.0927
N14930 X-0.158 Y-0.1057
N14935 X-0.149 Y-0.118
N14940 X-0.1391 Y-0.1296
N14945 X-0.1283 Y-0.1403
N14950 X-0.1166 Y-0.1501
N14955 X-0.1042 Y-0.159
N14960 X-0.0911 Y-0.1668
N14965 X-0.0775 Y-0.1736
N14970 X-0.0633 Y-0.1793
N14975 X-0.0487 Y-0.1838
N14980 X-0.0338 Y-0.1871
N14985 X-0.0187 Y-0.1892
N14990 X-0.0035 Y-0.19
N14995 X0.0118 Y-0.1897
N15000 X0.027 Y-0.1881
N15005 X0.042 Y-0.1854
N15010 X0.0567 Y-0.1814
N15015 X0.0711 Y-0.1762
N15020 X0.085 Y-0.1699
N15025 X0.0984 Y-0.1626
N15030 X0.1111 Y-0.1541
N15035 X0.1231 Y-0.1447
N15040 X0.1344 Y-0.1343
N15045 X0.1447 Y-0.1231
N15050 X0.1541 Y-0.1111
N15055 X0.1626 Y-0.0984
N15060 X0.1771 Y-0.072
N15065 X0.1895 Y-0.0444
N15070 X0.1974 Y-0.0224
N15075 X0.2028 Y-0.0025
N15080 X0.2062 Y0.0161
N15085 X0.208 Y0.034
N15090 X0.2084 Y0.0514
N15095 X0.2074 Y0.0683
N15100 X0.2051 Y0.0847
N15105 X0.2015 Y0.1008
N15110 X0.1967 Y0.1165
N15115 X0.1906 Y0.1318
N15120 X0.1832 Y0.1467
N15125 X0.1746 Y0.161
N15130 X0.1648 Y0.1746
N15135 X0.1539 Y0.1876
N15140 X0.1418 Y0.1998
N15145 X0.1286 Y0.2111
N15150 X0.1144 Y0.2214
N15155 X0.0991 Y0.2308
N15160 X0.083 Y0.2389
N15165 X0.066 Y0.2459
N15170 X0.0482 Y0.2515
N15175 X0.0299 Y0.2557
N15180 X0.011 Y0.2585
N15185 X-0.0083 Y0.2598
N15190 X-0.0277 Y0.2595
N15195 X-0.0473 Y0.2576
N15200 X-0.0669 Y0.2542
N15205 X-0.0863 Y0.2491
N15210 X-0.1053 Y0.2425
N15215 X-0.1239 Y0.2343
N15220 X-0.1419 Y0.2246
N15225 X-0.1591 Y0.2133
N15230 X-0.1755 Y0.2007
N15235 X-0.1909 Y0.1867
N15240 X-0.2051 Y0.1715
N15245 X-0.2182 Y0.1551
N15250 X-0.2299 Y0.1377
N15255 X-0.2403 Y0.1193
N15260 X-0.2492 Y0.1
N15265 X-0.2565 Y0.0801
N15270 X-0.2622 Y0.0596
N15275 X-0.2662 Y0.0386
N15280 X-0.2686 Y0.0174
N15285 X-0.2692 Y-0.004
N15290 X-0.2681 Y-0.0254
N15295 X-0.2653 Y-0.0467
N15300 X-0.2608 Y-0.0678
N15305 X-0.2547 Y-0.0884
N15310 X-0.2468 Y-0.1084
N15315 X-0.2374 Y-0.1278
N15320 X-0.2265 Y-0.1464
N15325 X-0.214 Y-0.1641
N15330 X-0.2002 Y-0.1807
N15335 X-0.1852 Y-0.1962
N15340 X-0.1689 Y-0.2104
N15345 X-0.1515 Y-0.2232
N15350 X-0.1331 Y-0.2347
N15355 X-0.1139 Y-0.2446
N15360 X-0.0939 Y-0.2529
N15365 X-0.0733 Y-0.2596
N15370 X-0.0523 Y-0.2647
N15375 X-0.0309 Y-0.268
N15380 X-0.0093 Y-0.2696
N15385 X0.0124 Y-0.2695
N15390 X0.034 Y-0.2676
N15395 X0.0553 Y-0.264
N15400 X0.0763 Y-0.2587
N15405 X0.0969 Y-0.2518
N15410 X0.1168 Y-0.2432
N15415 X0.1359 Y-0.233
N15420 X0.1542 Y-0.2213
N15425 X0.1714 Y-0.2082
N15430 X0.1898 Y-0.1918
N15435 X0.2081 Y-0.1727
N15440 X0.2252 Y-0.1515
N15445 X0.241 Y-0.1285
N15450 X0.2547 Y-0.1045
N15455 X0.2662 Y-0.08
N15460 X0.2755 Y-0.0553
N15465 X0.2826 Y-0.0306
N15470 X0.2876 Y-0.0059
N15475 X0.2905 Y0.0187
N15480 X0.2915 Y0.0431
N15485 X0.2905 Y0.0673
N15490 X0.2875 Y0.091
N15495 X0.2827 Y0.1144
N15500 X0.2761 Y0.1372
N15505 X0.2677 Y0.1593
N15510 X0.2575 Y0.1807
N15515 X0.2456 Y0.2012
N15520 X0.2321 Y0.2208
N15525 X0.217 Y0.2394
N15530 X0.2003 Y0.2567
N15535 X0.1821 Y0.2728
N15540 X0.1626 Y0.2875
N15545 X0.1418 Y0.3007
N15550 X0.1198 Y0.3123
N15555 X0.0968 Y0.3221
N15560 X0.0728 Y0.3301
N15565 X0.0481 Y0.3363
N15570 X0.0228 Y0.3404
N15575 X-0.003 Y0.3426
N15580 X-0.0291
N15585 X-0.0552 Y0.3406
N15590 X-0.0813 Y0.3364
N15595 X-0.1071 Y0.3301
N15600 X-0.1325 Y0.3217
N15605 X-0.1411 Y0.3181
N15610 X-0.1478 Y0.3147
N15615 X-0.154 Y0.3106
N15620 X-0.1597 Y0.3056
N15625 X-0.2699 Y0.1954
N15630 X-0.2881 Y0.1753
N15635 X-0.2997 Y0.1601
N15640 X-0.311 Y0.1428
N15645 X-0.3213 Y0.1235
N15650 X-0.3305 Y0.1027
N15655 X-0.3381 Y0.0808
N15660 X-0.3441 Y0.0575
N15665 X-0.3484 Y0.033
N15670 X-0.3508 Y0.0075
N15675 X-0.3511 Y-0.0187
N15680 X-0.3493 Y-0.0452
N15685 X-0.3453 Y-0.0718
N15690 X-0.3391 Y-0.0984
N15695 X-0.3308 Y-0.1246
N15700 X-0.3283 Y-0.1306
N15705 X-0.3249 Y-0.1375
N15710 X-0.3206 Y-0.1439
N15715 X-0.3155 Y-0.1497
N15720 G3 X-0.2874 Y-0.1538 Z-0.3238 I0.017 J0.0183 F10.
N15725 G1 X-0.2848 Y-0.1524 Z-0.3232 F12.
N15730 X-0.2824 Y-0.1506 Z-0.3226
N15735 X-0.2802 Y-0.1485 Z-0.322
N15740 G3 X-0.2738 Y-0.1351 I-0.0183 J0.0171
N15745 G1 X-0.2281 Y0.1734
N15750 G3 X-0.2346 Y0.1942 I-0.0247 J0.0037
N15755 G1 X-0.2367 Y0.1962 Z-0.3226
N15760 X-0.2391 Y0.198 Z-0.3232
N15765 X-0.2417 Y0.1995 Z-0.3238
N15770 G3 X-0.2699 Y0.1954 Z-0.33 I-0.0111 J-0.0224 F10.
N15775 G1 X-0.3724 Y0.0929 F12.
N15780 X-0.3814 Y0.0829
N15785 X-0.3885 Y0.0737
N15790 X-0.3953 Y0.0632
N15795 X-0.402 Y0.0508
N15800 X-0.4081 Y0.0368
N15805 X-0.4138 Y0.0205
N15810 X-0.4183 Y0.0031
N15815 X-0.4205 Y-0.0097
N15820 X-0.4214 Y-0.0208
N15825 X-0.4201 Y-0.0319
N15830 X-0.4167 Y-0.0426
N15835 X-0.4114 Y-0.0524
N15840 X-0.4043 Y-0.061
N15845 G3 X-0.3761 Y-0.0651 Z-0.3238 I0.017 J0.0183 F10.
N15850 G1 X-0.3735 Y-0.0636 Z-0.3232 F12.
N15855 X-0.3711 Y-0.0618 Z-0.3226
N15860 X-0.369 Y-0.0598 Z-0.322
N15865 G3 X-0.3631 Y-0.0493 I-0.0183 J0.0171
N15870 G1 X-0.3312 Y0.0681
N15875 G3 X-0.337 Y0.0917 I-0.0241 J0.0066
N15880 G1 X-0.3392 Y0.0938 Z-0.3226
N15885 X-0.3416 Y0.0955 Z-0.3232
N15890 X-0.3442 Y0.097 Z-0.3238
N15895 G3 X-0.3724 Y0.0929 Z-0.33 I-0.0111 J-0.0224 F10.
N15900 G1 X-0.4432 Y0.0221 F12.
N15905 X-0.4473 Y0.0178
N15910 X-0.4513 Y0.0103
N15915 X-0.4531 Y0.002
N15920 X-0.4525 Y-0.0064
N15925 X-0.4495 Y-0.0143
N15930 X-0.4443 Y-0.0211
N15935 G3 X-0.4243 Y-0.0292 Z-0.3255 I0.0208 J0.0226 F10.
N15940 G1 X-0.4202 Y-0.029 Z-0.3247
N15945 X-0.4162 Y-0.0283 Z-0.3238
N15950 X-0.4133 Y-0.0274 Z-0.3232 F12.
N15955 X-0.4106 Y-0.0262 Z-0.3226
N15960 X-0.408 Y-0.0248 Z-0.322
N15965 G3 X-0.4068 Y0.0244 I-0.0156 J0.025
N15970 G1 X-0.4094 Y0.026 Z-0.3226
N15975 X-0.412 Y0.0273 Z-0.3232
N15980 X-0.4148 Y0.0283 Z-0.3238
N15985 G3 X-0.4432 Y0.0221 Z-0.33 I-0.0087 J-0.0281 F10.
N15990 G1 X-0.4469 Y0.0186 F12.
N15995 X-0.4494 Y0.0159
N16000 X-0.4513 Y0.0133
N16005 X-0.4525 Y0.0111
N16010 X-0.4535 Y0.0088
N16015 X-0.4542 Y0.0066
N16020 X-0.4547 Y0.0044
N16025 X-0.455 Y0.0022
N16030 X-0.4551 Y0.
N16035 X-0.455 Y-0.0022
N16040 X-0.4547 Y-0.0044
N16045 X-0.4542 Y-0.0066
N16050 X-0.4535 Y-0.0088
N16055 X-0.4525 Y-0.0111
N16060 X-0.4513 Y-0.0133
N16065 X-0.4494 Y-0.0159
N16070 X-0.4469 Y-0.0186
N16075 X-0.4292 Y-0.0361
N16080 X-0.1954 Y-0.2699
N16085 X-0.174 Y-0.2892
N16090 X-0.1588 Y-0.3009
N16095 X-0.1417 Y-0.312
N16100 X-0.1233 Y-0.3219
N16105 X-0.1031 Y-0.3308
N16110 X-0.0811 Y-0.3384
N16115 X-0.0576 Y-0.3445
N16120 X-0.033 Y-0.3488
N16125 X-0.0074 Y-0.3512
N16130 X0.0186 Y-0.3515
N16135 X0.045 Y-0.3497
N16140 X0.0716 Y-0.3457
N16145 X0.098 Y-0.3396
N16150 X0.1241 Y-0.3312
N16155 X0.1301 Y-0.3288
N16160 X0.137 Y-0.3254
N16165 X0.1434 Y-0.3211
N16170 X0.1492 Y-0.3161
N16175 G3 X0.1533 Y-0.2879 Z-0.3238 I-0.0183 J0.017 F10.
N16180 G1 X0.1518 Y-0.2853 Z-0.3232 F12.
N16185 X0.15 Y-0.2829 Z-0.3226
N16190 X0.148 Y-0.2807 Z-0.322
N16195 G3 X0.1346 Y-0.2743 I-0.0171 J-0.0183
N16200 G1 X-0.1734 Y-0.2281
N16205 G3 X-0.1942 Y-0.2346 I-0.0037 J-0.0247
N16210 G1 X-0.1962 Y-0.2367 Z-0.3226
N16215 X-0.198 Y-0.2391 Z-0.3232
N16220 X-0.1995 Y-0.2417 Z-0.3238
N16225 G3 X-0.1954 Y-0.2699 Z-0.33 I0.0224 J-0.0111 F10.
N16230 G1 X-0.0929 Y-0.3724 F12.
N16235 X-0.0824 Y-0.3818
N16240 X-0.0732 Y-0.3889
N16245 X-0.0628 Y-0.3957
N16250 X-0.0504 Y-0.4024
N16255 X-0.0365 Y-0.4085
N16260 X-0.0202 Y-0.4141
N16265 X-0.0029 Y-0.4186
N16270 X0.0094 Y-0.4208
N16275 X0.0206 Y-0.4216
N16280 X0.0317 Y-0.4203
N16285 X0.0423 Y-0.417
N16290 X0.0521 Y-0.4116
N16295 X0.0607 Y-0.4045
N16300 G3 X0.0648 Y-0.3764 Z-0.3238 I-0.0183 J0.017 F10.
N16305 G1 X0.0633 Y-0.3738 Z-0.3232 F12.
N16310 X0.0616 Y-0.3714 Z-0.3226
N16315 X0.0595 Y-0.3692 Z-0.322
N16320 G3 X0.0491 Y-0.3634 I-0.0171 J-0.0183
N16325 G1 X-0.068 Y-0.3312
N16330 G3 X-0.0917 Y-0.337 I-0.0066 J-0.0241
N16335 G1 X-0.0938 Y-0.3392 Z-0.3226
N16340 X-0.0955 Y-0.3416 Z-0.3232
N16345 X-0.097 Y-0.3442 Z-0.3238
N16350 G3 X-0.0929 Y-0.3724 Z-0.33 I0.0224 J-0.0111 F10.
N16355 G1 X-0.0361 Y-0.4292 F12.
N16360 X-0.0221 Y-0.4433
N16365 X-0.0177 Y-0.4474
N16370 X-0.0102 Y-0.4514
N16375 X-0.0019 Y-0.4532
N16380 X0.0066 Y-0.4525
N16385 X0.0145 Y-0.4494
N16390 X0.0212 Y-0.4442
N16395 G3 X0.0292 Y-0.4239 Z-0.3255 I-0.0234 J0.0209 F10.
N16400 G1 X0.029 Y-0.4199 Z-0.3246
N16405 X0.0282 Y-0.4159 Z-0.3238
N16410 X0.0273 Y-0.4131 Z-0.3232 F12.
N16415 X0.0262 Y-0.4103 Z-0.3226
N16420 X0.0247 Y-0.4077 Z-0.322
N16425 G3 X-0.025 Y-0.407 I-0.0251 J-0.0156
N16430 G1 X-0.0266 Y-0.4096 Z-0.3226
N16435 X-0.0278 Y-0.4123 Z-0.3232
N16440 X-0.0288 Y-0.4151 Z-0.3238
N16445 G3 X-0.0221 Y-0.4433 Z-0.33 I0.0284 J-0.0082 F10.
N16450 G1 X-0.0186 Y-0.4469 F12.
N16455 X-0.0159 Y-0.4494
N16460 X-0.0133 Y-0.4513
N16465 X-0.0111 Y-0.4525
N16470 X-0.0088 Y-0.4535
N16475 X-0.0066 Y-0.4542
N16480 X-0.0044 Y-0.4547
N16485 X-0.0022 Y-0.455
N16490 X0. Y-0.4551
N16495 X0.0022 Y-0.455
N16500 X0.0044 Y-0.4547
N16505 X0.0066 Y-0.4542
N16510 X0.0088 Y-0.4535
N16515 X0.0111 Y-0.4525
N16520 X0.0133 Y-0.4513
N16525 X0.0159 Y-0.4494
N16530 X0.0186 Y-0.4469
N16535 X0.0221 Y-0.4432
N16540 X0.2839 Y-0.1814
N16545 X0.3052 Y-0.1578
N16550 X0.3184 Y-0.1407
N16555 X0.331 Y-0.1212
N16560 X0.3422 Y-0.1003
N16565 X0.3523 Y-0.0774
N16570 X0.361 Y-0.0524
N16575 X0.3678 Y-0.0259
N16580 X0.3727 Y0.0018
N16585 X0.3753 Y0.0303
N16590 X0.3757 Y0.0594
N16595 X0.375 Y0.07
N16600 X0.3733 Y0.0803
N16605 X0.3699 Y0.0902
N16610 X0.3647 Y0.0992
N16615 X0.358 Y0.1073
N16620 G3 X0.3298 Y0.1114 Z-0.3238 I-0.017 J-0.0183 F10.
N16625 G1 X0.3272 Y0.1099 Z-0.3232 F12.
N16630 X0.3249 Y0.1081 Z-0.3226
N16635 X0.3227 Y0.106 Z-0.322
N16640 G3 X0.317 Y0.096 I0.0183 J-0.0171
N16645 G1 X0.2428 Y-0.1561
N16650 G3 X0.2486 Y-0.1802 I0.024 J-0.0071
N16655 G1 X0.2507 Y-0.1822 Z-0.3226
N16660 X0.2531 Y-0.184 Z-0.3232
N16665 X0.2557 Y-0.1855 Z-0.3238
N16670 G3 X0.2839 Y-0.1814 Z-0.33 I0.0111 J0.0224 F10.
N16675 G1 X0.3938 Y-0.0715 F12.
N16680 X0.4057 Y-0.0583
N16685 X0.4129 Y-0.0489
N16690 X0.4206 Y-0.0371
N16695 X0.4276 Y-0.0241
N16700 X0.4304 Y-0.0177
N16705 X0.434 Y-0.0066
N16710 X0.4353 Y0.005
N16715 X0.4343 Y0.0166
N16720 X0.431 Y0.0277
N16725 X0.4256 Y0.038
N16730 X0.4182 Y0.047
N16735 G3 X0.3901 Y0.0511 Z-0.3238 I-0.017 J-0.0183 F10.
N16740 G1 X0.3875 Y0.0497 Z-0.3232 F12.
N16745 X0.3851 Y0.0479 Z-0.3226
N16750 X0.3829 Y0.0458 Z-0.322
N16755 G3 X0.3772 Y0.0359 I0.0183 J-0.0171
N16760 G1 X0.3528 Y-0.0461
N16765 G3 X0.3585 Y-0.0703 I0.024 J-0.0071
N16770 G1 X0.3606 Y-0.0723 Z-0.3226
N16775 X0.363 Y-0.0741 Z-0.3232
N16780 X0.3656 Y-0.0756 Z-0.3238
N16785 G3 X0.3938 Y-0.0715 Z-0.33 I0.0111 J0.0224 F10.
N16790 G1 X0.4432 Y-0.0221 F12.
N16795 X0.4469 Y-0.0186
N16800 X0.4494 Y-0.0159
N16805 X0.4513 Y-0.0133
N16810 X0.4525 Y-0.0111
N16815 X0.4535 Y-0.0088
N16820 X0.4542 Y-0.0066
N16825 X0.4547 Y-0.0044
N16830 X0.455 Y-0.0022
N16835 X0.4551 Y0.
N16840 X0.455 Y0.0022
N16845 X0.4547 Y0.0044
N16850 X0.4542 Y0.0066
N16855 X0.4535 Y0.0088
N16860 X0.4525 Y0.0111
N16865 X0.4513 Y0.0133
N16870 X0.4494 Y0.0159
N16875 X0.4469 Y0.0186
N16880 X0.4292 Y0.0361
N16885 X0.1018 Y0.3635
N16890 X0.0918 Y0.3725
N16895 X0.082 Y0.38
N16900 X0.0705 Y0.3875
N16905 X0.0573 Y0.3946
N16910 X0.0418 Y0.4014
N16915 X0.0252 Y0.4072
N16920 X0.0057 Y0.4122
N16925 X-0.015 Y0.4158
N16930 X-0.0192 Y0.4162
N16935 X-0.032 Y0.416
N16940 X-0.0444 Y0.413
N16945 X-0.0559 Y0.4074
N16950 X-0.0659 Y0.3994
N16955 G3 X-0.07 Y0.3712 Z-0.3238 I0.0183 J-0.017 F10.
N16960 G1 X-0.0685 Y0.3686 Z-0.3232 F12.
N16965 X-0.0667 Y0.3662 Z-0.3226
N16970 X-0.0647 Y0.3641 Z-0.322
N16975 G3 X-0.0542 Y0.3582 I0.0171 J0.0183
N16980 G1 X0.0769 Y0.3224
N16985 G3 X0.1005 Y0.3282 I0.0066 J0.0241
N16990 G1 X0.1026 Y0.3304 Z-0.3226
N16995 X0.1044 Y0.3327 Z-0.3232
N17000 X0.1059 Y0.3353 Z-0.3238
N17005 G3 X0.1018 Y0.3635 Z-0.33 I-0.0224 J0.0111 F10.
N17010 G1 X0.0272 Y0.438 F12.
N17015 X0.0215 Y0.4433
N17020 X0.0125 Y0.4483
N17025 X0.0026 Y0.4505
N17030 X-0.0076 Y0.4498
N17035 X-0.0171 Y0.4462
N17040 X-0.0253 Y0.4401
N17045 G3 X-0.0358 Y0.4146 Z-0.3243 I0.0293 J-0.027 F10.
N17050 G1 Y0.4125 Z-0.3238
N17055 X-0.0355 Y0.408 Z-0.3229 F12.
N17060 X-0.0346 Y0.4036 Z-0.322
N17065 G3 X0.0351 Y0.4015 I0.0352 J0.0096
N17070 G1 X0.0363 Y0.4058 Z-0.3229
N17075 X0.0369 Y0.4102 Z-0.3238
N17080 X0.037 Y0.411 Z-0.324 F10.
N17085 G3 X0.0272 Y0.438 Z-0.33 I-0.0364 J0.0022
N17090 G1 X0.0221 Y0.4432 F12.
N17095 X0.0186 Y0.4469
N17100 X0.0159 Y0.4494
N17105 X0.0133 Y0.4513
N17110 X0.0111 Y0.4525
N17115 X0.0088 Y0.4535
N17120 X0.0066 Y0.4542
N17125 X0.0044 Y0.4547
N17130 X0.0022 Y0.455
N17135 X0. Y0.4551
N17140 X-0.0022 Y0.455
N17145 X-0.0044 Y0.4547
N17150 X-0.0066 Y0.4542
N17155 X-0.0088 Y0.4535
N17160 X-0.0111 Y0.4525
N17165 X-0.0133 Y0.4513
N17170 X-0.0159 Y0.4494
N17175 X-0.0186 Y0.4469
N17180 X-0.0361 Y0.4292
N17185 X-0.1597 Y0.3056
N17190 X-0.1616 Y0.3033 F10.
N17195 X-0.1632 Y0.3008
N17200 X-0.1642 Y0.298 Z-0.3298
N17205 X-0.1651 Y0.2952 Z-0.3293
N17210 X-0.1661 Y0.2925 Z-0.3284
N17215 X-0.1662 Y0.2905 Z-0.3275
N17220 X-0.1664 Y0.2886 Z-0.3265
N17225 X-0.1659 Y0.286 Z-0.3246
N17230 X-0.1655 Y0.2837 Z-0.3225
N17235 X-0.1652 Y0.2816 Z-0.3201
N17240 X-0.1648 Y0.2799 Z-0.3174
N17245 X-0.1643 Y0.2786 Z-0.3145
N17250 X-0.1638 Y0.2776 Z-0.3114
N17255 X-0.1636 Y0.2771 Z-0.3083
N17260 X-0.1635 Y0.2769 Z-0.305
N17265 Z0.2 F12.
N17270 X0.0846 Y-0.088
N17275 Z-0.23
N17280 G3 X0.0822 Y0.0904 Z-0.2475 I-0.0846 J0.088 F10.
N17285 X-0.0952 Y0.076 Z-0.265 I-0.082 J-0.0901
N17290 X-0.069 Y-0.0996 Z-0.2825 I0.0952 J-0.0755
N17295 X0.104 Y-0.0618 Z-0.3 I0.0688 J0.0998
N17300 X0.0548 Y0.1078 Z-0.3175 I-0.1039 J0.0618
N17305 X-0.1108 Y0.0475 Z-0.335 I-0.0546 J-0.1075
N17310 X-0.0397 Y-0.1132 Z-0.3525 I0.1107 J-0.0471
N17315 X0.1155 Y-0.0317 Z-0.37 I0.0395 J0.1133
N17320 X0.024 Y0.1173 Z-0.3875 I-0.1154 J0.0317
N17325 X-0.1181 Y0.0163 Z-0.405 I-0.0239 J-0.117
N17330 X-0.0081 Y-0.1184 Z-0.4225 I0.118 J-0.0159
N17335 X0.1186 Y0.0001 Z-0.44 I0.008 J0.1185
N17340 X-0.1189 I-0.1188 J0.
N17345 X0.1186 I0.1188 J0.
N17350 G1 X0.1188 Y0.0098 F12.
N17355 X0.1259 Y0.0481
N17360 X0.1277 Y0.0539
N17365 X0.1288 Y0.0598
N17370 X0.1293 Y0.0658
N17375 X0.1294 Y0.0718
N17380 X0.1289 Y0.0783
N17385 X0.1278 Y0.0852
N17390 X0.1261 Y0.0924
N17395 X0.1236 Y0.1
N17400 X0.1204 Y0.1077
N17405 X0.1163 Y0.1155
N17410 X0.1114 Y0.1233
N17415 X0.1057 Y0.1311
N17420 X0.099 Y0.1387
N17425 X0.0915 Y0.146
N17430 X0.0831 Y0.153
N17435 X0.0739 Y0.1595
N17440 X0.0639 Y0.1654
N17445 X0.0532 Y0.1706
N17450 X0.0417 Y0.175
N17455 X0.0297 Y0.1786
N17460 X0.0171 Y0.1813
N17465 X0.0042 Y0.183
N17470 X-0.0092 Y0.1837
N17475 X-0.0227 Y0.1832
N17480 X-0.0363 Y0.1817
N17485 X-0.05 Y0.1791
N17490 X-0.0635 Y0.1753
N17495 X-0.0768 Y0.1704
N17500 X-0.0898 Y0.1644
N17505 X-0.1024 Y0.1573
N17510 X-0.1144 Y0.1492
N17515 X-0.1259 Y0.1401
N17520 X-0.1366 Y0.13
N17525 X-0.1465 Y0.1191
N17530 X-0.1556 Y0.1073
N17535 X-0.1637 Y0.0948
N17540 X-0.1708 Y0.0817
N17545 X-0.1768 Y0.068
N17550 X-0.1818 Y0.0538
N17555 X-0.1856 Y0.0393
N17560 X-0.1882 Y0.0244
N17565 X-0.1896 Y0.0094
N17570 X-0.1898 Y-0.0057
N17575 X-0.1888 Y-0.0209
N17580 X-0.1866 Y-0.0359
N17585 X-0.1831 Y-0.0506
N17590 X-0.1785 Y-0.0651
N17595 X-0.1728 Y-0.0792
N17600 X-0.1659 Y-0.0927
N17605 X-0.158 Y-0.1057
N17610 X-0.149 Y-0.118
N17615 X-0.1391 Y-0.1296
N17620 X-0.1283 Y-0.1403
N17625 X-0.1166 Y-0.1501
N17630 X-0.1042 Y-0.159
N17635 X-0.0911 Y-0.1668
N17640 X-0.0775 Y-0.1736
N17645 X-0.0633 Y-0.1793
N17650 X-0.0487 Y-0.1838
N17655 X-0.0338 Y-0.1871
N17660 X-0.0187 Y-0.1892
N17665 X-0.0035 Y-0.19
N17670 X0.0118 Y-0.1897
N17675 X0.027 Y-0.1881
N17680 X0.042 Y-0.1854
N17685 X0.0567 Y-0.1814
N17690 X0.0711 Y-0.1762
N17695 X0.085 Y-0.1699
N17700 X0.0984 Y-0.1626
N17705 X0.1111 Y-0.1541
N17710 X0.1231 Y-0.1447
N17715 X0.1344 Y-0.1343
N17720 X0.1447 Y-0.1231
N17725 X0.1541 Y-0.1111
N17730 X0.1626 Y-0.0984
N17735 X0.1771 Y-0.072
N17740 X0.1895 Y-0.0444
N17745 X0.1974 Y-0.0224
N17750 X0.2028 Y-0.0025
N17755 X0.2062 Y0.0161
N17760 X0.208 Y0.034
N17765 X0.2084 Y0.0514
N17770 X0.2074 Y0.0683
N17775 X0.2051 Y0.0847
N17780 X0.2015 Y0.1008
N17785 X0.1967 Y0.1165
N17790 X0.1906 Y0.1318
N17795 X0.1832 Y0.1467
N17800 X0.1746 Y0.161
N17805 X0.1648 Y0.1746
N17810 X0.1539 Y0.1876
N17815 X0.1418 Y0.1998
N17820 X0.1286 Y0.2111
N17825 X0.1144 Y0.2214
N17830 X0.0991 Y0.2308
N17835 X0.083 Y0.2389
N17840 X0.066 Y0.2459
N17845 X0.0482 Y0.2515
N17850 X0.0299 Y0.2557
N17855 X0.011 Y0.2585
N17860 X-0.0083 Y0.2598
N17865 X-0.0277 Y0.2595
N17870 X-0.0473 Y0.2576
N17875 X-0.0669 Y0.2542
N17880 X-0.0863 Y0.2491
N17885 X-0.1053 Y0.2425
N17890 X-0.1239 Y0.2343
N17895 X-0.1419 Y0.2246
N17900 X-0.1591 Y0.2133
N17905 X-0.1755 Y0.2007
N17910 X-0.1909 Y0.1867
N17915 X-0.2051 Y0.1715
N17920 X-0.2182 Y0.1551
N17925 X-0.2299 Y0.1377
N17930 X-0.2403 Y0.1193
N17935 X-0.2492 Y0.1
N17940 X-0.2565 Y0.0801
N17945 X-0.2622 Y0.0596
N17950 X-0.2662 Y0.0386
N17955 X-0.2686 Y0.0174
N17960 X-0.2692 Y-0.004
N17965 X-0.2681 Y-0.0254
N17970 X-0.2653 Y-0.0467
N17975 X-0.2608 Y-0.0678
N17980 X-0.2547 Y-0.0884
N17985 X-0.2468 Y-0.1084
N17990 X-0.2374 Y-0.1278
N17995 X-0.2265 Y-0.1464
N18000 X-0.214 Y-0.1641
N18005 X-0.2002 Y-0.1807
N18010 X-0.1852 Y-0.1962
N18015 X-0.1689 Y-0.2104
N18020 X-0.1515 Y-0.2232
N18025 X-0.1331 Y-0.2347
N18030 X-0.1139 Y-0.2446
N18035 X-0.0939 Y-0.2529
N18040 X-0.0733 Y-0.2596
N18045 X-0.0523 Y-0.2647
N18050 X-0.0309 Y-0.268
N18055 X-0.0093 Y-0.2696
N18060 X0.0124 Y-0.2695
N18065 X0.034 Y-0.2676
N18070 X0.0553 Y-0.264
N18075 X0.0763 Y-0.2587
N18080 X0.0969 Y-0.2518
N18085 X0.1168 Y-0.2432
N18090 X0.1359 Y-0.233
N18095 X0.1542 Y-0.2213
N18100 X0.1714 Y-0.2082
N18105 X0.1898 Y-0.1918
N18110 X0.2081 Y-0.1727
N18115 X0.2252 Y-0.1515
N18120 X0.241 Y-0.1285
N18125 X0.2547 Y-0.1045
N18130 X0.2662 Y-0.08
N18135 X0.2755 Y-0.0553
N18140 X0.2826 Y-0.0306
N18145 X0.2876 Y-0.0059
N18150 X0.2905 Y0.0187
N18155 X0.2915 Y0.0431
N18160 X0.2905 Y0.0673
N18165 X0.2875 Y0.091
N18170 X0.2827 Y0.1144
N18175 X0.2761 Y0.1372
N18180 X0.2677 Y0.1593
N18185 X0.2575 Y0.1807
N18190 X0.2456 Y0.2012
N18195 X0.2321 Y0.2208
N18200 X0.217 Y0.2394
N18205 X0.2003 Y0.2567
N18210 X0.1821 Y0.2728
N18215 X0.1626 Y0.2875
N18220 X0.1418 Y0.3007
N18225 X0.1198 Y0.3123
N18230 X0.0968 Y0.3221
N18235 X0.0728 Y0.3301
N18240 X0.0481 Y0.3363
N18245 X0.0228 Y0.3404
N18250 X-0.003 Y0.3426
N18255 X-0.0291
N18260 X-0.0552 Y0.3406
N18265 X-0.0813 Y0.3364
N18270 X-0.1071 Y0.3301
N18275 X-0.1325 Y0.3217
N18280 X-0.1411 Y0.3181
N18285 X-0.1478 Y0.3147
N18290 X-0.154 Y0.3106
N18295 X-0.1597 Y0.3056
N18300 X-0.2699 Y0.1954
N18305 X-0.2881 Y0.1753
N18310 X-0.2997 Y0.1601
N18315 X-0.311 Y0.1428
N18320 X-0.3213 Y0.1235
N18325 X-0.3305 Y0.1027
N18330 X-0.3381 Y0.0808
N18335 X-0.3441 Y0.0575
N18340 X-0.3484 Y0.033
N18345 X-0.3508 Y0.0075
N18350 X-0.3511 Y-0.0187
N18355 X-0.3493 Y-0.0452
N18360 X-0.3453 Y-0.0718
N18365 X-0.3391 Y-0.0984
N18370 X-0.3308 Y-0.1246
N18375 X-0.3283 Y-0.1306
N18380 X-0.3249 Y-0.1375
N18385 X-0.3206 Y-0.1439
N18390 X-0.3155 Y-0.1497
N18395 G3 X-0.2874 Y-0.1538 Z-0.4338 I0.017 J0.0183 F10.
N18400 G1 X-0.2848 Y-0.1524 Z-0.4332 F12.
N18405 X-0.2824 Y-0.1506 Z-0.4326
N18410 X-0.2802 Y-0.1485 Z-0.432
N18415 G3 X-0.2738 Y-0.1351 I-0.0183 J0.0171
N18420 G1 X-0.2281 Y0.1734
N18425 G3 X-0.2346 Y0.1942 I-0.0247 J0.0037
N18430 G1 X-0.2367 Y0.1962 Z-0.4326
N18435 X-0.2391 Y0.198 Z-0.4332
N18440 X-0.2417 Y0.1995 Z-0.4338
N18445 G3 X-0.2699 Y0.1954 Z-0.44 I-0.0111 J-0.0224 F10.
N18450 G1 X-0.3724 Y0.0929 F12.
N18455 X-0.3814 Y0.0829
N18460 X-0.3885 Y0.0737
N18465 X-0.3953 Y0.0632
N18470 X-0.402 Y0.0508
N18475 X-0.4081 Y0.0368
N18480 X-0.4138 Y0.0205
N18485 X-0.4183 Y0.0031
N18490 X-0.4205 Y-0.0097
N18495 X-0.4214 Y-0.0208
