%
(R8S)
(T1 D=0.75 CR=0.375 - ZMIN=-0.375 - BALL END MILL)
N10 G90 G94 G17 G91.1
N15 G20
(WHEN USING FUSION FOR PERSONAL USE, THE FEEDRATE OF RAPID)
(MOVES IS REDUCED TO MATCH THE FEEDRATE OF CUTTING MOVES,)
(WHICH CAN INCREASE MACHINING TIME. UNRESTRICTED RAPID MOVES)
(ARE AVAILABLE WITH A FUSION SUBSCRIPTION.)
N20 G53 G0 Z0.
(PARALLEL1)
N25 T1 M6
N30 S5000 M3
N35 G17 G90 G94
N40 G54
N45 G64 P0.0004 Q0.0004
N50 M8
N55 G0 X7.7277 Y-4.
N60 G43 Z0.64 H1
N65 G1 Z0.08 F40.
N70 Z0.0688 F18.
N75 G18 G3 X7.6661 Z-0.005 I-0.075 K0. F40.
N80 G1 X7.6414 Z-0.0095
N85 X7.619 Z-0.0149
N90 X7.5929 Z-0.0228
N95 X7.5692 Z-0.0316
N100 X7.5461 Z-0.0416
N105 X7.5236 Z-0.0532
N110 X7.5018 Z-0.0659
N115 X7.4806 Z-0.0801
N120 X7.4605 Z-0.0953
N125 X7.4411 Z-0.1119
N130 X7.4228 Z-0.1295
N135 X7.4068 Z-0.1468
N140 X7.3893 Z-0.1679
N145 X7.3841 Z-0.1744
N150 X7.3736 Z-0.1865
N155 X7.3613 Z-0.1988
N160 X7.3476 Z-0.2108
N165 X7.3334 Z-0.2215
N170 X7.318 Z-0.2315
N175 X7.3021 Z-0.2403
N180 X7.2854 Z-0.248
N185 X7.2682 Z-0.2545
N190 X7.2507 Z-0.2596
N195 X7.2327 Z-0.2636
N200 X7.2145 Z-0.2662
N205 X7.196 Z-0.2675
N210 X7.1774 Z-0.2674
N215 X7.1685 Z-0.267
N220 X7.1519 Z-0.2651
N225 X7.1354 Z-0.2622
N230 X7.119 Z-0.2583
N235 X7.1029 Z-0.2531
N240 X7.0872 Z-0.247
N245 X7.0718 Z-0.2398
N250 X7.0571 Z-0.2316
N255 X7.0428 Z-0.2224
N260 X7.029 Z-0.2122
N265 X7.0162 Z-0.2011
N270 X7.004 Z-0.1892
N275 X6.9923 Z-0.1761
N280 X6.9818 Z-0.1631
N285 X6.9672 Z-0.1456
N290 X6.9517 Z-0.129
N295 X6.9354 Z-0.1133
N300 X6.9182 Z-0.0983
N305 X6.9 Z-0.0841
N310 X6.8814 Z-0.0712
N315 X6.8619 Z-0.0591
N320 X6.84 Z-0.0471
N325 X6.8253 Z-0.04
N330 X6.7998 Z-0.0292
N335 X6.7825 Z-0.0229
N340 X6.7604 Z-0.0161
N345 X6.738 Z-0.0104
N350 X6.7142 Z-0.0059
N355 X6.7089 Z-0.005
N360 G3 X6.6985 Z-0.0017 I0.0061 K0.037
N365 G2 X6.682 Z0.0022 I-0.0165 K-0.0337
N370 G17 G2 Y-3.92 I0. J0.04
N375 G1 X6.6939
N380 G18 G3 X6.7104 Z-0.0017 I0. K-0.0375
N385 G2 X6.7207 Z-0.005 I0.0165 K0.0337
N390 G1 X6.7302 Z-0.0066
N395 X6.7529 Z-0.0111
N400 X6.7753 Z-0.0169
N405 X6.7972 Z-0.0239
N410 X6.8231 Z-0.0338
N415 X6.8399 Z-0.0413
N420 X6.8645 Z-0.0538
N425 X6.8803 Z-0.063
N430 X6.8996 Z-0.0755
N435 X6.9182 Z-0.0889
N440 X6.9354 Z-0.1029
N445 X6.9527 Z-0.1183
N450 X6.9656 Z-0.1311
N455 X6.981 Z-0.1479
N460 X7.0056 Z-0.1775
N465 X7.0173 Z-0.19
N470 X7.0301 Z-0.2017
N475 X7.0434 Z-0.2123
N480 X7.0577 Z-0.2222
N485 X7.0723 Z-0.2307
N490 X7.0874 Z-0.2383
N495 X7.1031 Z-0.2447
N500 X7.119 Z-0.2501
N505 X7.1354 Z-0.2543
N510 X7.1519 Z-0.2573
N515 X7.1685 Z-0.2592
N520 X7.1776 Z-0.2597
N525 X7.1962 Z-0.2598
N530 X7.2147 Z-0.2584
N535 X7.2329 Z-0.2556
N540 X7.251 Z-0.2515
N545 X7.2684 Z-0.246
N550 X7.2856 Z-0.2392
N555 X7.3019 Z-0.2312
N560 X7.3178 Z-0.2219
N565 X7.3326 Z-0.2115
N570 X7.3469 Z-0.2001
N575 X7.3599 Z-0.1877
N580 X7.3722 Z-0.1743
N585 X7.382 Z-0.1622
N590 X7.3993 Z-0.1418
N595 X7.4125 Z-0.128
N600 X7.4293 Z-0.1118
N605 X7.4503 Z-0.094
N610 X7.4689 Z-0.08
N615 X7.4864 Z-0.0682
N620 X7.5045 Z-0.0572
N625 X7.5286 Z-0.0444
N630 X7.5497 Z-0.0347
N635 X7.5653 Z-0.0285
N640 X7.589 Z-0.0201
N645 X7.6072 Z-0.0149
N650 X7.6296 Z-0.0095
N655 X7.6543 Z-0.005
N660 G2 X7.6641 Z-0.0018 I-0.0067 K0.0369
N665 G1 X7.6642 Z-0.0017
N670 G3 X7.6807 Z0.0021 I0.0165 K-0.0337
N675 G17 G3 Y-3.84 I0. J0.04
N680 G1 X7.6689
N685 G18 G2 X7.6524 Z-0.0017 I0. K-0.0375
N690 G3 X7.6424 Z-0.005 I-0.0165 K0.0337
N695 G1 X7.6207 Z-0.0089
N700 X7.5983 Z-0.0141
N705 X7.5801 Z-0.0192
N710 X7.5567 Z-0.0272
N715 X7.5406 Z-0.0335
N720 X7.5186 Z-0.0435
N725 X7.4952 Z-0.0557
N730 X7.4744 Z-0.0682
N735 X7.4526 Z-0.0832
N740 X7.4358 Z-0.0961
N745 X7.4197 Z-0.1098
N750 X7.4072 Z-0.1214
N755 X7.3894 Z-0.1397
N760 X7.3727 Z-0.1591
N765 X7.3568 Z-0.178
N770 X7.3445 Z-0.1903
N775 X7.3308 Z-0.2022
N780 X7.3166 Z-0.2126
N785 X7.3012 Z-0.2222
N790 X7.2848 Z-0.2306
N795 X7.2681 Z-0.2377
N800 X7.2506 Z-0.2435
N805 X7.2328 Z-0.2477
N810 X7.2146 Z-0.2507
N815 X7.1961 Z-0.2521
N820 X7.1775 Z-0.252
N825 X7.1685 Z-0.2515
N830 X7.1519 Z-0.2495
N835 X7.1354 Z-0.2463
N840 X7.1192 Z-0.2419
N845 X7.1033 Z-0.2363
N850 X7.0879 Z-0.2295
N855 X7.0728 Z-0.2217
N860 X7.0586 Z-0.2127
N865 X7.0448 Z-0.2026
N870 X7.0314 Z-0.1912
N875 X7.0192 Z-0.1791
N880 X7.0023 Z-0.159
N885 X6.991 Z-0.1457
N890 X6.9755 Z-0.1291
N895 X6.9593 Z-0.1134
N900 X6.942 Z-0.0984
N905 X6.9239 Z-0.0842
N910 X6.9042 Z-0.0706
N915 X6.8857 Z-0.0591
N920 X6.8656 Z-0.0481
N925 X6.8448 Z-0.038
N930 X6.8236 Z-0.0292
N935 X6.8019 Z-0.0214
N940 X6.7792 Z-0.0147
N945 X6.7573 Z-0.0095
N950 X6.7326 Z-0.005
N955 G3 X6.7227 Z-0.0018 I0.0067 K0.0369
N960 G1 Z-0.0017
N965 G2 X6.7062 Z0.0021 I-0.0165 K-0.0337
N970 G17 G2 Y-3.76 I0. J0.04
N975 G1 X6.718
N980 G18 G3 X6.7345 Z-0.0017 I0. K-0.0375
N985 G2 X6.7445 Z-0.005 I0.0165 K0.0337
N990 G1 X6.7665 Z-0.0089
N995 X6.789 Z-0.0142
N1000 X6.8112 Z-0.0206
N1005 X6.8329 Z-0.0283
N1010 X6.8542 Z-0.0369
N1015 X6.875 Z-0.0469
N1020 X6.8953 Z-0.0577
N1025 X6.9147 Z-0.0698
N1030 X6.9336 Z-0.0826
N1035 X6.9482 Z-0.0938
N1040 X6.9623 Z-0.1055
N1045 X6.9758 Z-0.1176
N1050 X6.9887 Z-0.1305
N1055 X7.0042 Z-0.1472
N1060 X7.0177 Z-0.1634
N1065 X7.0293 Z-0.1767
N1070 X7.0416 Z-0.1886
N1075 X7.0549 Z-0.1996
N1080 X7.0687 Z-0.2094
N1085 X7.0834 Z-0.2181
N1090 X7.0988 Z-0.2258
N1095 X7.1145 Z-0.232
N1100 X7.1307 Z-0.2371
N1105 X7.147 Z-0.2408
N1110 X7.1637 Z-0.2433
N1115 X7.1731 Z-0.2441
N1120 X7.1826 Z-0.2445
N1125 X7.2012 Z-0.2441
N1130 X7.2196 Z-0.2422
N1135 X7.2376 Z-0.2388
N1140 X7.2554 Z-0.2338
N1145 X7.2725 Z-0.2273
N1150 X7.2889 Z-0.2196
N1155 X7.3047 Z-0.2104
N1160 X7.3196 Z-0.2
N1165 X7.3332 Z-0.1887
N1170 X7.3462 Z-0.1761
N1175 X7.3567 Z-0.1642
N1180 X7.3676 Z-0.151
N1185 X7.3789 Z-0.1382
N1190 X7.3968 Z-0.1199
N1195 X7.4093 Z-0.1084
N1200 X7.4231 Z-0.0968
N1205 X7.4423 Z-0.0819
N1210 X7.4562 Z-0.0724
N1215 X7.4778 Z-0.0589
N1220 X7.4925 Z-0.0507
N1225 X7.5151 Z-0.0395
N1230 X7.5305 Z-0.0328
N1235 X7.5472 Z-0.0264
N1240 X7.5701 Z-0.0186
N1245 X7.5873 Z-0.0138
N1250 X7.6108 Z-0.0085
N1255 X7.6305 Z-0.005
N1260 G2 X7.6406 Z-0.0017 I-0.0065 K0.0369
N1265 G3 X7.6571 Z0.0021 I0.0165 K-0.0337
N1270 G17 G3 Y-3.68 I0. J0.04
N1275 G1 X7.6452
N1280 G18 G2 X7.6287 Z-0.0017 I0. K-0.0375
N1285 G3 X7.6187 Z-0.005 I-0.0165 K0.0337
N1290 G1 X7.5989 Z-0.0085
N1295 X7.5754 Z-0.0138
N1300 X7.5582 Z-0.0186
N1305 X7.5348 Z-0.0265
N1310 X7.5187 Z-0.0328
N1315 X7.5032 Z-0.0395
N1320 X7.4806 Z-0.0507
N1325 X7.4659 Z-0.0589
N1330 X7.4435 Z-0.0729
N1335 X7.4237 Z-0.087
N1340 X7.4022 Z-0.1043
N1345 X7.3849 Z-0.1199
N1350 X7.3671 Z-0.1383
N1355 X7.3556 Z-0.151
N1360 X7.3448 Z-0.1641
N1365 X7.334 Z-0.1757
N1370 X7.321 Z-0.1878
N1375 X7.3067 Z-0.1989
N1380 X7.2914 Z-0.2087
N1385 X7.2755 Z-0.2171
N1390 X7.2588 Z-0.2242
N1395 X7.2413 Z-0.2298
N1400 X7.2233 Z-0.2338
N1405 X7.2049 Z-0.2361
N1410 X7.1864 Z-0.2368
N1415 X7.1769 Z-0.2366
N1420 X7.1674 Z-0.2359
N1425 X7.1508 Z-0.2336
N1430 X7.1345 Z-0.23
N1435 X7.1183 Z-0.2249
N1440 X7.1026 Z-0.2186
N1445 X7.0875 Z-0.2109
N1450 X7.0728 Z-0.2019
N1455 X7.059 Z-0.1919
N1460 X7.0457 Z-0.1804
N1465 X7.0335 Z-0.1677
N1470 X7.0117 Z-0.1423
N1475 X6.9927 Z-0.1225
N1480 X6.9795 Z-0.1101
N1485 X6.9621 Z-0.0954
N1490 X6.944 Z-0.0815
N1495 X6.925 Z-0.0687
N1500 X6.9053 Z-0.0567
N1505 X6.8845 Z-0.0457
N1510 X6.8643 Z-0.0361
N1515 X6.8429 Z-0.0276
N1520 X6.8211 Z-0.02
N1525 X6.7989 Z-0.0137
N1530 X6.7764 Z-0.0085
N1535 X6.7564 Z-0.005
N1540 G3 X6.7463 Z-0.0017 I0.0065 K0.0369
N1545 G2 X6.7298 Z0.0021 I-0.0165 K-0.0337
N1550 G17 G2 Y-3.6001 I0. J0.04
N1555 G1 X6.7418
N1560 G18 G3 X6.7583 Z-0.0017 I0. K-0.0375
N1565 G1 Z-0.0018
N1570 G2 X6.7682 Z-0.005 I0.0165 K0.0337
N1575 G1 X6.7922 Z-0.0093
N1580 X6.8146 Z-0.0147
N1585 X6.8368 Z-0.0212
N1590 X6.8628 Z-0.0306
N1595 X6.8798 Z-0.0377
N1600 X6.9005 Z-0.0477
N1605 X6.9206 Z-0.0587
N1610 X6.9402 Z-0.0708
N1615 X6.959 Z-0.0838
N1620 X6.977 Z-0.0978
N1625 X6.9942 Z-0.1126
N1630 X7.0073 Z-0.1252
N1635 X7.0199 Z-0.1383
N1640 X7.0485 Z-0.1706
N1645 X7.0612 Z-0.1825
N1650 X7.075 Z-0.1932
N1655 X7.0892 Z-0.2024
N1660 X7.1043 Z-0.2104
N1665 X7.12 Z-0.2171
N1670 X7.136 Z-0.2223
N1675 X7.1525 Z-0.226
N1680 X7.1691 Z-0.2283
N1685 X7.1786 Z-0.2289
N1690 X7.1881 Z-0.2291
N1695 X7.2066 Z-0.2282
N1700 X7.2248 Z-0.2256
N1705 X7.2426 Z-0.2212
N1710 X7.2599 Z-0.2152
N1715 X7.2762 Z-0.2077
N1720 X7.2921 Z-0.1986
N1725 X7.3069 Z-0.1881
N1730 X7.3205 Z-0.1765
N1735 X7.3329 Z-0.1638
N1740 X7.341 Z-0.1542
N1745 X7.3552 Z-0.1383
N1750 X7.373 Z-0.1199
N1755 X7.3903 Z-0.1042
N1760 X7.4118 Z-0.087
N1765 X7.4307 Z-0.0735
N1770 X7.454 Z-0.0589
N1775 X7.4687 Z-0.0507
N1780 X7.4913 Z-0.0395
N1785 X7.5068 Z-0.0328
N1790 X7.5264 Z-0.0253
N1795 X7.5464 Z-0.0186
N1800 X7.5636 Z-0.0138
N1805 X7.587 Z-0.0084
N1810 X7.6068 Z-0.005
N1815 G2 X7.6168 Z-0.0017 I-0.0064 K0.0369
N1820 G3 X7.6334 Z0.0021 I0.0166 K-0.0336
N1825 G17 G3 Y-3.5201 I0. J0.04
N1830 G1 X7.6214
N1835 G18 G2 X7.6049 Z-0.0017 I0. K-0.0375
N1840 G1 X7.6048
N1845 G3 X7.5948 Z-0.005 I-0.0165 K0.0337
N1850 G1 X7.5732 Z-0.0088
N1855 X7.5507 Z-0.0141
N1860 X7.5326 Z-0.0192
N1865 X7.5087 Z-0.0274
N1870 X7.493 Z-0.0335
N1875 X7.4704 Z-0.0438
N1880 X7.455 Z-0.0516
N1885 X7.4403 Z-0.0599
N1890 X7.4171 Z-0.0746
N1895 X7.3982 Z-0.0881
N1900 X7.3785 Z-0.1041
N1905 X7.3612 Z-0.1198
N1910 X7.3419 Z-0.1395
N1915 X7.3197 Z-0.1646
N1920 X7.307 Z-0.1768
N1925 X7.2929 Z-0.1878
N1930 X7.2776 Z-0.1977
N1935 X7.2612 Z-0.2059
N1940 X7.2444 Z-0.2124
N1945 X7.2268 Z-0.2172
N1950 X7.2086 Z-0.2202
N1955 X7.1901 Z-0.2214
N1960 X7.1807 Z-0.2213
N1965 X7.1712 Z-0.2208
N1970 X7.1546 Z-0.2185
N1975 X7.1381 Z-0.2147
N1980 X7.122 Z-0.2093
N1985 X7.1065 Z-0.2025
N1990 X7.0915 Z-0.194
N1995 X7.0772 Z-0.1843
N2000 X7.064 Z-0.1732
N2005 X7.0517 Z-0.1608
N2010 X7.0348 Z-0.1414
N2015 X7.0164 Z-0.1224
N2020 X7.0032 Z-0.1099
N2025 X6.9848 Z-0.0944
N2030 X6.9674 Z-0.0812
N2035 X6.9485 Z-0.0685
N2040 X6.929 Z-0.0566
N2045 X6.9087 Z-0.0458
N2050 X6.8878 Z-0.036
N2055 X6.8665 Z-0.0274
N2060 X6.8447 Z-0.0199
N2065 X6.8224 Z-0.0136
N2070 X6.7999 Z-0.0084
N2075 X6.7801 Z-0.005
N2080 G3 X6.77 Z-0.0017 I0.0064 K0.0369
N2085 G2 X6.7535 Z0.0021 I-0.0165 K-0.0337
N2090 G17 G2 Y-3.4401 I0. J0.04
N2095 G1 X6.7657
N2100 G18 G3 X6.7822 Z-0.0017 I0. K-0.0375
N2105 G1 X6.7823
N2110 G2 X6.7923 Z-0.005 I0.0165 K0.0337
N2115 G1 X6.8116 Z-0.0084
N2120 X6.8341 Z-0.0135
N2125 X6.8564 Z-0.0198
N2130 X6.8782 Z-0.0273
N2135 X6.8995 Z-0.0359
N2140 X6.9204 Z-0.0456
N2145 X6.9407 Z-0.0564
N2150 X6.9564 Z-0.0658
N2155 X6.9792 Z-0.081
N2160 X6.9939 Z-0.092
N2165 X7.008 Z-0.1036
N2170 X7.0233 Z-0.1174
N2175 X7.0411 Z-0.1352
N2180 X7.0635 Z-0.1602
N2185 X7.0762 Z-0.1723
N2190 X7.09 Z-0.183
N2195 X7.1047 Z-0.1923
N2200 X7.1198 Z-0.1998
N2205 X7.1356 Z-0.2057
N2210 X7.1519 Z-0.21
N2215 X7.1685 Z-0.2127
N2220 X7.1802 Z-0.2136
N2225 X7.1875 Z-0.2137
N2230 X7.1988 Z-0.2134
N2235 X7.2171 Z-0.2112
N2240 X7.235 Z-0.207
N2245 X7.2523 Z-0.2009
N2250 X7.2687 Z-0.1931
N2255 X7.284 Z-0.1837
N2260 X7.2981 Z-0.1729
N2265 X7.3108 Z-0.1609
N2270 X7.3218 Z-0.1484
N2275 X7.3355 Z-0.1335
N2280 X7.3529 Z-0.1162
N2285 X7.3704 Z-0.1007
N2290 X7.3904 Z-0.085
N2295 X7.4112 Z-0.0705
N2300 X7.4328 Z-0.0572
N2305 X7.4514 Z-0.0472
N2310 X7.4723 Z-0.0373
N2315 X7.4937 Z-0.0285
N2320 X7.5174 Z-0.0202
N2325 X7.5336 Z-0.0154
N2330 X7.558 Z-0.0095
N2335 X7.5827 Z-0.005
N2340 G2 X7.5925 Z-0.0018 I-0.0067 K0.0369
N2345 G3 X7.6091 Z0.0021 I0.0165 K-0.0337
N2350 G17 G3 Y-3.3601 I0. J0.04
N2355 G1 X7.5969
N2360 G18 G2 X7.5803 Z-0.0018 I0. K-0.0375
N2365 G3 X7.5705 Z-0.005 I-0.0165 K0.0337
N2370 G1 X7.5458 Z-0.0095
N2375 X7.5214 Z-0.0155
N2380 X7.5052 Z-0.0202
N2385 X7.4815 Z-0.0285
N2390 X7.4601 Z-0.0374
N2395 X7.4392 Z-0.0473
N2400 X7.4206 Z-0.0573
N2405 X7.399 Z-0.0706
N2410 X7.3782 Z-0.085
N2415 X7.3582 Z-0.1008
N2420 X7.3402 Z-0.1169
N2425 X7.3226 Z-0.1343
N2430 X7.3097 Z-0.1485
N2435 X7.3042 Z-0.1547
N2440 X7.2987 Z-0.1604
N2445 X7.2853 Z-0.1722
N2450 X7.2705 Z-0.1825
N2455 X7.2547 Z-0.1911
N2460 X7.2378 Z-0.1978
N2465 X7.2202 Z-0.2026
N2470 X7.2021 Z-0.2054
N2475 X7.1836 Z-0.206
N2480 X7.1741 Z-0.2055
N2485 X7.1646 Z-0.2044
N2490 X7.1481 Z-0.2011
N2495 X7.132 Z-0.1961
N2500 X7.1166 Z-0.1893
N2505 X7.1018 Z-0.1809
N2510 X7.0876 Z-0.1705
N2515 X7.0743 Z-0.1585
N2520 X7.0686 Z-0.1523
N2525 X7.0532 Z-0.1352
N2530 X7.0373 Z-0.1192
N2535 X7.0255 Z-0.1083
N2540 X7.008 Z-0.0937
N2545 X6.9897 Z-0.0799
N2550 X6.9668 Z-0.0647
N2555 X6.9511 Z-0.0554
N2560 X6.9307 Z-0.0447
N2565 X6.9097 Z-0.0351
N2570 X6.8881 Z-0.0265
N2575 X6.8665 Z-0.0192
N2580 X6.8442 Z-0.013
N2585 X6.8217 Z-0.008
N2590 X6.8044 Z-0.005
N2595 G3 X6.7943 Z-0.0017 I0.0064 K0.037
N2600 G1 X6.7942
N2605 G2 X6.778 Z0.002 I-0.0162 K-0.0338
N2610 G17 G2 Y-3.2801 I0. J0.04
N2615 G1 X6.7899
N2620 G18 G3 X6.8062 Z-0.0017 I0. K-0.0375
N2625 G2 X6.8166 Z-0.005 I0.0165 K0.0337
N2630 G1 X6.8256 Z-0.0065
N2635 X6.8483 Z-0.0111
N2640 X6.8751 Z-0.0181
N2645 X6.8927 Z-0.0238
N2650 X6.9099 Z-0.0302
N2655 X6.9248 Z-0.0364
N2660 X6.9477 Z-0.0472
N2665 X6.9679 Z-0.0581
N2670 X6.9826 Z-0.0671
N2675 X7.0063 Z-0.0832
N2680 X7.0244 Z-0.0971
N2685 X7.0417 Z-0.112
N2690 X7.0613 Z-0.131
N2695 X7.0762 Z-0.1471
N2700 X7.0917 Z-0.1626
N2705 X7.1055 Z-0.1732
N2710 X7.1202 Z-0.1819
N2715 X7.1357 Z-0.1889
N2720 X7.1518 Z-0.194
N2725 X7.1684 Z-0.1971
N2730 X7.1779 Z-0.198
N2735 X7.1874 Z-0.1983
N2740 X7.2058 Z-0.1972
N2745 X7.2237 Z-0.1938
N2750 X7.241 Z-0.1882
N2755 X7.2574 Z-0.1805
N2760 X7.2727 Z-0.1709
N2765 X7.2861 Z-0.1601
N2770 X7.2976 Z-0.1485
N2775 X7.3105 Z-0.1343
N2780 X7.3283 Z-0.1167
N2785 X7.3461 Z-0.1008
N2790 X7.3593 Z-0.0902
N2795 X7.373 Z-0.0801
N2800 X7.3904 Z-0.0683
N2805 X7.4085 Z-0.0573
N2810 X7.427 Z-0.0473
N2815 X7.4479 Z-0.0374
N2820 X7.4693 Z-0.0285
N2825 X7.4931 Z-0.0202
N2830 X7.5092 Z-0.0155
N2835 X7.5337 Z-0.0095
N2840 X7.5584 Z-0.005
N2845 G2 X7.5682 Z-0.0018 I-0.0068 K0.0369
N2850 G1 X7.5683 Z-0.0017
N2855 G3 X7.5845 Z0.0019 I0.0162 K-0.0338
N2860 G17 G3 Y-3.2001 I0. J0.04
N2865 G1 X7.5726
N2870 G18 G2 X7.5564 Z-0.0017 I0. K-0.0375
N2875 G3 X7.5463 Z-0.005 I-0.0165 K0.0337
N2880 G1 X7.5297 Z-0.0079
N2885 X7.5062 Z-0.0132
N2890 X7.481 Z-0.0202
N2895 X7.4611 Z-0.027
N2900 X7.4397 Z-0.0358
N2905 X7.4168 Z-0.0464
N2910 X7.3963 Z-0.0573
N2915 X7.3783 Z-0.0684
N2920 X7.354 Z-0.0851
N2925 X7.3373 Z-0.0981
N2930 X7.3212 Z-0.1121
N2935 X7.3029 Z-0.1297
N2940 X7.2854 Z-0.1482
N2945 X7.274 Z-0.159
N2950 X7.2599 Z-0.1694
N2955 X7.244 Z-0.1781
N2960 X7.2272 Z-0.1847
N2965 X7.2093 Z-0.1888
N2970 X7.1909 Z-0.1906
N2975 X7.1815 Z-0.1905
N2980 X7.172 Z-0.1897
N2985 X7.1554 Z-0.1867
N2990 X7.1391 Z-0.1816
N2995 X7.1236 Z-0.1744
N3000 X7.1089 Z-0.1652
N3005 X7.0951 Z-0.1537
N3010 X7.0716 Z-0.1292
N3015 X7.0518 Z-0.1103
N3020 X7.0345 Z-0.0955
N3025 X7.0164 Z-0.0818
N3030 X6.9936 Z-0.0664
N3035 X6.9779 Z-0.0569
N3040 X6.9572 Z-0.0459
N3045 X6.9368 Z-0.0364
N3050 X6.9199 Z-0.0293
N3055 X6.9026 Z-0.023
N3060 X6.8849 Z-0.0175
N3065 X6.8581 Z-0.0106
N3070 X6.8351 Z-0.006
N3075 X6.8287 Z-0.005
N3080 G3 X6.8181 Z-0.0016 I0.0059 K0.037
N3085 G2 X6.8016 Z0.0022 I-0.0165 K-0.0337
N3090 G17 G2 Y-3.1202 I0. J0.04
N3095 G1 X6.813
N3100 G18 G3 X6.8295 Z-0.0016 I0. K-0.0375
N3105 G2 X6.8401 Z-0.005 I0.0165 K0.0337
N3110 G1 X6.8469 Z-0.0061
N3115 X6.8696 Z-0.0105
N3120 X6.8875 Z-0.0149
N3125 X6.9096 Z-0.0216
N3130 X6.9313 Z-0.0294
N3135 X6.9525 Z-0.0383
N3140 X6.9732 Z-0.0483
N3145 X6.9933 Z-0.0595
N3150 X7.0127 Z-0.0716
N3155 X7.0314 Z-0.0848
N3160 X7.0494 Z-0.0988
N3165 X7.0631 Z-0.1107
N3170 X7.0828 Z-0.1298
N3175 X7.0973 Z-0.1453
N3180 X7.1067 Z-0.1544
N3185 X7.1209 Z-0.165
N3190 X7.1361 Z-0.1733
N3195 X7.152 Z-0.1793
N3200 X7.1685 Z-0.183
N3205 X7.1755 Z-0.1839
N3210 X7.1852 Z-0.1844
N3215 X7.1941 Z-0.1843
N3220 X7.2123 Z-0.182
N3225 X7.2297 Z-0.177
N3230 X7.2461 Z-0.1697
N3235 X7.2611 Z-0.1602
N3240 X7.2743 Z-0.1489
N3245 X7.2916 Z-0.1304
N3250 X7.3053 Z-0.117
N3255 X7.3226 Z-0.1014
N3260 X7.3358 Z-0.0907
N3265 X7.3563 Z-0.0756
N3270 X7.3704 Z-0.0664
N3275 X7.3922 Z-0.0535
N3280 X7.4071 Z-0.0456
N3285 X7.43 Z-0.035
N3290 X7.4456 Z-0.0286
N3295 X7.4624 Z-0.0226
N3300 X7.4855 Z-0.0155
N3305 X7.5099 Z-0.0095
N3310 X7.5349 Z-0.005
N3315 G2 X7.5448 Z-0.0018 I-0.0067 K0.0369
N3320 G1 Z-0.0017
N3325 G3 X7.5611 Z0.002 I0.0163 K-0.0338
N3330 G17 G3 Y-3.0402 I0. J0.04
N3335 G1 X7.5531
N3340 G18 G2 X7.5368 Z-0.0017 I0. K-0.0375
N3345 G3 X7.5267 Z-0.005 I-0.0165 K0.0337
N3350 G1 X7.5074 Z-0.0084
N3355 X7.4829 Z-0.0141
N3360 X7.4668 Z-0.0186
N3365 X7.4429 Z-0.0267
N3370 X7.4272 Z-0.0329
N3375 X7.4043 Z-0.0433
N3380 X7.3893 Z-0.051
N3385 X7.3673 Z-0.0637
N3390 X7.3531 Z-0.0728
N3395 X7.3342 Z-0.0864
N3400 X7.3193 Z-0.0982
N3405 X7.3064 Z-0.1093
N3410 X7.288 Z-0.1269
N3415 X7.2706 Z-0.1455
N3420 X7.265 Z-0.1509
N3425 X7.2511 Z-0.1616
N3430 X7.2355 Z-0.1703
N3435 X7.2186 Z-0.1765
N3440 X7.2008 Z-0.18
N3445 X7.1875 Z-0.1807
N3450 X7.1823 Z-0.1806
N3455 X7.1685 Z-0.1792
N3460 X7.1521 Z-0.1752
N3465 X7.1362 Z-0.1687
N3470 X7.1213 Z-0.1599
N3475 X7.1077 Z-0.1487
N3480 X7.0843 Z-0.1242
N3485 X7.071 Z-0.1115
N3490 X7.0574 Z-0.0995
N3495 X7.0375 Z-0.0839
N3500 X7.0207 Z-0.072
N3505 X7.0013 Z-0.0598
N3510 X6.9813 Z-0.0486
N3515 X6.9606 Z-0.0386
N3520 X6.9394 Z-0.0295
N3525 X6.9178 Z-0.0217
N3530 X6.8957 Z-0.015
N3535 X6.8777 Z-0.0106
N3540 X6.855 Z-0.0061
N3545 X6.8482 Z-0.005
N3550 G3 X6.8376 Z-0.0016 I0.0059 K0.037
N3555 G2 X6.8205 Z0.0025 I-0.0171 K-0.0334
N3560 G17 G2 Y-2.9602 I0. J0.04
N3565 G1 X6.8248
N3570 G18 G3 X6.842 Z-0.0016 I0. K-0.0375
N3575 G1 X6.8422 Z-0.0018
N3580 G2 X6.8521 Z-0.005 I0.0165 K0.0337
N3585 G1 X6.8751 Z-0.0091
N3590 X6.8887 Z-0.0122
N3595 X6.911 Z-0.0183
N3600 X6.9328 Z-0.0257
N3605 X6.9542 Z-0.0341
N3610 X6.9751 Z-0.0437
N3615 X6.9955 Z-0.0544
N3620 X7.019 Z-0.0686
N3625 X7.0341 Z-0.0789
N3630 X7.056 Z-0.0956
N3635 X7.0699 Z-0.1074
N3640 X7.0888 Z-0.1254
N3645 X7.1074 Z-0.1449
N3650 X7.1132 Z-0.1507
N3655 X7.1213 Z-0.1574
N3660 X7.1308 Z-0.1638
N3665 X7.1406 Z-0.1691
N3670 X7.1511 Z-0.1734
N3675 X7.1614 Z-0.1764
N3680 X7.1719 Z-0.1785
N3685 X7.1831 Z-0.1795
N3690 X7.1943 Z-0.1794
N3695 X7.2048 Z-0.1782
N3700 X7.2157 Z-0.1759
N3705 X7.2263 Z-0.1725
N3710 X7.2365 Z-0.168
N3715 X7.2462 Z-0.1626
N3720 X7.255 Z-0.1564
N3725 X7.2629 Z-0.1497
N3730 X7.2849 Z-0.1266
N3735 X7.3034 Z-0.1089
N3740 X7.3162 Z-0.0978
N3745 X7.3312 Z-0.0861
N3750 X7.3501 Z-0.0725
N3755 X7.3646 Z-0.0632
N3760 X7.3863 Z-0.0506
N3765 X7.4013 Z-0.043
N3770 X7.4242 Z-0.0326
N3775 X7.4399 Z-0.0265
N3780 X7.4638 Z-0.0184
N3785 X7.48 Z-0.0138
N3790 X7.5044 Z-0.0082
N3795 X7.5229 Z-0.005
N3800 G2 X7.533 Z-0.0017 I-0.0064 K0.0369
N3805 G3 X7.5496 Z0.0022 I0.0166 K-0.0336
N3810 G1 X7.5497
N3815 G17 G3 Y-2.8802 I0. J0.04
N3820 G18 G2 X7.5331 Z-0.0017 I0. K-0.0375
N3825 G3 X7.5231 Z-0.005 I-0.0165 K0.0337
N3830 G1 X7.5034 Z-0.0085
N3835 X7.4785 Z-0.0144
N3840 X7.4629 Z-0.0188
N3845 X7.439 Z-0.0269
N3850 X7.4233 Z-0.0331
N3855 X7.4004 Z-0.0436
N3860 X7.3854 Z-0.0512
N3865 X7.3639 Z-0.0638
N3870 X7.3458 Z-0.0756
N3875 X7.3265 Z-0.0898
N3880 X7.3089 Z-0.1042
N3885 X7.2918 Z-0.12
N3890 X7.274 Z-0.1383
N3895 X7.2612 Z-0.152
N3900 X7.2478 Z-0.1628
N3905 X7.2324 Z-0.1714
N3910 X7.2155 Z-0.1776
N3915 X7.1975 Z-0.1808
N3920 X7.1876 Z-0.1813
N3925 X7.175 Z-0.1806
N3930 X7.1648 Z-0.1788
N3935 X7.1555 Z-0.1764
N3940 X7.146 Z-0.1729
N3945 X7.1367 Z-0.1685
N3950 X7.1284 Z-0.1635
N3955 X7.1201 Z-0.1574
N3960 X7.1138 Z-0.1519
N3965 X7.109 Z-0.1472
N3970 X7.0926 Z-0.1295
N3975 X7.0737 Z-0.111
N3980 X7.06 Z-0.099
N3985 X7.042 Z-0.0849
N3990 X7.0234 Z-0.0716
N3995 X7.004 Z-0.0594
N4000 X6.984 Z-0.0483
N4005 X6.9612 Z-0.0373
N4010 X6.9421 Z-0.0292
N4015 X6.9248 Z-0.0229
N4020 X6.9072 Z-0.0173
N4025 X6.8803 Z-0.0104
N4030 X6.8576 Z-0.0059
N4035 X6.8519 Z-0.005
N4040 G3 X6.8414 Z-0.0016 I0.006 K0.037
N4045 G1 X6.8413
N4050 G2 X6.8248 Z0.0022 I-0.0165 K-0.0337
N4055 G1 X6.8215
N4060 G17 G2 Y-2.8002 I0. J0.04
N4065 G18 G3 X6.838 Z-0.0016 I0. K-0.0375
N4070 G2 X6.8488 Z-0.005 I0.0165 K0.0337
N4075 G1 X6.851 Z-0.0053
N4080 X6.8737 Z-0.0096
N4085 X6.8962 Z-0.0153
N4090 X6.9183 Z-0.0218
N4095 X6.9356 Z-0.028
N4100 X6.9526 Z-0.035
N4105 X6.9776 Z-0.0467
N4110 X6.9938 Z-0.0554
N4115 X7.0095 Z-0.0648
N4120 X7.0286 Z-0.0776
N4125 X7.0471 Z-0.0912
N4130 X7.0611 Z-0.1027
N4135 X7.0746 Z-0.1149
N4140 X7.0934 Z-0.1336
N4145 X7.1104 Z-0.1523
N4150 X7.1236 Z-0.1639
N4155 X7.1383 Z-0.173
N4160 X7.1542 Z-0.1797
N4165 X7.1707 Z-0.1837
N4170 X7.1812 Z-0.1849
N4175 X7.1874 Z-0.1851
N4180 X7.2073 Z-0.1832
N4185 X7.2246 Z-0.1784
N4190 X7.2405 Z-0.1709
N4195 X7.2552 Z-0.161
N4200 X7.2664 Z-0.1503
N4205 X7.2837 Z-0.1314
N4210 X7.2973 Z-0.1179
N4215 X7.3145 Z-0.1022
N4220 X7.3276 Z-0.0914
N4225 X7.3412 Z-0.0812
N4230 X7.3621 Z-0.067
N4235 X7.3765 Z-0.0581
N4240 X7.3913 Z-0.0499
N4245 X7.4064 Z-0.0424
N4250 X7.4293 Z-0.032
N4255 X7.445 Z-0.0259
N4260 X7.4609 Z-0.0204
N4265 X7.4862 Z-0.0133
N4270 X7.5097 Z-0.0079
N4275 X7.5262 Z-0.005
N4280 G2 X7.5883 Z0.0689 I-0.0129 K0.0739
N4285 G1 Z0.155
N4290 X5.4777 Y-4.
N4295 Z0.08
N4300 Z0.0688
N4305 G3 X5.4161 Z-0.005 I-0.075 K0.
N4310 G1 X5.3914 Z-0.0095
N4315 X5.369 Z-0.0149
N4320 X5.3429 Z-0.0228
N4325 X5.3192 Z-0.0316
N4330 X5.2961 Z-0.0416
N4335 X5.2736 Z-0.0532
N4340 X5.2518 Z-0.0659
N4345 X5.2306 Z-0.0801
N4350 X5.2105 Z-0.0953
N4355 X5.1911 Z-0.1119
N4360 X5.1728 Z-0.1295
N4365 X5.1568 Z-0.1468
N4370 X5.1393 Z-0.1679
N4375 X5.1341 Z-0.1744
N4380 X5.1236 Z-0.1865
N4385 X5.1113 Z-0.1988
N4390 X5.0976 Z-0.2108
N4395 X5.0834 Z-0.2215
N4400 X5.068 Z-0.2315
N4405 X5.0521 Z-0.2403
N4410 X5.0354 Z-0.248
N4415 X5.0182 Z-0.2545
N4420 X5.0007 Z-0.2596
N4425 X4.9827 Z-0.2636
N4430 X4.9645 Z-0.2662
N4435 X4.946 Z-0.2675
N4440 X4.9274 Z-0.2674
N4445 X4.9185 Z-0.267
N4450 X4.9019 Z-0.2651
N4455 X4.8854 Z-0.2622
N4460 X4.869 Z-0.2583
N4465 X4.8529 Z-0.2531
N4470 X4.8372 Z-0.247
N4475 X4.8218 Z-0.2398
N4480 X4.8071 Z-0.2316
N4485 X4.7928 Z-0.2224
N4490 X4.779 Z-0.2122
N4495 X4.7662 Z-0.2011
N4500 X4.754 Z-0.1892
N4505 X4.7423 Z-0.1761
N4510 X4.7318 Z-0.1631
N4515 X4.7172 Z-0.1456
N4520 X4.7017 Z-0.129
N4525 X4.6854 Z-0.1133
N4530 X4.6682 Z-0.0983
N4535 X4.65 Z-0.0841
N4540 X4.6314 Z-0.0712
N4545 X4.6119 Z-0.0591
N4550 X4.59 Z-0.0471
N4555 X4.5753 Z-0.04
N4560 X4.5498 Z-0.0292
N4565 X4.5325 Z-0.0229
N4570 X4.5104 Z-0.0161
N4575 X4.488 Z-0.0104
N4580 X4.4642 Z-0.0059
N4585 X4.4589 Z-0.005
N4590 G3 X4.4485 Z-0.0017 I0.0061 K0.037
N4595 G2 X4.432 Z0.0022 I-0.0165 K-0.0337
N4600 G17 G2 Y-3.92 I0. J0.04
N4605 G1 X4.4439
N4610 G18 G3 X4.4604 Z-0.0017 I0. K-0.0375
N4615 G2 X4.4707 Z-0.005 I0.0165 K0.0337
N4620 G1 X4.4802 Z-0.0066
N4625 X4.5029 Z-0.0111
N4630 X4.5253 Z-0.0169
N4635 X4.5472 Z-0.0239
N4640 X4.5731 Z-0.0338
N4645 X4.5899 Z-0.0413
N4650 X4.6145 Z-0.0538
N4655 X4.6303 Z-0.063
N4660 X4.6496 Z-0.0755
N4665 X4.6682 Z-0.0889
N4670 X4.6854 Z-0.1029
N4675 X4.7027 Z-0.1183
N4680 X4.7156 Z-0.1311
N4685 X4.731 Z-0.1479
N4690 X4.7556 Z-0.1775
N4695 X4.7673 Z-0.19
N4700 X4.7801 Z-0.2017
N4705 X4.7934 Z-0.2123
N4710 X4.8077 Z-0.2222
N4715 X4.8223 Z-0.2307
N4720 X4.8374 Z-0.2383
N4725 X4.8531 Z-0.2447
N4730 X4.869 Z-0.2501
N4735 X4.8854 Z-0.2543
N4740 X4.9019 Z-0.2573
N4745 X4.9185 Z-0.2592
N4750 X4.9276 Z-0.2597
N4755 X4.9462 Z-0.2598
N4760 X4.9647 Z-0.2584
N4765 X4.9829 Z-0.2556
N4770 X5.001 Z-0.2515
N4775 X5.0184 Z-0.246
N4780 X5.0356 Z-0.2392
N4785 X5.0519 Z-0.2312
N4790 X5.0678 Z-0.2219
N4795 X5.0826 Z-0.2115
N4800 X5.0969 Z-0.2001
N4805 X5.1099 Z-0.1877
N4810 X5.1222 Z-0.1743
N4815 X5.132 Z-0.1622
N4820 X5.1493 Z-0.1418
N4825 X5.1625 Z-0.128
N4830 X5.1793 Z-0.1118
N4835 X5.2003 Z-0.094
N4840 X5.2189 Z-0.08
N4845 X5.2364 Z-0.0682
N4850 X5.2544 Z-0.0572
N4855 X5.2786 Z-0.0444
N4860 X5.2997 Z-0.0347
N4865 X5.3153 Z-0.0285
N4870 X5.339 Z-0.0201
N4875 X5.3572 Z-0.0149
N4880 X5.3796 Z-0.0095
N4885 X5.4043 Z-0.005
N4890 G2 X5.4141 Z-0.0018 I-0.0067 K0.0369
N4895 G1 X5.4142 Z-0.0017
N4900 G3 X5.4307 Z0.0021 I0.0165 K-0.0337
N4905 G17 G3 Y-3.84 I0. J0.04
N4910 G1 X5.4189
N4915 G18 G2 X5.4024 Z-0.0017 I0. K-0.0375
N4920 G3 X5.3924 Z-0.005 I-0.0165 K0.0337
N4925 G1 X5.3707 Z-0.0089
N4930 X5.3483 Z-0.0141
N4935 X5.3301 Z-0.0192
N4940 X5.3067 Z-0.0272
N4945 X5.2906 Z-0.0335
N4950 X5.2686 Z-0.0435
N4955 X5.2452 Z-0.0557
N4960 X5.2244 Z-0.0682
N4965 X5.2026 Z-0.0832
N4970 X5.1858 Z-0.0961
N4975 X5.1697 Z-0.1098
N4980 X5.1572 Z-0.1214
N4985 X5.1394 Z-0.1397
N4990 X5.1227 Z-0.1591
N4995 X5.1068 Z-0.178
N5000 X5.0945 Z-0.1903
N5005 X5.0808 Z-0.2022
N5010 X5.0666 Z-0.2126
N5015 X5.0512 Z-0.2222
N5020 X5.0348 Z-0.2306
N5025 X5.0181 Z-0.2377
N5030 X5.0006 Z-0.2435
N5035 X4.9828 Z-0.2477
N5040 X4.9646 Z-0.2507
N5045 X4.9461 Z-0.2521
N5050 X4.9275 Z-0.252
N5055 X4.9185 Z-0.2515
N5060 X4.9019 Z-0.2495
N5065 X4.8854 Z-0.2463
N5070 X4.8692 Z-0.2419
N5075 X4.8533 Z-0.2363
N5080 X4.8379 Z-0.2295
N5085 X4.8228 Z-0.2217
N5090 X4.8086 Z-0.2127
N5095 X4.7948 Z-0.2026
N5100 X4.7814 Z-0.1912
N5105 X4.7692 Z-0.1791
N5110 X4.7523 Z-0.159
N5115 X4.741 Z-0.1457
N5120 X4.7255 Z-0.1291
N5125 X4.7093 Z-0.1134
N5130 X4.692 Z-0.0984
N5135 X4.6739 Z-0.0842
N5140 X4.6542 Z-0.0706
N5145 X4.6357 Z-0.0591
N5150 X4.6156 Z-0.0481
N5155 X4.5948 Z-0.038
N5160 X4.5736 Z-0.0292
N5165 X4.5519 Z-0.0214
N5170 X4.5292 Z-0.0147
N5175 X4.5073 Z-0.0095
N5180 X4.4826 Z-0.005
N5185 G3 X4.4727 Z-0.0018 I0.0067 K0.0369
N5190 G1 Z-0.0017
N5195 G2 X4.4562 Z0.0021 I-0.0165 K-0.0337
N5200 G17 G2 Y-3.76 I0. J0.04
N5205 G1 X4.468
N5210 G18 G3 X4.4845 Z-0.0017 I0. K-0.0375
N5215 G2 X4.4945 Z-0.005 I0.0165 K0.0337
N5220 G1 X4.5165 Z-0.0089
N5225 X4.539 Z-0.0142
N5230 X4.5612 Z-0.0206
N5235 X4.5829 Z-0.0283
N5240 X4.6042 Z-0.0369
N5245 X4.625 Z-0.0469
N5250 X4.6453 Z-0.0577
N5255 X4.6647 Z-0.0698
N5260 X4.6836 Z-0.0826
N5265 X4.6982 Z-0.0938
N5270 X4.7123 Z-0.1055
N5275 X4.7258 Z-0.1176
N5280 X4.7387 Z-0.1305
N5285 X4.7542 Z-0.1472
N5290 X4.7677 Z-0.1634
N5295 X4.7793 Z-0.1767
N5300 X4.7916 Z-0.1886
N5305 X4.8049 Z-0.1996
N5310 X4.8187 Z-0.2094
N5315 X4.8334 Z-0.2181
N5320 X4.8488 Z-0.2258
N5325 X4.8645 Z-0.232
N5330 X4.8807 Z-0.2371
N5335 X4.897 Z-0.2408
N5340 X4.9137 Z-0.2433
N5345 X4.9231 Z-0.2441
N5350 X4.9326 Z-0.2445
N5355 X4.9512 Z-0.2441
N5360 X4.9696 Z-0.2422
N5365 X4.9876 Z-0.2388
N5370 X5.0054 Z-0.2338
N5375 X5.0225 Z-0.2273
N5380 X5.0389 Z-0.2196
N5385 X5.0547 Z-0.2104
N5390 X5.0696 Z-0.2
N5395 X5.0832 Z-0.1887
N5400 X5.0962 Z-0.1761
N5405 X5.1067 Z-0.1642
N5410 X5.1176 Z-0.151
N5415 X5.1289 Z-0.1382
N5420 X5.1468 Z-0.1199
N5425 X5.1593 Z-0.1084
N5430 X5.1731 Z-0.0968
N5435 X5.1923 Z-0.0819
N5440 X5.2062 Z-0.0724
N5445 X5.2278 Z-0.0589
N5450 X5.2425 Z-0.0507
N5455 X5.2651 Z-0.0395
N5460 X5.2805 Z-0.0328
N5465 X5.2972 Z-0.0264
N5470 X5.3201 Z-0.0186
N5475 X5.3373 Z-0.0138
N5480 X5.3608 Z-0.0085
N5485 X5.3805 Z-0.005
N5490 G2 X5.3906 Z-0.0017 I-0.0065 K0.0369
N5495 G3 X5.4071 Z0.0021 I0.0165 K-0.0337
N5500 G17 G3 Y-3.68 I0. J0.04
N5505 G1 X5.3952
N5510 G18 G2 X5.3787 Z-0.0017 I0. K-0.0375
N5515 G3 X5.3687 Z-0.005 I-0.0165 K0.0337
N5520 G1 X5.3489 Z-0.0085
N5525 X5.3254 Z-0.0138
N5530 X5.3082 Z-0.0186
N5535 X5.2848 Z-0.0265
N5540 X5.2687 Z-0.0328
N5545 X5.2532 Z-0.0395
N5550 X5.2306 Z-0.0507
N5555 X5.2159 Z-0.0589
N5560 X5.1935 Z-0.0729
N5565 X5.1737 Z-0.087
N5570 X5.1522 Z-0.1043
N5575 X5.1349 Z-0.1199
N5580 X5.1171 Z-0.1383
N5585 X5.1056 Z-0.151
N5590 X5.0948 Z-0.1641
N5595 X5.084 Z-0.1757
N5600 X5.071 Z-0.1878
N5605 X5.0567 Z-0.1989
N5610 X5.0414 Z-0.2087
N5615 X5.0255 Z-0.2171
N5620 X5.0088 Z-0.2242
N5625 X4.9913 Z-0.2298
N5630 X4.9733 Z-0.2338
N5635 X4.9549 Z-0.2361
N5640 X4.9364 Z-0.2368
N5645 X4.9269 Z-0.2366
N5650 X4.9174 Z-0.2359
N5655 X4.9008 Z-0.2336
N5660 X4.8845 Z-0.23
N5665 X4.8683 Z-0.2249
N5670 X4.8526 Z-0.2186
N5675 X4.8375 Z-0.2109
N5680 X4.8228 Z-0.2019
N5685 X4.809 Z-0.1919
N5690 X4.7957 Z-0.1804
N5695 X4.7835 Z-0.1677
N5700 X4.7617 Z-0.1423
N5705 X4.7427 Z-0.1225
N5710 X4.7295 Z-0.1101
N5715 X4.7121 Z-0.0954
N5720 X4.694 Z-0.0815
N5725 X4.675 Z-0.0687
N5730 X4.6553 Z-0.0567
N5735 X4.6345 Z-0.0457
N5740 X4.6143 Z-0.0361
N5745 X4.5929 Z-0.0276
N5750 X4.5711 Z-0.02
N5755 X4.5489 Z-0.0137
N5760 X4.5264 Z-0.0085
N5765 X4.5063 Z-0.005
N5770 G3 X4.4963 Z-0.0017 I0.0065 K0.0369
N5775 G2 X4.4798 Z0.0021 I-0.0165 K-0.0337
N5780 G17 G2 Y-3.6001 I0. J0.04
N5785 G1 X4.4918
N5790 G18 G3 X4.5083 Z-0.0017 I0. K-0.0375
N5795 G1 Z-0.0018
N5800 G2 X4.5182 Z-0.005 I0.0165 K0.0337
N5805 G1 X4.5422 Z-0.0093
N5810 X4.5646 Z-0.0147
N5815 X4.5868 Z-0.0212
N5820 X4.6128 Z-0.0306
N5825 X4.6298 Z-0.0377
N5830 X4.6505 Z-0.0477
N5835 X4.6706 Z-0.0587
N5840 X4.6902 Z-0.0708
N5845 X4.709 Z-0.0838
N5850 X4.727 Z-0.0978
N5855 X4.7442 Z-0.1126
N5860 X4.7573 Z-0.1252
N5865 X4.7699 Z-0.1383
N5870 X4.7985 Z-0.1706
N5875 X4.8112 Z-0.1825
N5880 X4.825 Z-0.1932
N5885 X4.8392 Z-0.2024
N5890 X4.8543 Z-0.2104
N5895 X4.87 Z-0.2171
N5900 X4.886 Z-0.2223
N5905 X4.9025 Z-0.226
N5910 X4.9191 Z-0.2283
N5915 X4.9286 Z-0.2289
N5920 X4.9381 Z-0.2291
N5925 X4.9566 Z-0.2282
N5930 X4.9748 Z-0.2256
N5935 X4.9926 Z-0.2212
N5940 X5.0099 Z-0.2152
N5945 X5.0262 Z-0.2077
N5950 X5.0421 Z-0.1986
N5955 X5.0569 Z-0.1881
N5960 X5.0705 Z-0.1765
N5965 X5.0829 Z-0.1638
N5970 X5.091 Z-0.1542
N5975 X5.1052 Z-0.1383
N5980 X5.123 Z-0.1199
N5985 X5.1403 Z-0.1042
N5990 X5.1618 Z-0.087
N5995 X5.1807 Z-0.0735
N6000 X5.204 Z-0.0589
N6005 X5.2187 Z-0.0507
N6010 X5.2413 Z-0.0395
N6015 X5.2568 Z-0.0328
N6020 X5.2764 Z-0.0253
N6025 X5.2964 Z-0.0186
N6030 X5.3136 Z-0.0138
N6035 X5.337 Z-0.0084
N6040 X5.3568 Z-0.005
N6045 G2 X5.3668 Z-0.0017 I-0.0064 K0.0369
N6050 G3 X5.3834 Z0.0021 I0.0166 K-0.0336
N6055 G17 G3 Y-3.5201 I0. J0.04
N6060 G1 X5.3714
N6065 G18 G2 X5.3549 Z-0.0017 I0. K-0.0375
N6070 G1 X5.3548
N6075 G3 X5.3448 Z-0.005 I-0.0165 K0.0337
N6080 G1 X5.3232 Z-0.0088
N6085 X5.3007 Z-0.0141
N6090 X5.2826 Z-0.0192
N6095 X5.2587 Z-0.0274
N6100 X5.243 Z-0.0335
N6105 X5.2204 Z-0.0438
N6110 X5.205 Z-0.0516
N6115 X5.1903 Z-0.0599
N6120 X5.1671 Z-0.0746
N6125 X5.1482 Z-0.0881
N6130 X5.1285 Z-0.1041
N6135 X5.1112 Z-0.1198
N6140 X5.0919 Z-0.1395
N6145 X5.0697 Z-0.1646
N6150 X5.057 Z-0.1768
N6155 X5.0429 Z-0.1878
N6160 X5.0276 Z-0.1977
N6165 X5.0112 Z-0.2059
N6170 X4.9944 Z-0.2124
N6175 X4.9768 Z-0.2172
N6180 X4.9586 Z-0.2202
N6185 X4.9401 Z-0.2214
N6190 X4.9307 Z-0.2213
N6195 X4.9212 Z-0.2208
N6200 X4.9046 Z-0.2185
N6205 X4.8881 Z-0.2147
N6210 X4.872 Z-0.2093
N6215 X4.8565 Z-0.2025
N6220 X4.8415 Z-0.194
N6225 X4.8272 Z-0.1843
N6230 X4.814 Z-0.1732
N6235 X4.8017 Z-0.1608
N6240 X4.7848 Z-0.1414
N6245 X4.7664 Z-0.1224
N6250 X4.7532 Z-0.1099
N6255 X4.7348 Z-0.0944
N6260 X4.7174 Z-0.0812
N6265 X4.6985 Z-0.0685
N6270 X4.679 Z-0.0566
N6275 X4.6587 Z-0.0458
N6280 X4.6378 Z-0.036
N6285 X4.6165 Z-0.0274
N6290 X4.5947 Z-0.0199
N6295 X4.5724 Z-0.0136
N6300 X4.5499 Z-0.0084
N6305 X4.5301 Z-0.005
N6310 G3 X4.5201 Z-0.0017 I0.0064 K0.0369
N6315 G2 X4.5035 Z0.0021 I-0.0165 K-0.0337
N6320 G17 G2 Y-3.4401 I0. J0.04
N6325 G1 X4.5157
N6330 G18 G3 X4.5322 Z-0.0017 I0. K-0.0375
N6335 G1 X4.5323
N6340 G2 X4.5423 Z-0.005 I0.0165 K0.0337
N6345 G1 X4.5616 Z-0.0084
N6350 X4.5841 Z-0.0135
N6355 X4.6064 Z-0.0198
N6360 X4.6282 Z-0.0273
N6365 X4.6495 Z-0.0359
N6370 X4.6704 Z-0.0456
N6375 X4.6907 Z-0.0564
N6380 X4.7064 Z-0.0658
N6385 X4.7292 Z-0.081
N6390 X4.7439 Z-0.092
N6395 X4.758 Z-0.1036
N6400 X4.7733 Z-0.1174
N6405 X4.7911 Z-0.1352
N6410 X4.8135 Z-0.1602
N6415 X4.8262 Z-0.1723
N6420 X4.84 Z-0.183
N6425 X4.8547 Z-0.1923
N6430 X4.8698 Z-0.1998
N6435 X4.8856 Z-0.2057
N6440 X4.9019 Z-0.21
N6445 X4.9185 Z-0.2127
N6450 X4.9302 Z-0.2136
N6455 X4.9375 Z-0.2137
N6460 X4.9488 Z-0.2134
N6465 X4.9671 Z-0.2112
N6470 X4.985 Z-0.207
N6475 X5.0023 Z-0.2009
N6480 X5.0187 Z-0.1931
N6485 X5.034 Z-0.1837
N6490 X5.0481 Z-0.1729
N6495 X5.0608 Z-0.1609
N6500 X5.0718 Z-0.1484
N6505 X5.0855 Z-0.1335
N6510 X5.1029 Z-0.1162
N6515 X5.1204 Z-0.1007
N6520 X5.1404 Z-0.085
N6525 X5.1612 Z-0.0705
N6530 X5.1828 Z-0.0572
N6535 X5.2014 Z-0.0472
N6540 X5.2223 Z-0.0373
N6545 X5.2437 Z-0.0285
N6550 X5.2674 Z-0.0202
N6555 X5.2836 Z-0.0154
N6560 X5.308 Z-0.0095
N6565 X5.3327 Z-0.005
N6570 G2 X5.3425 Z-0.0018 I-0.0067 K0.0369
N6575 G3 X5.3591 Z0.0021 I0.0165 K-0.0337
N6580 G17 G3 Y-3.3601 I0. J0.04
N6585 G1 X5.3469
N6590 G18 G2 X5.3303 Z-0.0018 I0. K-0.0375
N6595 G3 X5.3205 Z-0.005 I-0.0165 K0.0337
N6600 G1 X5.2958 Z-0.0095
N6605 X5.2714 Z-0.0155
N6610 X5.2552 Z-0.0202
N6615 X5.2315 Z-0.0285
N6620 X5.2101 Z-0.0374
N6625 X5.1892 Z-0.0473
N6630 X5.1706 Z-0.0573
N6635 X5.149 Z-0.0706
N6640 X5.1282 Z-0.085
N6645 X5.1082 Z-0.1008
N6650 X5.0902 Z-0.1169
N6655 X5.0726 Z-0.1343
N6660 X5.0597 Z-0.1485
N6665 X5.0542 Z-0.1547
N6670 X5.0487 Z-0.1604
N6675 X5.0353 Z-0.1722
N6680 X5.0205 Z-0.1825
N6685 X5.0047 Z-0.1911
N6690 X4.9878 Z-0.1978
N6695 X4.9702 Z-0.2026
N6700 X4.9521 Z-0.2054
N6705 X4.9336 Z-0.206
N6710 X4.9241 Z-0.2055
N6715 X4.9146 Z-0.2044
N6720 X4.8981 Z-0.2011
N6725 X4.882 Z-0.1961
N6730 X4.8666 Z-0.1893
N6735 X4.8518 Z-0.1809
N6740 X4.8376 Z-0.1705
N6745 X4.8243 Z-0.1585
N6750 X4.8186 Z-0.1523
N6755 X4.8032 Z-0.1352
N6760 X4.7873 Z-0.1192
N6765 X4.7755 Z-0.1083
N6770 X4.758 Z-0.0937
N6775 X4.7397 Z-0.0799
N6780 X4.7168 Z-0.0647
N6785 X4.7011 Z-0.0554
N6790 X4.6807 Z-0.0447
N6795 X4.6597 Z-0.0351
N6800 X4.6381 Z-0.0265
N6805 X4.6165 Z-0.0192
N6810 X4.5942 Z-0.013
N6815 X4.5717 Z-0.008
N6820 X4.5544 Z-0.005
N6825 G3 X4.5443 Z-0.0017 I0.0064 K0.037
N6830 G1 X4.5442
N6835 G2 X4.528 Z0.002 I-0.0162 K-0.0338
N6840 G17 G2 Y-3.2801 I0. J0.04
N6845 G1 X4.5399
N6850 G18 G3 X4.5562 Z-0.0017 I0. K-0.0375
N6855 G2 X4.5666 Z-0.005 I0.0165 K0.0337
N6860 G1 X4.5756 Z-0.0065
N6865 X4.5983 Z-0.0111
N6870 X4.6251 Z-0.0181
N6875 X4.6427 Z-0.0238
N6880 X4.6599 Z-0.0302
N6885 X4.6748 Z-0.0364
N6890 X4.6977 Z-0.0472
N6895 X4.7179 Z-0.0581
N6900 X4.7326 Z-0.0671
N6905 X4.7563 Z-0.0832
N6910 X4.7744 Z-0.0971
N6915 X4.7917 Z-0.112
N6920 X4.8113 Z-0.131
N6925 X4.8262 Z-0.1471
N6930 X4.8417 Z-0.1626
N6935 X4.8555 Z-0.1732
N6940 X4.8702 Z-0.1819
N6945 X4.8857 Z-0.1889
N6950 X4.9018 Z-0.194
N6955 X4.9184 Z-0.1971
N6960 X4.9279 Z-0.198
N6965 X4.9374 Z-0.1983
N6970 X4.9558 Z-0.1972
N6975 X4.9737 Z-0.1938
N6980 X4.991 Z-0.1882
N6985 X5.0074 Z-0.1805
N6990 X5.0227 Z-0.1709
N6995 X5.0361 Z-0.1601
N7000 X5.0475 Z-0.1485
N7005 X5.0605 Z-0.1343
N7010 X5.0783 Z-0.1167
N7015 X5.0961 Z-0.1008
N7020 X5.1093 Z-0.0902
N7025 X5.123 Z-0.0801
N7030 X5.1404 Z-0.0683
N7035 X5.1585 Z-0.0573
N7040 X5.177 Z-0.0473
N7045 X5.1979 Z-0.0374
N7050 X5.2193 Z-0.0285
N7055 X5.2431 Z-0.0202
N7060 X5.2592 Z-0.0155
N7065 X5.2837 Z-0.0095
N7070 X5.3084 Z-0.005
N7075 G2 X5.3182 Z-0.0018 I-0.0068 K0.0369
N7080 G1 X5.3183 Z-0.0017
N7085 G3 X5.3345 Z0.0019 I0.0162 K-0.0338
N7090 G17 G3 Y-3.2001 I0. J0.04
N7095 G1 X5.3226
N7100 G18 G2 X5.3064 Z-0.0017 I0. K-0.0375
N7105 G3 X5.2963 Z-0.005 I-0.0165 K0.0337
N7110 G1 X5.2797 Z-0.0079
N7115 X5.2562 Z-0.0132
N7120 X5.231 Z-0.0202
N7125 X5.2111 Z-0.027
N7130 X5.1897 Z-0.0358
N7135 X5.1668 Z-0.0464
N7140 X5.1463 Z-0.0573
N7145 X5.1283 Z-0.0684
N7150 X5.104 Z-0.0851
N7155 X5.0873 Z-0.0981
N7160 X5.0712 Z-0.1121
N7165 X5.0529 Z-0.1297
N7170 X5.0354 Z-0.1482
N7175 X5.024 Z-0.159
N7180 X5.0099 Z-0.1694
N7185 X4.994 Z-0.1781
N7190 X4.9772 Z-0.1847
N7195 X4.9593 Z-0.1888
N7200 X4.9409 Z-0.1906
N7205 X4.9315 Z-0.1905
N7210 X4.922 Z-0.1897
N7215 X4.9054 Z-0.1867
N7220 X4.8891 Z-0.1816
N7225 X4.8736 Z-0.1744
N7230 X4.8589 Z-0.1652
N7235 X4.8451 Z-0.1537
N7240 X4.8216 Z-0.1292
N7245 X4.8018 Z-0.1103
N7250 X4.7845 Z-0.0955
N7255 X4.7664 Z-0.0818
N7260 X4.7436 Z-0.0664
N7265 X4.7279 Z-0.0569
N7270 X4.7073 Z-0.0459
N7275 X4.6868 Z-0.0364
N7280 X4.6699 Z-0.0293
N7285 X4.6526 Z-0.023
N7290 X4.6349 Z-0.0175
N7295 X4.6081 Z-0.0106
N7300 X4.5851 Z-0.006
N7305 X4.5787 Z-0.005
N7310 G3 X4.5681 Z-0.0016 I0.0059 K0.037
N7315 G2 X4.5516 Z0.0022 I-0.0165 K-0.0337
N7320 G17 G2 Y-3.1202 I0. J0.04
N7325 G1 X4.563
N7330 G18 G3 X4.5795 Z-0.0016 I0. K-0.0375
N7335 G2 X4.5901 Z-0.005 I0.0165 K0.0337
N7340 G1 X4.5969 Z-0.0061
N7345 X4.6196 Z-0.0105
N7350 X4.6375 Z-0.0149
N7355 X4.6596 Z-0.0216
N7360 X4.6813 Z-0.0294
N7365 X4.7025 Z-0.0383
N7370 X4.7232 Z-0.0483
N7375 X4.7433 Z-0.0595
N7380 X4.7627 Z-0.0716
N7385 X4.7814 Z-0.0848
N7390 X4.7994 Z-0.0988
N7395 X4.8131 Z-0.1107
N7400 X4.8328 Z-0.1298
N7405 X4.8473 Z-0.1453
N7410 X4.8567 Z-0.1544
N7415 X4.8709 Z-0.165
N7420 X4.8861 Z-0.1733
N7425 X4.902 Z-0.1793
N7430 X4.9185 Z-0.183
N7435 X4.9255 Z-0.1839
N7440 X4.9352 Z-0.1844
N7445 X4.9441 Z-0.1843
N7450 X4.9623 Z-0.182
N7455 X4.9797 Z-0.177
N7460 X4.9961 Z-0.1697
N7465 X5.0111 Z-0.1602
N7470 X5.0243 Z-0.1489
N7475 X5.0416 Z-0.1304
N7480 X5.0553 Z-0.117
N7485 X5.0726 Z-0.1014
N7490 X5.0858 Z-0.0907
N7495 X5.1063 Z-0.0756
N7500 X5.1204 Z-0.0664
N7505 X5.1422 Z-0.0535
N7510 X5.1571 Z-0.0456
N7515 X5.18 Z-0.035
N7520 X5.1956 Z-0.0286
N7525 X5.2124 Z-0.0226
N7530 X5.2355 Z-0.0155
N7535 X5.2599 Z-0.0095
N7540 X5.2849 Z-0.005
N7545 G2 X5.2948 Z-0.0018 I-0.0067 K0.0369
N7550 G1 X5.2949 Z-0.0017
N7555 G3 X5.3111 Z0.002 I0.0162 K-0.0338
N7560 G17 G3 Y-3.0402 I0. J0.04
N7565 G1 X5.3032
N7570 G18 G2 X5.2869 Z-0.0017 I0. K-0.0375
N7575 G3 X5.2768 Z-0.005 I-0.0165 K0.0337
N7580 G1 X5.2593 Z-0.008
N7585 X5.2358 Z-0.0133
N7590 X5.2186 Z-0.0181
N7595 X5.1947 Z-0.0261
N7600 X5.179 Z-0.0321
N7605 X5.156 Z-0.0425
N7610 X5.141 Z-0.05
N7615 X5.1226 Z-0.0605
N7620 X5.1047 Z-0.0718
N7625 X5.0858 Z-0.0852
N7630 X5.0708 Z-0.0969
N7635 X5.0579 Z-0.108
N7640 X5.0394 Z-0.1256
N7645 X5.0233 Z-0.1426
N7650 X5.0162 Z-0.1498
N7655 X5.0026 Z-0.1607
N7660 X4.9872 Z-0.1695
N7665 X4.9704 Z-0.1759
N7670 X4.9526 Z-0.1797
N7675 X4.9386 Z-0.1807
N7680 X4.9341
N7685 X4.9185 Z-0.1792
N7690 X4.9021 Z-0.1752
N7695 X4.8862 Z-0.1687
N7700 X4.8713 Z-0.1599
N7705 X4.8577 Z-0.1487
N7710 X4.8343 Z-0.1242
N7715 X4.821 Z-0.1115
N7720 X4.8073 Z-0.0995
N7725 X4.7875 Z-0.0839
N7730 X4.7707 Z-0.072
N7735 X4.7513 Z-0.0598
N7740 X4.7313 Z-0.0486
N7745 X4.7106 Z-0.0386
N7750 X4.6894 Z-0.0295
N7755 X4.6678 Z-0.0217
N7760 X4.6457 Z-0.015
N7765 X4.6277 Z-0.0106
N7770 X4.605 Z-0.0061
N7775 X4.5982 Z-0.005
N7780 G3 X4.5876 Z-0.0016 I0.0059 K0.037
N7785 G2 X4.5705 Z0.0025 I-0.0171 K-0.0334
N7790 G17 G2 Y-2.9602 I0. J0.04
N7795 G1 X4.5748
N7800 G18 G3 X4.592 Z-0.0016 I0. K-0.0375
N7805 G1 X4.5922 Z-0.0018
N7810 G2 X4.6021 Z-0.005 I0.0165 K0.0337
N7815 G1 X4.6251 Z-0.0091
N7820 X4.6387 Z-0.0122
N7825 X4.6609 Z-0.0183
N7830 X4.6828 Z-0.0257
N7835 X4.7042 Z-0.0341
N7840 X4.7251 Z-0.0437
N7845 X4.7455 Z-0.0544
N7850 X4.769 Z-0.0686
N7855 X4.7841 Z-0.0789
N7860 X4.806 Z-0.0956
N7865 X4.8199 Z-0.1074
N7870 X4.8388 Z-0.1254
N7875 X4.8574 Z-0.1449
N7880 X4.8632 Z-0.1507
N7885 X4.8713 Z-0.1574
N7890 X4.8808 Z-0.1638
N7895 X4.8906 Z-0.1691
N7900 X4.9011 Z-0.1734
N7905 X4.9114 Z-0.1764
N7910 X4.9219 Z-0.1785
N7915 X4.9331 Z-0.1795
N7920 X4.9443 Z-0.1794
N7925 X4.9548 Z-0.1782
N7930 X4.9657 Z-0.1759
N7935 X4.9763 Z-0.1725
N7940 X4.9865 Z-0.168
N7945 X4.9962 Z-0.1626
N7950 X5.005 Z-0.1564
N7955 X5.0129 Z-0.1497
N7960 X5.0349 Z-0.1266
N7965 X5.0534 Z-0.1089
N7970 X5.0662 Z-0.0978
N7975 X5.0812 Z-0.0861
N7980 X5.1001 Z-0.0725
N7985 X5.1146 Z-0.0632
N7990 X5.1363 Z-0.0506
N7995 X5.1513 Z-0.043
N8000 X5.1742 Z-0.0326
N8005 X5.1899 Z-0.0265
N8010 X5.2138 Z-0.0184
N8015 X5.23 Z-0.0138
N8020 X5.2544 Z-0.0082
N8025 X5.2729 Z-0.005
N8030 G2 X5.283 Z-0.0017 I-0.0064 K0.0369
N8035 G3 X5.2996 Z0.0022 I0.0166 K-0.0336
N8040 G1 X5.2997
N8045 G17 G3 Y-2.8802 I0. J0.04
N8050 G18 G2 X5.2831 Z-0.0017 I0. K-0.0375
N8055 G3 X5.2731 Z-0.005 I-0.0165 K0.0337
N8060 G1 X5.2534 Z-0.0085
N8065 X5.2285 Z-0.0144
N8070 X5.2129 Z-0.0188
N8075 X5.189 Z-0.0269
N8080 X5.1733 Z-0.0331
N8085 X5.1504 Z-0.0436
N8090 X5.1354 Z-0.0512
N8095 X5.1139 Z-0.0638
N8100 X5.0958 Z-0.0756
N8105 X5.0765 Z-0.0898
N8110 X5.0589 Z-0.1042
N8115 X5.0418 Z-0.12
N8120 X5.024 Z-0.1383
N8125 X5.0112 Z-0.152
N8130 X4.9978 Z-0.1628
N8135 X4.9824 Z-0.1714
N8140 X4.9655 Z-0.1776
N8145 X4.9475 Z-0.1808
N8150 X4.9376 Z-0.1813
N8155 X4.925 Z-0.1806
N8160 X4.9148 Z-0.1788
N8165 X4.9055 Z-0.1764
N8170 X4.896 Z-0.1729
N8175 X4.8867 Z-0.1685
N8180 X4.8784 Z-0.1635
N8185 X4.8701 Z-0.1574
N8190 X4.8638 Z-0.1519
N8195 X4.859 Z-0.1472
N8200 X4.8426 Z-0.1295
N8205 X4.8237 Z-0.111
N8210 X4.81 Z-0.099
N8215 X4.792 Z-0.0849
N8220 X4.7734 Z-0.0716
N8225 X4.754 Z-0.0594
N8230 X4.734 Z-0.0483
N8235 X4.7112 Z-0.0373
N8240 X4.6921 Z-0.0292
N8245 X4.6748 Z-0.0229
N8250 X4.6572 Z-0.0173
N8255 X4.6303 Z-0.0104
N8260 X4.6076 Z-0.0059
N8265 X4.6019 Z-0.005
N8270 G3 X4.5914 Z-0.0017 I0.006 K0.037
N8275 G1 X4.5913 Z-0.0016
N8280 G2 X4.5748 Z0.0022 I-0.0165 K-0.0337
N8285 G1 X4.5715
N8290 G17 G2 Y-2.8002 I0. J0.04
N8295 G18 G3 X4.588 Z-0.0016 I0. K-0.0375
N8300 G2 X4.5988 Z-0.005 I0.0165 K0.0337
N8305 G1 X4.601 Z-0.0053
N8310 X4.6237 Z-0.0096
N8315 X4.6462 Z-0.0153
N8320 X4.6683 Z-0.0218
N8325 X4.6856 Z-0.028
N8330 X4.7026 Z-0.035
N8335 X4.7276 Z-0.0467
N8340 X4.7438 Z-0.0554
N8345 X4.7595 Z-0.0648
N8350 X4.7786 Z-0.0776
N8355 X4.7971 Z-0.0912
N8360 X4.8111 Z-0.1027
N8365 X4.8246 Z-0.1149
N8370 X4.8434 Z-0.1336
N8375 X4.8604 Z-0.1523
N8380 X4.8736 Z-0.1639
N8385 X4.8883 Z-0.173
N8390 X4.9042 Z-0.1797
N8395 X4.9207 Z-0.1837
N8400 X4.9312 Z-0.1849
N8405 X4.9374 Z-0.1851
N8410 X4.9573 Z-0.1832
N8415 X4.9746 Z-0.1784
N8420 X4.9905 Z-0.1709
N8425 X5.0052 Z-0.161
N8430 X5.0164 Z-0.1503
N8435 X5.0337 Z-0.1314
N8440 X5.0473 Z-0.1179
N8445 X5.0645 Z-0.1022
N8450 X5.0776 Z-0.0914
N8455 X5.0912 Z-0.0812
N8460 X5.1121 Z-0.067
N8465 X5.1265 Z-0.0581
N8470 X5.1413 Z-0.0499
N8475 X5.1563 Z-0.0424
N8480 X5.1793 Z-0.032
N8485 X5.195 Z-0.0259
N8490 X5.2109 Z-0.0204
N8495 X5.2362 Z-0.0133
N8500 X5.2597 Z-0.0079
N8505 X5.2762 Z-0.005
N8510 G2 X5.3383 Z0.0689 I-0.0129 K0.0739
N8515 G1 Z0.155
N8520 X3.6027 Y-4.
N8525 Z0.08
N8530 Z0.0688
N8535 G3 X3.5411 Z-0.005 I-0.075 K0.
N8540 G1 X3.5164 Z-0.0095
N8545 X3.494 Z-0.0149
N8550 X3.4679 Z-0.0228
N8555 X3.4442 Z-0.0316
N8560 X3.4211 Z-0.0416
N8565 X3.3986 Z-0.0532
N8570 X3.3768 Z-0.0659
N8575 X3.3556 Z-0.0801
N8580 X3.3355 Z-0.0953
N8585 X3.3161 Z-0.1119
N8590 X3.2978 Z-0.1295
N8595 X3.2818 Z-0.1468
N8600 X3.2643 Z-0.1679
N8605 X3.2591 Z-0.1744
N8610 X3.2486 Z-0.1865
N8615 X3.2363 Z-0.1988
N8620 X3.2226 Z-0.2108
N8625 X3.2084 Z-0.2215
N8630 X3.193 Z-0.2315
N8635 X3.1771 Z-0.2403
N8640 X3.1604 Z-0.248
N8645 X3.1432 Z-0.2545
N8650 X3.1257 Z-0.2596
N8655 X3.1077 Z-0.2636
N8660 X3.0895 Z-0.2662
N8665 X3.071 Z-0.2675
N8670 X3.0524 Z-0.2674
N8675 X3.0435 Z-0.267
N8680 X3.0269 Z-0.2651
N8685 X3.0104 Z-0.2622
N8690 X2.994 Z-0.2583
N8695 X2.9779 Z-0.2531
N8700 X2.9622 Z-0.247
N8705 X2.9468 Z-0.2398
N8710 X2.9321 Z-0.2316
N8715 X2.9178 Z-0.2224
N8720 X2.904 Z-0.2122
N8725 X2.8912 Z-0.2011
N8730 X2.879 Z-0.1892
N8735 X2.8673 Z-0.1761
N8740 X2.8568 Z-0.1631
N8745 X2.8422 Z-0.1456
N8750 X2.8267 Z-0.129
N8755 X2.8104 Z-0.1133
N8760 X2.7932 Z-0.0983
N8765 X2.775 Z-0.0841
N8770 X2.7564 Z-0.0712
N8775 X2.7369 Z-0.0591
N8780 X2.715 Z-0.0471
N8785 X2.7003 Z-0.04
N8790 X2.6748 Z-0.0292
N8795 X2.6575 Z-0.0229
N8800 X2.6354 Z-0.0161
N8805 X2.613 Z-0.0104
N8810 X2.5892 Z-0.0059
N8815 X2.5839 Z-0.005
N8820 G3 X2.5211 Z0.069 I0.0122 K0.074
N8825 G1 Z0.155
N8830 X2.1027
N8835 Z0.08
N8840 Z0.0688
N8845 G3 X2.0411 Z-0.005 I-0.075 K0.
N8850 G1 X2.0164 Z-0.0095
N8855 X1.994 Z-0.0149
N8860 X1.9679 Z-0.0228
N8865 X1.9442 Z-0.0316
N8870 X1.9211 Z-0.0416
N8875 X1.8986 Z-0.0532
N8880 X1.8768 Z-0.0659
N8885 X1.8556 Z-0.0801
N8890 X1.8355 Z-0.0953
N8895 X1.8161 Z-0.1119
N8900 X1.7978 Z-0.1295
N8905 X1.7818 Z-0.1468
N8910 X1.7643 Z-0.1679
N8915 X1.7591 Z-0.1744
N8920 X1.7486 Z-0.1865
N8925 X1.7363 Z-0.1988
N8930 X1.7226 Z-0.2108
N8935 X1.7084 Z-0.2215
N8940 X1.693 Z-0.2315
N8945 X1.6771 Z-0.2403
N8950 X1.6604 Z-0.248
N8955 X1.6432 Z-0.2545
N8960 X1.6257 Z-0.2596
N8965 X1.6077 Z-0.2636
N8970 X1.5895 Z-0.2662
N8975 X1.571 Z-0.2675
N8980 X1.5524 Z-0.2674
N8985 X1.5435 Z-0.267
N8990 X1.5269 Z-0.2651
N8995 X1.5104 Z-0.2622
N9000 X1.494 Z-0.2583
N9005 X1.4779 Z-0.2531
N9010 X1.4622 Z-0.247
N9015 X1.4468 Z-0.2398
N9020 X1.4321 Z-0.2316
N9025 X1.4178 Z-0.2224
N9030 X1.404 Z-0.2122
N9035 X1.3912 Z-0.2011
N9040 X1.379 Z-0.1892
N9045 X1.3673 Z-0.1761
N9050 X1.3568 Z-0.1631
N9055 X1.3422 Z-0.1456
N9060 X1.3267 Z-0.129
N9065 X1.3104 Z-0.1133
N9070 X1.2932 Z-0.0983
N9075 X1.275 Z-0.0841
N9080 X1.2564 Z-0.0712
N9085 X1.2369 Z-0.0591
N9090 X1.215 Z-0.0471
N9095 X1.2003 Z-0.04
N9100 X1.1748 Z-0.0292
N9105 X1.1575 Z-0.0229
N9110 X1.1354 Z-0.0161
N9115 X1.113 Z-0.0104
N9120 X1.0892 Z-0.0059
N9125 X1.0839 Z-0.005
N9130 G3 X1.0211 Z0.069 I0.0122 K0.074
N9135 G1 Z0.155
N9140 X0.6027
N9145 Z0.08
N9150 Z0.0688
N9155 G3 X0.5411 Z-0.005 I-0.075 K0.
N9160 G1 X0.5164 Z-0.0095
N9165 X0.494 Z-0.0149
N9170 X0.4679 Z-0.0228
N9175 X0.4442 Z-0.0316
N9180 X0.4211 Z-0.0416
N9185 X0.3986 Z-0.0532
N9190 X0.3768 Z-0.0659
N9195 X0.3556 Z-0.0801
N9200 X0.3355 Z-0.0953
N9205 X0.3161 Z-0.1119
N9210 X0.2978 Z-0.1295
N9215 X0.2818 Z-0.1468
N9220 X0.2643 Z-0.1679
N9225 X0.2591 Z-0.1744
N9230 X0.2486 Z-0.1865
N9235 X0.2363 Z-0.1988
N9240 X0.2226 Z-0.2108
N9245 X0.2084 Z-0.2215
N9250 X0.193 Z-0.2315
N9255 X0.1771 Z-0.2403
N9260 X0.1604 Z-0.248
N9265 X0.1432 Z-0.2545
N9270 X0.1257 Z-0.2596
N9275 X0.1077 Z-0.2636
N9280 X0.0895 Z-0.2662
N9285 X0.071 Z-0.2675
N9290 X0.0524 Z-0.2674
N9295 X0.0435 Z-0.267
N9300 X0.0269 Z-0.2651
N9305 X0.0104 Z-0.2622
N9310 X-0.006 Z-0.2583
N9315 X-0.0221 Z-0.2531
N9320 X-0.0378 Z-0.247
N9325 X-0.0532 Z-0.2398
N9330 X-0.0679 Z-0.2316
N9335 X-0.0822 Z-0.2224
N9340 X-0.096 Z-0.2122
N9345 X-0.1088 Z-0.2011
N9350 X-0.121 Z-0.1892
N9355 X-0.1327 Z-0.1761
N9360 X-0.1432 Z-0.1631
N9365 X-0.1578 Z-0.1456
N9370 X-0.1733 Z-0.129
N9375 X-0.1896 Z-0.1133
N9380 X-0.2068 Z-0.0983
N9385 X-0.225 Z-0.0841
N9390 X-0.2436 Z-0.0712
N9395 X-0.2631 Z-0.0591
N9400 X-0.285 Z-0.0471
N9405 X-0.2997 Z-0.04
N9410 X-0.3252 Z-0.0292
N9415 X-0.3425 Z-0.0229
N9420 X-0.3646 Z-0.0161
N9425 X-0.387 Z-0.0104
N9430 X-0.4108 Z-0.0059
N9435 X-0.4161 Z-0.005
N9440 G3 X-0.4789 Z0.069 I0.0122 K0.074
N9445 G1 Z0.155
N9450 X-0.8973
N9455 Z0.08
N9460 Z0.0688
N9465 G3 X-0.9589 Z-0.005 I-0.075 K0.
N9470 G1 X-0.9836 Z-0.0095
N9475 X-1.006 Z-0.0149
N9480 X-1.0321 Z-0.0228
N9485 X-1.0558 Z-0.0316
N9490 X-1.0789 Z-0.0416
N9495 X-1.1014 Z-0.0532
N9500 X-1.1232 Z-0.0659
N9505 X-1.1444 Z-0.0801
N9510 X-1.1645 Z-0.0953
N9515 X-1.1839 Z-0.1119
N9520 X-1.2022 Z-0.1295
N9525 X-1.2182 Z-0.1468
N9530 X-1.2357 Z-0.1679
N9535 X-1.2409 Z-0.1744
N9540 X-1.2514 Z-0.1865
N9545 X-1.2637 Z-0.1988
N9550 X-1.2774 Z-0.2108
N9555 X-1.2916 Z-0.2215
N9560 X-1.307 Z-0.2315
N9565 X-1.3229 Z-0.2403
N9570 X-1.3396 Z-0.248
N9575 X-1.3568 Z-0.2545
N9580 X-1.3743 Z-0.2596
N9585 X-1.3923 Z-0.2636
N9590 X-1.4105 Z-0.2662
N9595 X-1.429 Z-0.2675
N9600 X-1.4476 Z-0.2674
N9605 X-1.4565 Z-0.267
N9610 X-1.4731 Z-0.2651
N9615 X-1.4896 Z-0.2622
N9620 X-1.506 Z-0.2583
N9625 X-1.5221 Z-0.2531
N9630 X-1.5378 Z-0.247
N9635 X-1.5532 Z-0.2398
N9640 X-1.5679 Z-0.2316
N9645 X-1.5822 Z-0.2224
N9650 X-1.596 Z-0.2122
N9655 X-1.6088 Z-0.2011
N9660 X-1.621 Z-0.1892
N9665 X-1.6327 Z-0.1761
N9670 X-1.6432 Z-0.1631
N9675 X-1.6578 Z-0.1456
N9680 X-1.6733 Z-0.129
N9685 X-1.6896 Z-0.1133
N9690 X-1.7068 Z-0.0983
N9695 X-1.725 Z-0.0841
N9700 X-1.7436 Z-0.0712
N9705 X-1.7631 Z-0.0591
N9710 X-1.785 Z-0.0471
N9715 X-1.7997 Z-0.04
N9720 X-1.8252 Z-0.0292
N9725 X-1.8425 Z-0.0229
N9730 X-1.8646 Z-0.0161
N9735 X-1.887 Z-0.0104
N9740 X-1.9108 Z-0.0059
N9745 X-1.9161 Z-0.005
N9750 G3 X-1.9789 Z0.069 I0.0122 K0.074
N9755 G1 Z0.155
N9760 X-2.3973
N9765 Z0.08
N9770 Z0.0688
N9775 G3 X-2.4589 Z-0.005 I-0.075 K0.
N9780 G1 X-2.4836 Z-0.0095
N9785 X-2.506 Z-0.0149
N9790 X-2.5321 Z-0.0228
N9795 X-2.5558 Z-0.0316
N9800 X-2.5789 Z-0.0416
N9805 X-2.6014 Z-0.0532
N9810 X-2.6232 Z-0.0659
N9815 X-2.6444 Z-0.0801
N9820 X-2.6645 Z-0.0953
N9825 X-2.6839 Z-0.1119
N9830 X-2.7022 Z-0.1295
N9835 X-2.7182 Z-0.1468
N9840 X-2.7357 Z-0.1679
N9845 X-2.7409 Z-0.1744
N9850 X-2.7514 Z-0.1865
N9855 X-2.7637 Z-0.1988
N9860 X-2.7774 Z-0.2108
N9865 X-2.7916 Z-0.2215
N9870 X-2.807 Z-0.2315
N9875 X-2.8229 Z-0.2403
N9880 X-2.8396 Z-0.248
N9885 X-2.8568 Z-0.2545
N9890 X-2.8743 Z-0.2596
N9895 X-2.8923 Z-0.2636
N9900 X-2.9105 Z-0.2662
N9905 X-2.929 Z-0.2675
N9910 X-2.9476 Z-0.2674
N9915 X-2.9565 Z-0.267
N9920 X-2.9731 Z-0.2651
N9925 X-2.9896 Z-0.2622
N9930 X-3.006 Z-0.2583
N9935 X-3.0221 Z-0.2531
N9940 X-3.0378 Z-0.247
N9945 X-3.0532 Z-0.2398
N9950 X-3.0679 Z-0.2316
N9955 X-3.0822 Z-0.2224
N9960 X-3.096 Z-0.2122
N9965 X-3.1088 Z-0.2011
N9970 X-3.121 Z-0.1892
N9975 X-3.1327 Z-0.1761
N9980 X-3.1432 Z-0.1631
N9985 X-3.1578 Z-0.1456
N9990 X-3.1733 Z-0.129
N9995 X-3.1896 Z-0.1133
N10000 X-3.2068 Z-0.0983
N10005 X-3.225 Z-0.0841
N10010 X-3.2436 Z-0.0712
N10015 X-3.2631 Z-0.0591
N10020 X-3.285 Z-0.0471
N10025 X-3.2997 Z-0.04
N10030 X-3.3252 Z-0.0292
N10035 X-3.3425 Z-0.0229
N10040 X-3.3646 Z-0.0161
N10045 X-3.387 Z-0.0104
N10050 X-3.4108 Z-0.0059
N10055 X-3.4161 Z-0.005
N10060 G3 X-3.4789 Z0.069 I0.0122 K0.074
N10065 G1 Z0.155
N10070 X-3.8973
N10075 Z0.08
N10080 Z0.0688
N10085 G3 X-3.9589 Z-0.005 I-0.075 K0.
N10090 G1 X-3.9836 Z-0.0095
N10095 X-4.006 Z-0.0149
N10100 X-4.0321 Z-0.0228
N10105 X-4.0558 Z-0.0316
N10110 X-4.0789 Z-0.0416
N10115 X-4.1014 Z-0.0532
N10120 X-4.1232 Z-0.0659
N10125 X-4.1444 Z-0.0801
N10130 X-4.1645 Z-0.0953
N10135 X-4.1839 Z-0.1119
N10140 X-4.2022 Z-0.1295
N10145 X-4.2182 Z-0.1468
N10150 X-4.2357 Z-0.1679
N10155 X-4.2409 Z-0.1744
N10160 X-4.2514 Z-0.1865
N10165 X-4.2637 Z-0.1988
N10170 X-4.2774 Z-0.2108
N10175 X-4.2916 Z-0.2215
N10180 X-4.307 Z-0.2315
N10185 X-4.3229 Z-0.2403
N10190 X-4.3396 Z-0.248
N10195 X-4.3568 Z-0.2545
N10200 X-4.3743 Z-0.2596
N10205 X-4.3923 Z-0.2636
N10210 X-4.4105 Z-0.2662
N10215 X-4.429 Z-0.2675
N10220 X-4.4476 Z-0.2674
N10225 X-4.4565 Z-0.267
N10230 X-4.4731 Z-0.2651
N10235 X-4.4896 Z-0.2622
N10240 X-4.506 Z-0.2583
N10245 X-4.5221 Z-0.2531
N10250 X-4.5378 Z-0.247
N10255 X-4.5532 Z-0.2398
N10260 X-4.5679 Z-0.2316
N10265 X-4.5822 Z-0.2224
N10270 X-4.596 Z-0.2122
N10275 X-4.6088 Z-0.2011
N10280 X-4.621 Z-0.1892
N10285 X-4.6327 Z-0.1761
N10290 X-4.6432 Z-0.1631
N10295 X-4.6578 Z-0.1456
N10300 X-4.6733 Z-0.129
N10305 X-4.6896 Z-0.1133
N10310 X-4.7068 Z-0.0983
N10315 X-4.725 Z-0.0841
N10320 X-4.7436 Z-0.0712
N10325 X-4.7631 Z-0.0591
N10330 X-4.785 Z-0.0471
N10335 X-4.7997 Z-0.04
N10340 X-4.8252 Z-0.0292
N10345 X-4.8425 Z-0.0229
N10350 X-4.8646 Z-0.0161
N10355 X-4.887 Z-0.0104
N10360 X-4.9108 Z-0.0059
N10365 X-4.9161 Z-0.005
N10370 G3 X-4.9789 Z0.069 I0.0122 K0.074
N10375 G1 Z0.155
N10380 X-5.3973
N10385 Z0.08
N10390 Z0.0688
N10395 G3 X-5.4589 Z-0.005 I-0.075 K0.
N10400 G1 X-5.4836 Z-0.0095
N10405 X-5.506 Z-0.0149
N10410 X-5.5321 Z-0.0228
N10415 X-5.5558 Z-0.0316
N10420 X-5.5789 Z-0.0416
N10425 X-5.6014 Z-0.0532
N10430 X-5.6232 Z-0.0659
N10435 X-5.6444 Z-0.0801
N10440 X-5.6645 Z-0.0953
N10445 X-5.6839 Z-0.1119
N10450 X-5.7022 Z-0.1295
N10455 X-5.7182 Z-0.1468
N10460 X-5.7357 Z-0.1679
N10465 X-5.7409 Z-0.1744
N10470 X-5.7514 Z-0.1865
N10475 X-5.7637 Z-0.1988
N10480 X-5.7774 Z-0.2108
N10485 X-5.7916 Z-0.2215
N10490 X-5.807 Z-0.2315
N10495 X-5.8229 Z-0.2403
N10500 X-5.8396 Z-0.248
N10505 X-5.8568 Z-0.2545
N10510 X-5.8743 Z-0.2596
N10515 X-5.8923 Z-0.2636
N10520 X-5.9105 Z-0.2662
N10525 X-5.929 Z-0.2675
N10530 X-5.9476 Z-0.2674
N10535 X-5.9565 Z-0.267
N10540 X-5.9731 Z-0.2651
N10545 X-5.9896 Z-0.2622
N10550 X-6.006 Z-0.2583
N10555 X-6.0221 Z-0.2531
N10560 X-6.0378 Z-0.247
N10565 X-6.0532 Z-0.2398
N10570 X-6.0679 Z-0.2316
N10575 X-6.0822 Z-0.2224
N10580 X-6.096 Z-0.2122
N10585 X-6.1088 Z-0.2011
N10590 X-6.121 Z-0.1892
N10595 X-6.1327 Z-0.1761
N10600 X-6.1432 Z-0.1631
N10605 X-6.1578 Z-0.1456
N10610 X-6.1733 Z-0.129
N10615 X-6.1896 Z-0.1133
N10620 X-6.2068 Z-0.0983
N10625 X-6.225 Z-0.0841
N10630 X-6.2436 Z-0.0712
N10635 X-6.2631 Z-0.0591
N10640 X-6.285 Z-0.0471
N10645 X-6.2997 Z-0.04
N10650 X-6.3252 Z-0.0292
N10655 X-6.3425 Z-0.0229
N10660 X-6.3646 Z-0.0161
N10665 X-6.387 Z-0.0104
N10670 X-6.4108 Z-0.0059
N10675 X-6.4161 Z-0.005
N10680 G3 X-6.4789 Z0.069 I0.0122 K0.074
N10685 G1 Z0.155
N10690 X-6.8973
N10695 Z0.08
N10700 Z0.0688
N10705 G3 X-6.9589 Z-0.005 I-0.075 K0.
N10710 G1 X-6.9836 Z-0.0095
N10715 X-7.006 Z-0.0149
N10720 X-7.0321 Z-0.0228
N10725 X-7.0558 Z-0.0316
N10730 X-7.0789 Z-0.0416
N10735 X-7.1014 Z-0.0532
N10740 X-7.1232 Z-0.0659
N10745 X-7.1444 Z-0.0801
N10750 X-7.1645 Z-0.0953
N10755 X-7.1839 Z-0.1119
N10760 X-7.2022 Z-0.1295
N10765 X-7.2182 Z-0.1468
N10770 X-7.2357 Z-0.1679
N10775 X-7.2409 Z-0.1744
N10780 X-7.2514 Z-0.1865
N10785 X-7.2637 Z-0.1988
N10790 X-7.2774 Z-0.2108
N10795 X-7.2916 Z-0.2215
N10800 X-7.307 Z-0.2315
N10805 X-7.3229 Z-0.2403
N10810 X-7.3396 Z-0.248
N10815 X-7.3568 Z-0.2545
N10820 X-7.3743 Z-0.2596
N10825 X-7.3923 Z-0.2636
N10830 X-7.4105 Z-0.2662
N10835 X-7.429 Z-0.2675
N10840 X-7.4476 Z-0.2674
N10845 X-7.4565 Z-0.267
N10850 X-7.4731 Z-0.2651
N10855 X-7.4896 Z-0.2622
N10860 X-7.506 Z-0.2583
N10865 X-7.5221 Z-0.2531
N10870 X-7.5378 Z-0.247
N10875 X-7.5532 Z-0.2398
N10880 X-7.5679 Z-0.2316
N10885 X-7.5822 Z-0.2224
N10890 X-7.596 Z-0.2122
N10895 X-7.6088 Z-0.2011
N10900 X-7.621 Z-0.1892
N10905 X-7.6327 Z-0.1761
N10910 X-7.6432 Z-0.1631
N10915 X-7.6578 Z-0.1456
N10920 X-7.6733 Z-0.129
N10925 X-7.6896 Z-0.1133
N10930 X-7.7068 Z-0.0983
N10935 X-7.725 Z-0.0841
N10940 X-7.7436 Z-0.0712
N10945 X-7.7631 Z-0.0591
N10950 X-7.785 Z-0.0471
N10955 X-7.7997 Z-0.04
N10960 X-7.8252 Z-0.0292
N10965 X-7.8425 Z-0.0229
N10970 X-7.8646 Z-0.0161
N10975 X-7.887 Z-0.0104
N10980 X-7.9108 Z-0.0059
N10985 X-7.9161 Z-0.005
N10990 G3 X-7.9265 Z-0.0017 I0.0061 K0.037
N10995 G2 X-7.9431 Z0.0022 I-0.0166 K-0.0336
N11000 G17 G2 Y-3.92 I0. J0.04
N11005 G1 X-7.9312
N11010 G18 G3 X-7.9146 Z-0.0017 I0. K-0.0375
N11015 G2 X-7.9043 Z-0.005 I0.0165 K0.0337
N11020 G1 X-7.8948 Z-0.0066
N11025 X-7.8721 Z-0.0111
N11030 X-7.8497 Z-0.0169
N11035 X-7.8278 Z-0.0239
N11040 X-7.8019 Z-0.0338
N11045 X-7.7851 Z-0.0413
N11050 X-7.7605 Z-0.0538
N11055 X-7.7447 Z-0.063
N11060 X-7.7254 Z-0.0755
N11065 X-7.7068 Z-0.0889
N11070 X-7.6896 Z-0.1029
N11075 X-7.6723 Z-0.1183
N11080 X-7.6594 Z-0.1311
N11085 X-7.644 Z-0.1479
N11090 X-7.6194 Z-0.1775
N11095 X-7.6077 Z-0.19
N11100 X-7.5949 Z-0.2017
N11105 X-7.5816 Z-0.2123
N11110 X-7.5673 Z-0.2222
N11115 X-7.5527 Z-0.2307
N11120 X-7.5376 Z-0.2383
N11125 X-7.5219 Z-0.2447
N11130 X-7.506 Z-0.2501
N11135 X-7.4896 Z-0.2543
N11140 X-7.4731 Z-0.2573
N11145 X-7.4565 Z-0.2592
N11150 X-7.4474 Z-0.2597
N11155 X-7.4288 Z-0.2598
N11160 X-7.4103 Z-0.2584
N11165 X-7.3921 Z-0.2556
N11170 X-7.374 Z-0.2515
N11175 X-7.3566 Z-0.246
N11180 X-7.3394 Z-0.2392
N11185 X-7.3231 Z-0.2312
N11190 X-7.3072 Z-0.2219
N11195 X-7.2924 Z-0.2115
N11200 X-7.2781 Z-0.2001
N11205 X-7.2651 Z-0.1877
N11210 X-7.2528 Z-0.1743
N11215 X-7.243 Z-0.1622
N11220 X-7.2257 Z-0.1418
N11225 X-7.2125 Z-0.128
N11230 X-7.1957 Z-0.1118
N11235 X-7.1747 Z-0.094
N11240 X-7.1561 Z-0.08
N11245 X-7.1386 Z-0.0682
N11250 X-7.1205 Z-0.0572
N11255 X-7.0964 Z-0.0444
N11260 X-7.0753 Z-0.0347
N11265 X-7.0597 Z-0.0285
N11270 X-7.036 Z-0.0201
N11275 X-7.0178 Z-0.0149
N11280 X-6.9954 Z-0.0095
N11285 X-6.9707 Z-0.005
N11290 G2 X-6.9091 Z0.0688 I-0.0134 K0.0738
N11295 G1 Z0.155
N11300 X-6.4669
N11305 Z0.08
N11310 Z0.069
N11315 G2 X-6.4043 Z-0.005 I0.075 K0.
N11320 G1 X-6.3948 Z-0.0066
N11325 X-6.3721 Z-0.0111
N11330 X-6.3497 Z-0.0169
N11335 X-6.3278 Z-0.0239
N11340 X-6.3019 Z-0.0338
N11345 X-6.2851 Z-0.0413
N11350 X-6.2605 Z-0.0538
N11355 X-6.2447 Z-0.063
N11360 X-6.2254 Z-0.0755
N11365 X-6.2068 Z-0.0889
N11370 X-6.1896 Z-0.1029
N11375 X-6.1723 Z-0.1183
N11380 X-6.1594 Z-0.1311
N11385 X-6.144 Z-0.1479
N11390 X-6.1194 Z-0.1775
N11395 X-6.1077 Z-0.19
N11400 X-6.0949 Z-0.2017
N11405 X-6.0816 Z-0.2123
N11410 X-6.0673 Z-0.2222
N11415 X-6.0527 Z-0.2307
N11420 X-6.0376 Z-0.2383
N11425 X-6.0219 Z-0.2447
N11430 X-6.006 Z-0.2501
N11435 X-5.9896 Z-0.2543
N11440 X-5.9731 Z-0.2573
N11445 X-5.9565 Z-0.2592
N11450 X-5.9474 Z-0.2597
N11455 X-5.9288 Z-0.2598
N11460 X-5.9103 Z-0.2584
N11465 X-5.8921 Z-0.2556
N11470 X-5.874 Z-0.2515
N11475 X-5.8566 Z-0.246
N11480 X-5.8394 Z-0.2392
N11485 X-5.8231 Z-0.2312
N11490 X-5.8072 Z-0.2219
N11495 X-5.7924 Z-0.2115
N11500 X-5.7781 Z-0.2001
N11505 X-5.7651 Z-0.1877
N11510 X-5.7528 Z-0.1743
N11515 X-5.743 Z-0.1622
N11520 X-5.7257 Z-0.1418
N11525 X-5.7125 Z-0.128
N11530 X-5.6957 Z-0.1118
N11535 X-5.6747 Z-0.094
N11540 X-5.6561 Z-0.08
N11545 X-5.6386 Z-0.0682
N11550 X-5.6205 Z-0.0572
N11555 X-5.5964 Z-0.0444
N11560 X-5.5753 Z-0.0347
N11565 X-5.5597 Z-0.0285
N11570 X-5.536 Z-0.0201
N11575 X-5.5178 Z-0.0149
N11580 X-5.4954 Z-0.0095
N11585 X-5.4707 Z-0.005
N11590 G2 X-5.4091 Z0.0688 I-0.0134 K0.0738
N11595 G1 Z0.155
N11600 X-4.9669
N11605 Z0.08
N11610 Z0.069
N11615 G2 X-4.9043 Z-0.005 I0.075 K0.
N11620 G1 X-4.8948 Z-0.0066
N11625 X-4.8721 Z-0.0111
N11630 X-4.8497 Z-0.0169
N11635 X-4.8278 Z-0.0239
N11640 X-4.8019 Z-0.0338
N11645 X-4.7851 Z-0.0413
N11650 X-4.7605 Z-0.0538
N11655 X-4.7447 Z-0.063
N11660 X-4.7254 Z-0.0755
N11665 X-4.7068 Z-0.0889
N11670 X-4.6896 Z-0.1029
N11675 X-4.6723 Z-0.1183
N11680 X-4.6594 Z-0.1311
N11685 X-4.644 Z-0.1479
N11690 X-4.6194 Z-0.1775
N11695 X-4.6077 Z-0.19
N11700 X-4.5949 Z-0.2017
N11705 X-4.5816 Z-0.2123
N11710 X-4.5673 Z-0.2222
N11715 X-4.5527 Z-0.2307
N11720 X-4.5376 Z-0.2383
N11725 X-4.5219 Z-0.2447
N11730 X-4.506 Z-0.2501
N11735 X-4.4896 Z-0.2543
N11740 X-4.4731 Z-0.2573
N11745 X-4.4565 Z-0.2592
N11750 X-4.4474 Z-0.2597
N11755 X-4.4288 Z-0.2598
N11760 X-4.4103 Z-0.2584
N11765 X-4.3921 Z-0.2556
N11770 X-4.374 Z-0.2515
N11775 X-4.3566 Z-0.246
N11780 X-4.3394 Z-0.2392
N11785 X-4.3231 Z-0.2312
N11790 X-4.3072 Z-0.2219
N11795 X-4.2924 Z-0.2115
N11800 X-4.2781 Z-0.2001
N11805 X-4.2651 Z-0.1877
N11810 X-4.2528 Z-0.1743
N11815 X-4.243 Z-0.1622
N11820 X-4.2257 Z-0.1418
N11825 X-4.2125 Z-0.128
N11830 X-4.1957 Z-0.1118
N11835 X-4.1747 Z-0.094
N11840 X-4.1561 Z-0.08
N11845 X-4.1386 Z-0.0682
N11850 X-4.1205 Z-0.0572
N11855 X-4.0964 Z-0.0444
N11860 X-4.0753 Z-0.0347
N11865 X-4.0597 Z-0.0285
N11870 X-4.036 Z-0.0201
N11875 X-4.0178 Z-0.0149
N11880 X-3.9954 Z-0.0095
N11885 X-3.9707 Z-0.005
N11890 G2 X-3.9091 Z0.0688 I-0.0134 K0.0738
N11895 G1 Z0.155
N11900 X-3.4669
N11905 Z0.08
N11910 Z0.069
N11915 G2 X-3.4043 Z-0.005 I0.075 K0.
N11920 G1 X-3.3948 Z-0.0066
N11925 X-3.3721 Z-0.0111
N11930 X-3.3497 Z-0.0169
N11935 X-3.3278 Z-0.0239
N11940 X-3.3019 Z-0.0338
N11945 X-3.2851 Z-0.0413
N11950 X-3.2605 Z-0.0538
N11955 X-3.2447 Z-0.063
N11960 X-3.2254 Z-0.0755
N11965 X-3.2068 Z-0.0889
N11970 X-3.1896 Z-0.1029
N11975 X-3.1723 Z-0.1183
N11980 X-3.1594 Z-0.1311
N11985 X-3.144 Z-0.1479
N11990 X-3.1194 Z-0.1775
N11995 X-3.1077 Z-0.19
N12000 X-3.0949 Z-0.2017
N12005 X-3.0816 Z-0.2123
N12010 X-3.0673 Z-0.2222
N12015 X-3.0527 Z-0.2307
N12020 X-3.0376 Z-0.2383
N12025 X-3.0219 Z-0.2447
N12030 X-3.006 Z-0.2501
N12035 X-2.9896 Z-0.2543
N12040 X-2.9731 Z-0.2573
N12045 X-2.9565 Z-0.2592
N12050 X-2.9474 Z-0.2597
N12055 X-2.9288 Z-0.2598
N12060 X-2.9103 Z-0.2584
N12065 X-2.8921 Z-0.2556
N12070 X-2.874 Z-0.2515
N12075 X-2.8566 Z-0.246
N12080 X-2.8394 Z-0.2392
N12085 X-2.8231 Z-0.2312
N12090 X-2.8072 Z-0.2219
N12095 X-2.7924 Z-0.2115
N12100 X-2.7781 Z-0.2001
N12105 X-2.7651 Z-0.1877
N12110 X-2.7528 Z-0.1743
N12115 X-2.743 Z-0.1622
N12120 X-2.7257 Z-0.1418
N12125 X-2.7125 Z-0.128
N12130 X-2.6957 Z-0.1118
N12135 X-2.6747 Z-0.094
N12140 X-2.6561 Z-0.08
N12145 X-2.6386 Z-0.0682
N12150 X-2.6206 Z-0.0572
N12155 X-2.5964 Z-0.0444
N12160 X-2.5753 Z-0.0347
N12165 X-2.5597 Z-0.0285
N12170 X-2.536 Z-0.0201
N12175 X-2.5178 Z-0.0149
N12180 X-2.4954 Z-0.0095
N12185 X-2.4707 Z-0.005
N12190 G2 X-2.4091 Z0.0688 I-0.0134 K0.0738
N12195 G1 Z0.155
N12200 X-1.9669
N12205 Z0.08
N12210 Z0.069
N12215 G2 X-1.9043 Z-0.005 I0.075 K0.
N12220 G1 X-1.8948 Z-0.0066
N12225 X-1.8721 Z-0.0111
N12230 X-1.8497 Z-0.0169
N12235 X-1.8278 Z-0.0239
N12240 X-1.8019 Z-0.0338
N12245 X-1.7851 Z-0.0413
N12250 X-1.7605 Z-0.0538
N12255 X-1.7447 Z-0.063
N12260 X-1.7254 Z-0.0755
N12265 X-1.7068 Z-0.0889
N12270 X-1.6896 Z-0.1029
N12275 X-1.6723 Z-0.1183
N12280 X-1.6594 Z-0.1311
N12285 X-1.644 Z-0.1479
N12290 X-1.6194 Z-0.1775
N12295 X-1.6077 Z-0.19
N12300 X-1.5949 Z-0.2017
N12305 X-1.5816 Z-0.2123
N12310 X-1.5673 Z-0.2222
N12315 X-1.5527 Z-0.2307
N12320 X-1.5376 Z-0.2383
N12325 X-1.5219 Z-0.2447
N12330 X-1.506 Z-0.2501
N12335 X-1.4896 Z-0.2543
N12340 X-1.4731 Z-0.2573
N12345 X-1.4565 Z-0.2592
N12350 X-1.4474 Z-0.2597
N12355 X-1.4288 Z-0.2598
N12360 X-1.4103 Z-0.2584
N12365 X-1.3921 Z-0.2556
N12370 X-1.374 Z-0.2515
N12375 X-1.3566 Z-0.246
N12380 X-1.3394 Z-0.2392
N12385 X-1.3231 Z-0.2312
N12390 X-1.3072 Z-0.2219
N12395 X-1.2924 Z-0.2115
N12400 X-1.2781 Z-0.2001
N12405 X-1.2651 Z-0.1877
N12410 X-1.2528 Z-0.1743
N12415 X-1.243 Z-0.1622
N12420 X-1.2257 Z-0.1418
N12425 X-1.2125 Z-0.128
N12430 X-1.1957 Z-0.1118
N12435 X-1.1747 Z-0.094
N12440 X-1.1561 Z-0.08
N12445 X-1.1386 Z-0.0682
N12450 X-1.1205 Z-0.0572
N12455 X-1.0964 Z-0.0444
N12460 X-1.0753 Z-0.0347
N12465 X-1.0597 Z-0.0285
N12470 X-1.036 Z-0.0201
N12475 X-1.0178 Z-0.0149
N12480 X-0.9954 Z-0.0095
N12485 X-0.9707 Z-0.005
N12490 G2 X-0.9091 Z0.0688 I-0.0134 K0.0738
N12495 G1 Z0.155
N12500 X-0.4669
N12505 Z0.08
N12510 Z0.069
N12515 G2 X-0.4043 Z-0.005 I0.075 K0.
N12520 G1 X-0.3948 Z-0.0066
N12525 X-0.3721 Z-0.0111
N12530 X-0.3497 Z-0.0169
N12535 X-0.3278 Z-0.0239
N12540 X-0.3019 Z-0.0338
N12545 X-0.2851 Z-0.0413
N12550 X-0.2605 Z-0.0538
N12555 X-0.2447 Z-0.063
N12560 X-0.2254 Z-0.0755
N12565 X-0.2068 Z-0.0889
N12570 X-0.1896 Z-0.1029
N12575 X-0.1723 Z-0.1183
N12580 X-0.1594 Z-0.1311
N12585 X-0.144 Z-0.1479
N12590 X-0.1194 Z-0.1775
N12595 X-0.1077 Z-0.19
N12600 X-0.0949 Z-0.2017
N12605 X-0.0816 Z-0.2123
N12610 X-0.0673 Z-0.2222
N12615 X-0.0527 Z-0.2307
N12620 X-0.0376 Z-0.2383
N12625 X-0.0219 Z-0.2447
N12630 X-0.006 Z-0.2501
N12635 X0.0104 Z-0.2543
N12640 X0.0269 Z-0.2573
N12645 X0.0435 Z-0.2592
N12650 X0.0526 Z-0.2597
N12655 X0.0712 Z-0.2598
N12660 X0.0897 Z-0.2584
N12665 X0.1079 Z-0.2556
N12670 X0.126 Z-0.2515
N12675 X0.1434 Z-0.246
N12680 X0.1606 Z-0.2392
N12685 X0.1769 Z-0.2312
N12690 X0.1928 Z-0.2219
N12695 X0.2076 Z-0.2115
N12700 X0.2219 Z-0.2001
N12705 X0.2349 Z-0.1877
N12710 X0.2472 Z-0.1743
N12715 X0.257 Z-0.1622
N12720 X0.2743 Z-0.1418
N12725 X0.2875 Z-0.128
N12730 X0.3043 Z-0.1118
N12735 X0.3253 Z-0.094
N12740 X0.3439 Z-0.08
N12745 X0.3614 Z-0.0682
N12750 X0.3795 Z-0.0572
N12755 X0.4036 Z-0.0444
N12760 X0.4247 Z-0.0347
N12765 X0.4403 Z-0.0285
N12770 X0.464 Z-0.0201
N12775 X0.4822 Z-0.0149
N12780 X0.5046 Z-0.0095
N12785 X0.5293 Z-0.005
N12790 G2 X0.5909 Z0.0688 I-0.0134 K0.0738
N12795 G1 Z0.155
N12800 X1.0331
N12805 Z0.08
N12810 Z0.069
N12815 G2 X1.0957 Z-0.005 I0.075 K0.
N12820 G1 X1.1052 Z-0.0066
N12825 X1.1279 Z-0.0111
N12830 X1.1503 Z-0.0169
N12835 X1.1722 Z-0.0239
N12840 X1.1981 Z-0.0338
N12845 X1.2149 Z-0.0413
N12850 X1.2395 Z-0.0538
N12855 X1.2553 Z-0.063
N12860 X1.2746 Z-0.0755
N12865 X1.2932 Z-0.0889
N12870 X1.3104 Z-0.1029
N12875 X1.3277 Z-0.1183
N12880 X1.3406 Z-0.1311
N12885 X1.356 Z-0.1479
N12890 X1.3806 Z-0.1775
N12895 X1.3923 Z-0.19
N12900 X1.4051 Z-0.2017
N12905 X1.4184 Z-0.2123
N12910 X1.4327 Z-0.2222
N12915 X1.4473 Z-0.2307
N12920 X1.4624 Z-0.2383
N12925 X1.4781 Z-0.2447
N12930 X1.494 Z-0.2501
N12935 X1.5104 Z-0.2543
N12940 X1.5269 Z-0.2573
N12945 X1.5435 Z-0.2592
N12950 X1.5526 Z-0.2597
N12955 X1.5712 Z-0.2598
N12960 X1.5897 Z-0.2584
N12965 X1.6079 Z-0.2556
N12970 X1.626 Z-0.2515
N12975 X1.6434 Z-0.246
N12980 X1.6606 Z-0.2392
N12985 X1.6769 Z-0.2312
N12990 X1.6928 Z-0.2219
N12995 X1.7076 Z-0.2115
N13000 X1.7219 Z-0.2001
N13005 X1.7349 Z-0.1877
N13010 X1.7472 Z-0.1743
N13015 X1.757 Z-0.1622
N13020 X1.7743 Z-0.1418
N13025 X1.7875 Z-0.128
N13030 X1.8043 Z-0.1118
N13035 X1.8253 Z-0.094
N13040 X1.8439 Z-0.08
N13045 X1.8614 Z-0.0682
N13050 X1.8795 Z-0.0572
N13055 X1.9036 Z-0.0444
N13060 X1.9247 Z-0.0347
N13065 X1.9403 Z-0.0285
N13070 X1.964 Z-0.0201
N13075 X1.9822 Z-0.0149
N13080 X2.0046 Z-0.0095
N13085 X2.0293 Z-0.005
N13090 G2 X2.0909 Z0.0688 I-0.0134 K0.0738
N13095 G1 Z0.155
N13100 X2.5331
N13105 Z0.08
N13110 Z0.069
N13115 G2 X2.5957 Z-0.005 I0.075 K0.
N13120 G1 X2.6052 Z-0.0066
N13125 X2.6279 Z-0.0111
N13130 X2.6503 Z-0.0169
N13135 X2.6722 Z-0.0239
N13140 X2.6981 Z-0.0338
N13145 X2.7149 Z-0.0413
N13150 X2.7395 Z-0.0538
N13155 X2.7553 Z-0.063
N13160 X2.7746 Z-0.0755
N13165 X2.7932 Z-0.0889
N13170 X2.8104 Z-0.1029
N13175 X2.8277 Z-0.1183
N13180 X2.8406 Z-0.1311
N13185 X2.856 Z-0.1479
N13190 X2.8806 Z-0.1775
N13195 X2.8923 Z-0.19
N13200 X2.9051 Z-0.2017
N13205 X2.9184 Z-0.2123
N13210 X2.9327 Z-0.2222
N13215 X2.9473 Z-0.2307
N13220 X2.9624 Z-0.2383
N13225 X2.9781 Z-0.2447
N13230 X2.994 Z-0.2501
N13235 X3.0104 Z-0.2543
N13240 X3.0269 Z-0.2573
N13245 X3.0435 Z-0.2592
N13250 X3.0526 Z-0.2597
N13255 X3.0712 Z-0.2598
N13260 X3.0897 Z-0.2584
N13265 X3.1079 Z-0.2556
N13270 X3.126 Z-0.2515
N13275 X3.1434 Z-0.246
N13280 X3.1606 Z-0.2392
N13285 X3.1769 Z-0.2312
N13290 X3.1928 Z-0.2219
N13295 X3.2076 Z-0.2115
N13300 X3.2219 Z-0.2001
N13305 X3.2349 Z-0.1877
N13310 X3.2472 Z-0.1743
N13315 X3.257 Z-0.1622
N13320 X3.2743 Z-0.1418
N13325 X3.2875 Z-0.128
N13330 X3.3043 Z-0.1118
N13335 X3.3253 Z-0.094
N13340 X3.3439 Z-0.08
N13345 X3.3614 Z-0.0682
N13350 X3.3795 Z-0.0572
N13355 X3.4036 Z-0.0444
N13360 X3.4247 Z-0.0347
N13365 X3.4403 Z-0.0285
N13370 X3.464 Z-0.0201
N13375 X3.4822 Z-0.0149
N13380 X3.5046 Z-0.0095
N13385 X3.5293 Z-0.005
N13390 G2 X3.5391 Z-0.0018 I-0.0067 K0.0369
N13395 G1 X3.5392 Z-0.0017
N13400 G3 X3.5557 Z0.0021 I0.0165 K-0.0337
N13405 G17 G3 Y-3.84 I0. J0.04
N13410 G1 X3.5439
N13415 G18 G2 X3.5274 Z-0.0017 I0. K-0.0375
N13420 G3 X3.5174 Z-0.005 I-0.0165 K0.0337
N13425 G1 X3.4957 Z-0.0089
N13430 X3.4733 Z-0.0141
N13435 X3.4551 Z-0.0192
N13440 X3.4317 Z-0.0272
N13445 X3.4156 Z-0.0335
N13450 X3.3936 Z-0.0435
N13455 X3.3702 Z-0.0557
N13460 X3.3494 Z-0.0682
N13465 X3.3276 Z-0.0832
N13470 X3.3108 Z-0.0961
N13475 X3.2947 Z-0.1098
N13480 X3.2822 Z-0.1214
N13485 X3.2644 Z-0.1397
N13490 X3.2477 Z-0.1591
N13495 X3.2318 Z-0.178
N13500 X3.2195 Z-0.1903
N13505 X3.2058 Z-0.2022
N13510 X3.1916 Z-0.2126
N13515 X3.1762 Z-0.2222
N13520 X3.1598 Z-0.2306
N13525 X3.1431 Z-0.2377
N13530 X3.1256 Z-0.2435
N13535 X3.1078 Z-0.2477
N13540 X3.0896 Z-0.2507
N13545 X3.0711 Z-0.2521
N13550 X3.0525 Z-0.252
N13555 X3.0435 Z-0.2515
N13560 X3.0269 Z-0.2495
N13565 X3.0104 Z-0.2463
N13570 X2.9942 Z-0.2419
N13575 X2.9783 Z-0.2363
N13580 X2.9629 Z-0.2295
N13585 X2.9478 Z-0.2217
N13590 X2.9336 Z-0.2127
N13595 X2.9198 Z-0.2026
N13600 X2.9064 Z-0.1912
N13605 X2.8942 Z-0.1791
N13610 X2.8773 Z-0.159
N13615 X2.866 Z-0.1457
N13620 X2.8505 Z-0.1291
N13625 X2.8343 Z-0.1134
N13630 X2.817 Z-0.0984
N13635 X2.7989 Z-0.0842
N13640 X2.7792 Z-0.0706
N13645 X2.7607 Z-0.0591
N13650 X2.7406 Z-0.0481
N13655 X2.7198 Z-0.038
N13660 X2.6986 Z-0.0292
N13665 X2.6769 Z-0.0214
N13670 X2.6542 Z-0.0147
N13675 X2.6323 Z-0.0095
N13680 X2.6076 Z-0.005
N13685 G3 X2.5459 Z0.0688 I0.0133 K0.0738
N13690 G1 Z0.155
N13695 X2.0793
N13700 Z0.08
N13705 Z0.0688
N13710 G3 X2.0174 Z-0.005 I-0.075 K0.
N13715 G1 X1.9957 Z-0.0089
N13720 X1.9733 Z-0.0141
N13725 X1.9551 Z-0.0192
N13730 X1.9317 Z-0.0272
N13735 X1.9156 Z-0.0335
N13740 X1.8936 Z-0.0435
N13745 X1.8702 Z-0.0557
N13750 X1.8494 Z-0.0682
N13755 X1.8276 Z-0.0832
N13760 X1.8108 Z-0.0961
N13765 X1.7947 Z-0.1098
N13770 X1.7822 Z-0.1214
N13775 X1.7644 Z-0.1397
N13780 X1.7477 Z-0.1591
N13785 X1.7318 Z-0.178
N13790 X1.7195 Z-0.1903
N13795 X1.7058 Z-0.2022
N13800 X1.6916 Z-0.2126
N13805 X1.6762 Z-0.2222
N13810 X1.6598 Z-0.2306
N13815 X1.6431 Z-0.2377
N13820 X1.6256 Z-0.2435
N13825 X1.6078 Z-0.2477
N13830 X1.5896 Z-0.2507
N13835 X1.5711 Z-0.2521
N13840 X1.5525 Z-0.252
N13845 X1.5435 Z-0.2515
N13850 X1.5269 Z-0.2495
N13855 X1.5104 Z-0.2463
N13860 X1.4942 Z-0.2419
N13865 X1.4783 Z-0.2363
N13870 X1.4629 Z-0.2295
N13875 X1.4478 Z-0.2217
N13880 X1.4336 Z-0.2127
N13885 X1.4198 Z-0.2026
N13890 X1.4064 Z-0.1912
N13895 X1.3942 Z-0.1791
N13900 X1.3773 Z-0.159
N13905 X1.366 Z-0.1457
N13910 X1.3505 Z-0.1291
N13915 X1.3343 Z-0.1134
N13920 X1.317 Z-0.0984
N13925 X1.2989 Z-0.0842
N13930 X1.2792 Z-0.0706
N13935 X1.2607 Z-0.0591
N13940 X1.2406 Z-0.0481
N13945 X1.2198 Z-0.038
N13950 X1.1986 Z-0.0292
N13955 X1.1769 Z-0.0214
N13960 X1.1542 Z-0.0147
N13965 X1.1323 Z-0.0095
N13970 X1.1076 Z-0.005
N13975 G3 X1.0459 Z0.0688 I0.0133 K0.0738
N13980 G1 Z0.155
N13985 X0.5793
N13990 Z0.08
N13995 Z0.0688
N14000 G3 X0.5174 Z-0.005 I-0.075 K0.
N14005 G1 X0.4957 Z-0.0089
N14010 X0.4733 Z-0.0141
N14015 X0.4551 Z-0.0192
N14020 X0.4317 Z-0.0272
N14025 X0.4156 Z-0.0335
N14030 X0.3936 Z-0.0435
N14035 X0.3702 Z-0.0557
N14040 X0.3494 Z-0.0682
N14045 X0.3276 Z-0.0832
N14050 X0.3108 Z-0.0961
N14055 X0.2947 Z-0.1098
N14060 X0.2822 Z-0.1214
N14065 X0.2644 Z-0.1397
N14070 X0.2477 Z-0.1591
N14075 X0.2318 Z-0.178
N14080 X0.2195 Z-0.1903
N14085 X0.2058 Z-0.2022
N14090 X0.1916 Z-0.2126
N14095 X0.1762 Z-0.2222
N14100 X0.1598 Z-0.2306
N14105 X0.1431 Z-0.2377
N14110 X0.1256 Z-0.2435
N14115 X0.1078 Z-0.2477
N14120 X0.0896 Z-0.2507
N14125 X0.0711 Z-0.2521
N14130 X0.0525 Z-0.252
N14135 X0.0435 Z-0.2515
N14140 X0.0269 Z-0.2495
N14145 X0.0104 Z-0.2463
N14150 X-0.0058 Z-0.2419
N14155 X-0.0217 Z-0.2363
N14160 X-0.0371 Z-0.2295
N14165 X-0.0522 Z-0.2217
N14170 X-0.0664 Z-0.2127
N14175 X-0.0802 Z-0.2026
N14180 X-0.0936 Z-0.1912
N14185 X-0.1058 Z-0.1791
N14190 X-0.1227 Z-0.159
N14195 X-0.134 Z-0.1457
N14200 X-0.1495 Z-0.1291
N14205 X-0.1657 Z-0.1134
N14210 X-0.183 Z-0.0984
N14215 X-0.2011 Z-0.0842
N14220 X-0.2208 Z-0.0706
N14225 X-0.2393 Z-0.0591
N14230 X-0.2594 Z-0.0481
N14235 X-0.2802 Z-0.038
N14240 X-0.3014 Z-0.0292
N14245 X-0.3231 Z-0.0214
N14250 X-0.3458 Z-0.0147
N14255 X-0.3677 Z-0.0095
N14260 X-0.3924 Z-0.005
N14265 G3 X-0.4541 Z0.0688 I0.0133 K0.0738
N14270 G1 Z0.155
N14275 X-0.9207
N14280 Z0.08
N14285 Z0.0688
N14290 G3 X-0.9826 Z-0.005 I-0.075 K0.
N14295 G1 X-1.0043 Z-0.0089
N14300 X-1.0267 Z-0.0141
N14305 X-1.0449 Z-0.0192
N14310 X-1.0683 Z-0.0272
N14315 X-1.0844 Z-0.0335
N14320 X-1.1064 Z-0.0435
N14325 X-1.1298 Z-0.0557
N14330 X-1.1506 Z-0.0682
N14335 X-1.1724 Z-0.0832
N14340 X-1.1892 Z-0.0961
N14345 X-1.2053 Z-0.1098
N14350 X-1.2178 Z-0.1214
N14355 X-1.2356 Z-0.1397
N14360 X-1.2523 Z-0.1591
N14365 X-1.2682 Z-0.178
N14370 X-1.2805 Z-0.1903
N14375 X-1.2942 Z-0.2022
N14380 X-1.3084 Z-0.2126
N14385 X-1.3238 Z-0.2222
N14390 X-1.3402 Z-0.2306
N14395 X-1.3569 Z-0.2377
N14400 X-1.3744 Z-0.2435
N14405 X-1.3922 Z-0.2477
N14410 X-1.4104 Z-0.2507
N14415 X-1.4289 Z-0.2521
N14420 X-1.4475 Z-0.252
N14425 X-1.4565 Z-0.2515
N14430 X-1.4731 Z-0.2495
N14435 X-1.4896 Z-0.2463
N14440 X-1.5058 Z-0.2419
N14445 X-1.5217 Z-0.2363
N14450 X-1.5371 Z-0.2295
N14455 X-1.5522 Z-0.2217
N14460 X-1.5664 Z-0.2127
N14465 X-1.5802 Z-0.2026
N14470 X-1.5936 Z-0.1912
N14475 X-1.6058 Z-0.1791
N14480 X-1.6227 Z-0.159
N14485 X-1.634 Z-0.1457
N14490 X-1.6495 Z-0.1291
N14495 X-1.6657 Z-0.1134
N14500 X-1.683 Z-0.0984
N14505 X-1.7011 Z-0.0842
N14510 X-1.7208 Z-0.0706
N14515 X-1.7393 Z-0.0591
N14520 X-1.7594 Z-0.0481
N14525 X-1.7802 Z-0.038
N14530 X-1.8014 Z-0.0292
N14535 X-1.8231 Z-0.0214
N14540 X-1.8458 Z-0.0147
N14545 X-1.8677 Z-0.0095
N14550 X-1.8924 Z-0.005
N14555 G3 X-1.9541 Z0.0688 I0.0133 K0.0738
N14560 G1 Z0.155
N14565 X-2.4207
N14570 Z0.08
N14575 Z0.0688
N14580 G3 X-2.4826 Z-0.005 I-0.075 K0.
N14585 G1 X-2.5043 Z-0.0089
N14590 X-2.5267 Z-0.0141
N14595 X-2.5449 Z-0.0192
N14600 X-2.5683 Z-0.0272
N14605 X-2.5844 Z-0.0335
N14610 X-2.6064 Z-0.0435
N14615 X-2.6298 Z-0.0557
N14620 X-2.6506 Z-0.0682
N14625 X-2.6724 Z-0.0832
N14630 X-2.6892 Z-0.0961
N14635 X-2.7053 Z-0.1098
N14640 X-2.7178 Z-0.1214
N14645 X-2.7356 Z-0.1397
N14650 X-2.7523 Z-0.1591
N14655 X-2.7682 Z-0.178
N14660 X-2.7805 Z-0.1903
N14665 X-2.7942 Z-0.2022
N14670 X-2.8084 Z-0.2126
N14675 X-2.8238 Z-0.2222
N14680 X-2.8402 Z-0.2306
N14685 X-2.8569 Z-0.2377
N14690 X-2.8744 Z-0.2435
N14695 X-2.8922 Z-0.2477
N14700 X-2.9104 Z-0.2507
N14705 X-2.9289 Z-0.2521
N14710 X-2.9475 Z-0.252
N14715 X-2.9565 Z-0.2515
N14720 X-2.9731 Z-0.2495
N14725 X-2.9896 Z-0.2463
N14730 X-3.0058 Z-0.2419
N14735 X-3.0217 Z-0.2363
N14740 X-3.0371 Z-0.2295
N14745 X-3.0522 Z-0.2217
N14750 X-3.0664 Z-0.2127
N14755 X-3.0802 Z-0.2026
N14760 X-3.0936 Z-0.1912
N14765 X-3.1058 Z-0.1791
N14770 X-3.1227 Z-0.159
N14775 X-3.134 Z-0.1457
N14780 X-3.1495 Z-0.1291
N14785 X-3.1657 Z-0.1134
N14790 X-3.183 Z-0.0984
N14795 X-3.2011 Z-0.0842
N14800 X-3.2208 Z-0.0706
N14805 X-3.2393 Z-0.0591
N14810 X-3.2594 Z-0.0481
N14815 X-3.2802 Z-0.038
N14820 X-3.3014 Z-0.0292
N14825 X-3.3231 Z-0.0214
N14830 X-3.3458 Z-0.0147
N14835 X-3.3677 Z-0.0095
N14840 X-3.3924 Z-0.005
N14845 G3 X-3.4541 Z0.0688 I0.0133 K0.0738
N14850 G1 Z0.155
N14855 X-3.9207
N14860 Z0.08
N14865 Z0.0688
N14870 G3 X-3.9826 Z-0.005 I-0.075 K0.
N14875 G1 X-4.0043 Z-0.0089
N14880 X-4.0267 Z-0.0141
N14885 X-4.0449 Z-0.0192
N14890 X-4.0683 Z-0.0272
N14895 X-4.0844 Z-0.0335
N14900 X-4.1064 Z-0.0435
N14905 X-4.1298 Z-0.0557
N14910 X-4.1506 Z-0.0682
N14915 X-4.1724 Z-0.0832
N14920 X-4.1892 Z-0.0961
N14925 X-4.2053 Z-0.1098
N14930 X-4.2178 Z-0.1214
N14935 X-4.2356 Z-0.1397
N14940 X-4.2523 Z-0.1591
N14945 X-4.2682 Z-0.178
N14950 X-4.2805 Z-0.1903
N14955 X-4.2942 Z-0.2022
N14960 X-4.3084 Z-0.2126
N14965 X-4.3238 Z-0.2222
N14970 X-4.3402 Z-0.2306
N14975 X-4.3569 Z-0.2377
N14980 X-4.3744 Z-0.2435
N14985 X-4.3922 Z-0.2477
N14990 X-4.4104 Z-0.2507
N14995 X-4.4289 Z-0.2521
N15000 X-4.4475 Z-0.252
N15005 X-4.4565 Z-0.2515
N15010 X-4.4731 Z-0.2495
N15015 X-4.4896 Z-0.2463
N15020 X-4.5058 Z-0.2419
N15025 X-4.5217 Z-0.2363
N15030 X-4.5371 Z-0.2295
N15035 X-4.5522 Z-0.2217
N15040 X-4.5664 Z-0.2127
N15045 X-4.5802 Z-0.2026
N15050 X-4.5936 Z-0.1912
N15055 X-4.6058 Z-0.1791
N15060 X-4.6227 Z-0.159
N15065 X-4.634 Z-0.1457
N15070 X-4.6495 Z-0.1291
N15075 X-4.6657 Z-0.1134
N15080 X-4.683 Z-0.0984
N15085 X-4.7011 Z-0.0842
N15090 X-4.7208 Z-0.0706
N15095 X-4.7393 Z-0.0591
N15100 X-4.7594 Z-0.0481
N15105 X-4.7802 Z-0.038
N15110 X-4.8014 Z-0.0292
N15115 X-4.8231 Z-0.0214
N15120 X-4.8458 Z-0.0147
N15125 X-4.8677 Z-0.0095
N15130 X-4.8924 Z-0.005
N15135 G3 X-4.9541 Z0.0688 I0.0133 K0.0738
N15140 G1 Z0.155
N15145 X-5.4207
N15150 Z0.08
N15155 Z0.0688
N15160 G3 X-5.4826 Z-0.005 I-0.075 K0.
N15165 G1 X-5.5043 Z-0.0089
N15170 X-5.5267 Z-0.0141
N15175 X-5.5449 Z-0.0192
N15180 X-5.5683 Z-0.0272
N15185 X-5.5844 Z-0.0335
N15190 X-5.6064 Z-0.0435
N15195 X-5.6298 Z-0.0557
N15200 X-5.6506 Z-0.0682
N15205 X-5.6724 Z-0.0832
N15210 X-5.6892 Z-0.0961
N15215 X-5.7053 Z-0.1098
N15220 X-5.7178 Z-0.1214
N15225 X-5.7356 Z-0.1397
N15230 X-5.7523 Z-0.1591
N15235 X-5.7682 Z-0.178
N15240 X-5.7805 Z-0.1903
N15245 X-5.7942 Z-0.2022
N15250 X-5.8084 Z-0.2126
N15255 X-5.8238 Z-0.2222
N15260 X-5.8402 Z-0.2306
N15265 X-5.8569 Z-0.2377
N15270 X-5.8744 Z-0.2435
N15275 X-5.8922 Z-0.2477
N15280 X-5.9104 Z-0.2507
N15285 X-5.9289 Z-0.2521
N15290 X-5.9475 Z-0.252
N15295 X-5.9565 Z-0.2515
N15300 X-5.9731 Z-0.2495
N15305 X-5.9896 Z-0.2463
N15310 X-6.0058 Z-0.2419
N15315 X-6.0217 Z-0.2363
N15320 X-6.0371 Z-0.2295
N15325 X-6.0522 Z-0.2217
N15330 X-6.0664 Z-0.2127
N15335 X-6.0802 Z-0.2026
N15340 X-6.0936 Z-0.1912
N15345 X-6.1058 Z-0.1791
N15350 X-6.1227 Z-0.159
N15355 X-6.134 Z-0.1457
N15360 X-6.1495 Z-0.1291
N15365 X-6.1657 Z-0.1134
N15370 X-6.183 Z-0.0984
N15375 X-6.2011 Z-0.0842
N15380 X-6.2208 Z-0.0706
N15385 X-6.2393 Z-0.0591
N15390 X-6.2594 Z-0.0481
N15395 X-6.2802 Z-0.038
N15400 X-6.3014 Z-0.0292
N15405 X-6.3231 Z-0.0214
N15410 X-6.3458 Z-0.0147
N15415 X-6.3677 Z-0.0095
N15420 X-6.3924 Z-0.005
N15425 G3 X-6.4541 Z0.0688 I0.0133 K0.0738
N15430 G1 Z0.155
N15435 X-6.9207
N15440 Z0.08
N15445 Z0.0688
N15450 G3 X-6.9826 Z-0.005 I-0.075 K0.
N15455 G1 X-7.0043 Z-0.0089
N15460 X-7.0267 Z-0.0141
N15465 X-7.0449 Z-0.0192
N15470 X-7.0683 Z-0.0272
N15475 X-7.0844 Z-0.0335
N15480 X-7.1064 Z-0.0435
N15485 X-7.1298 Z-0.0557
N15490 X-7.1506 Z-0.0682
N15495 X-7.1724 Z-0.0832
N15500 X-7.1892 Z-0.0961
N15505 X-7.2053 Z-0.1098
N15510 X-7.2178 Z-0.1214
N15515 X-7.2356 Z-0.1397
N15520 X-7.2523 Z-0.1591
N15525 X-7.2682 Z-0.178
N15530 X-7.2805 Z-0.1903
N15535 X-7.2942 Z-0.2022
N15540 X-7.3084 Z-0.2126
N15545 X-7.3238 Z-0.2222
N15550 X-7.3402 Z-0.2306
N15555 X-7.3569 Z-0.2377
N15560 X-7.3744 Z-0.2435
N15565 X-7.3922 Z-0.2477
N15570 X-7.4104 Z-0.2507
N15575 X-7.4289 Z-0.2521
N15580 X-7.4475 Z-0.252
N15585 X-7.4565 Z-0.2515
N15590 X-7.4731 Z-0.2495
N15595 X-7.4896 Z-0.2463
N15600 X-7.5058 Z-0.2419
N15605 X-7.5217 Z-0.2363
N15610 X-7.5371 Z-0.2295
N15615 X-7.5522 Z-0.2217
N15620 X-7.5664 Z-0.2127
N15625 X-7.5802 Z-0.2026
N15630 X-7.5936 Z-0.1912
N15635 X-7.6058 Z-0.1791
N15640 X-7.6227 Z-0.159
N15645 X-7.634 Z-0.1457
N15650 X-7.6495 Z-0.1291
N15655 X-7.6657 Z-0.1134
N15660 X-7.683 Z-0.0984
N15665 X-7.7011 Z-0.0842
N15670 X-7.7208 Z-0.0706
N15675 X-7.7393 Z-0.0591
N15680 X-7.7594 Z-0.0481
N15685 X-7.7802 Z-0.038
N15690 X-7.8014 Z-0.0292
N15695 X-7.8231 Z-0.0214
N15700 X-7.8458 Z-0.0147
N15705 X-7.8677 Z-0.0095
N15710 X-7.8924 Z-0.005
N15715 G3 X-7.9023 Z-0.0018 I0.0067 K0.0369
N15720 G1 X-7.9025 Z-0.0017
N15725 G2 X-7.919 Z0.0022 I-0.0165 K-0.0337
N15730 G17 G2 Y-3.76 I0. J0.04
N15735 G1 X-7.9075
N15740 G18 G3 X-7.891 Z-0.0017 I0. K-0.0375
N15745 G2 X-7.8805 Z-0.005 I0.0165 K0.0337
N15750 G1 X-7.8762 Z-0.0057
N15755 X-7.8523 Z-0.0102
N15760 X-7.8343 Z-0.0146
N15765 X-7.8166 Z-0.0197
N15770 X-7.795 Z-0.0272
N15775 X-7.7733 Z-0.0358
N15780 X-7.7526 Z-0.0456
N15785 X-7.7323 Z-0.0563
N15790 X-7.7165 Z-0.0657
N15795 X-7.7011 Z-0.0758
N15800 X-7.6863 Z-0.0864
N15805 X-7.6683 Z-0.1007
N15810 X-7.6512 Z-0.1158
N15815 X-7.6382 Z-0.1285
N15820 X-7.6203 Z-0.1478
N15825 X-7.6066 Z-0.1642
N15830 X-7.5922 Z-0.1802
N15835 X-7.5794 Z-0.1921
N15840 X-7.5661 Z-0.2026
N15845 X-7.5518 Z-0.2121
N15850 X-7.5371 Z-0.2205
N15855 X-7.5217 Z-0.2276
N15860 X-7.5058 Z-0.2337
N15865 X-7.4896 Z-0.2383
N15870 X-7.4731 Z-0.2417
N15875 X-7.4565 Z-0.2437
N15880 X-7.4448 Z-0.2444
N15885 X-7.4262 Z-0.2442
N15890 X-7.4078 Z-0.2425
N15895 X-7.3896 Z-0.2393
N15900 X-7.3718 Z-0.2345
N15905 X-7.3547 Z-0.2282
N15910 X-7.3383 Z-0.2208
N15915 X-7.3225 Z-0.2117
N15920 X-7.3076 Z-0.2016
N15925 X-7.2934 Z-0.1902
N15930 X-7.2803 Z-0.1777
N15935 X-7.2696 Z-0.1658
N15940 X-7.2642 Z-0.159
N15945 X-7.2474 Z-0.1397
N15950 X-7.2296 Z-0.1214
N15955 X-7.2172 Z-0.1097
N15960 X-7.2027 Z-0.0974
N15965 X-7.1843 Z-0.0831
N15970 X-7.1627 Z-0.0684
N15975 X-7.1417 Z-0.0557
N15980 X-7.1183 Z-0.0435
N15985 X-7.0963 Z-0.0335
N15990 X-7.0806 Z-0.0274
N15995 X-7.0568 Z-0.0192
N16000 X-7.0396 Z-0.0143
N16005 X-7.0162 Z-0.0088
N16010 X-6.9945 Z-0.005
N16015 G2 X-6.9325 Z0.0688 I-0.0131 K0.0739
N16020 G1 Z0.155
N16025 X-6.4424
N16030 Z0.08
N16035 Z0.0688
N16040 G2 X-6.3805 Z-0.005 I0.075 K0.
N16045 G1 X-6.3585 Z-0.0089
N16050 X-6.336 Z-0.0142
N16055 X-6.3138 Z-0.0206
N16060 X-6.2921 Z-0.0283
N16065 X-6.2708 Z-0.0369
N16070 X-6.25 Z-0.0469
N16075 X-6.2297 Z-0.0577
N16080 X-6.2103 Z-0.0698
N16085 X-6.1914 Z-0.0826
N16090 X-6.1768 Z-0.0938
N16095 X-6.1627 Z-0.1055
N16100 X-6.1492 Z-0.1176
N16105 X-6.1363 Z-0.1305
N16110 X-6.1208 Z-0.1472
N16115 X-6.1073 Z-0.1634
N16120 X-6.0957 Z-0.1767
N16125 X-6.0834 Z-0.1886
N16130 X-6.0701 Z-0.1996
N16135 X-6.0563 Z-0.2094
N16140 X-6.0416 Z-0.2181
N16145 X-6.0262 Z-0.2258
N16150 X-6.0105 Z-0.232
N16155 X-5.9943 Z-0.2371
N16160 X-5.978 Z-0.2408
N16165 X-5.9613 Z-0.2433
N16170 X-5.9519 Z-0.2441
N16175 X-5.9424 Z-0.2445
N16180 X-5.9238 Z-0.2441
N16185 X-5.9054 Z-0.2422
N16190 X-5.8874 Z-0.2388
N16195 X-5.8696 Z-0.2338
N16200 X-5.8525 Z-0.2273
N16205 X-5.8361 Z-0.2196
N16210 X-5.8203 Z-0.2104
N16215 X-5.8054 Z-0.2
N16220 X-5.7918 Z-0.1887
N16225 X-5.7788 Z-0.1761
N16230 X-5.7683 Z-0.1642
N16235 X-5.7574 Z-0.151
N16240 X-5.7461 Z-0.1382
N16245 X-5.7282 Z-0.1199
N16250 X-5.7157 Z-0.1084
N16255 X-5.7019 Z-0.0968
N16260 X-5.6827 Z-0.0819
N16265 X-5.6688 Z-0.0724
N16270 X-5.6472 Z-0.0589
N16275 X-5.6325 Z-0.0507
N16280 X-5.6099 Z-0.0395
N16285 X-5.5945 Z-0.0328
N16290 X-5.5778 Z-0.0264
N16295 X-5.5549 Z-0.0186
N16300 X-5.5377 Z-0.0138
N16305 X-5.5142 Z-0.0085
N16310 X-5.4945 Z-0.005
N16315 G2 X-5.4324 Z0.0689 I-0.0129 K0.0739
N16320 G1 Z0.155
N16325 X-4.9434
N16330 Z0.08
N16335 Z0.069
N16340 G2 X-4.8805 Z-0.005 I0.075 K0.
N16345 G1 X-4.8761 Z-0.0057
N16350 X-4.8523 Z-0.0102
N16355 X-4.8343 Z-0.0146
N16360 X-4.8166 Z-0.0197
N16365 X-4.795 Z-0.0272
N16370 X-4.7733 Z-0.0358
N16375 X-4.7526 Z-0.0456
N16380 X-4.7323 Z-0.0563
N16385 X-4.7165 Z-0.0657
N16390 X-4.7011 Z-0.0758
N16395 X-4.6863 Z-0.0864
N16400 X-4.6683 Z-0.1007
N16405 X-4.6512 Z-0.1158
N16410 X-4.6382 Z-0.1285
N16415 X-4.6203 Z-0.1478
N16420 X-4.6066 Z-0.1642
N16425 X-4.5922 Z-0.1802
N16430 X-4.5794 Z-0.1921
N16435 X-4.5661 Z-0.2026
N16440 X-4.5518 Z-0.2121
N16445 X-4.5371 Z-0.2205
N16450 X-4.5217 Z-0.2276
N16455 X-4.5058 Z-0.2337
N16460 X-4.4896 Z-0.2383
N16465 X-4.4731 Z-0.2417
N16470 X-4.4565 Z-0.2437
N16475 X-4.4448 Z-0.2444
N16480 X-4.4262 Z-0.2442
N16485 X-4.4078 Z-0.2425
N16490 X-4.3896 Z-0.2393
N16495 X-4.3718 Z-0.2345
N16500 X-4.3547 Z-0.2282
N16505 X-4.3383 Z-0.2208
N16510 X-4.3225 Z-0.2117
N16515 X-4.3076 Z-0.2016
N16520 X-4.2934 Z-0.1902
N16525 X-4.2803 Z-0.1777
N16530 X-4.2696 Z-0.1658
N16535 X-4.2642 Z-0.159
N16540 X-4.2474 Z-0.1397
N16545 X-4.2296 Z-0.1214
N16550 X-4.2172 Z-0.1097
N16555 X-4.2027 Z-0.0974
N16560 X-4.1843 Z-0.0831
N16565 X-4.1627 Z-0.0684
N16570 X-4.1417 Z-0.0557
N16575 X-4.1183 Z-0.0435
N16580 X-4.0963 Z-0.0335
N16585 X-4.0806 Z-0.0274
N16590 X-4.0568 Z-0.0192
N16595 X-4.0396 Z-0.0143
N16600 X-4.0162 Z-0.0088
N16605 X-3.9945 Z-0.005
N16610 G2 X-3.9325 Z0.0688 I-0.0131 K0.0739
N16615 G1 Z0.155
N16620 X-3.4424
N16625 Z0.08
N16630 Z0.0688
N16635 G2 X-3.3805 Z-0.005 I0.075 K0.
N16640 G1 X-3.3585 Z-0.0089
N16645 X-3.336 Z-0.0142
N16650 X-3.3138 Z-0.0206
N16655 X-3.2921 Z-0.0283
N16660 X-3.2708 Z-0.0369
N16665 X-3.25 Z-0.0469
N16670 X-3.2297 Z-0.0577
N16675 X-3.2103 Z-0.0698
N16680 X-3.1914 Z-0.0826
N16685 X-3.1768 Z-0.0938
N16690 X-3.1627 Z-0.1055
N16695 X-3.1492 Z-0.1176
N16700 X-3.1363 Z-0.1305
N16705 X-3.1208 Z-0.1472
N16710 X-3.1073 Z-0.1634
N16715 X-3.0957 Z-0.1767
N16720 X-3.0834 Z-0.1886
N16725 X-3.0701 Z-0.1996
N16730 X-3.0563 Z-0.2094
N16735 X-3.0416 Z-0.2181
N16740 X-3.0262 Z-0.2258
N16745 X-3.0105 Z-0.232
N16750 X-2.9943 Z-0.2371
N16755 X-2.978 Z-0.2408
N16760 X-2.9613 Z-0.2433
N16765 X-2.9519 Z-0.2441
N16770 X-2.9424 Z-0.2445
N16775 X-2.9238 Z-0.2441
N16780 X-2.9054 Z-0.2422
N16785 X-2.8874 Z-0.2388
N16790 X-2.8696 Z-0.2338
N16795 X-2.8525 Z-0.2273
N16800 X-2.8361 Z-0.2196
N16805 X-2.8203 Z-0.2104
N16810 X-2.8054 Z-0.2
N16815 X-2.7918 Z-0.1887
N16820 X-2.7788 Z-0.1761
N16825 X-2.7683 Z-0.1642
N16830 X-2.7574 Z-0.151
N16835 X-2.7461 Z-0.1382
N16840 X-2.7282 Z-0.1199
N16845 X-2.7157 Z-0.1084
N16850 X-2.7019 Z-0.0968
N16855 X-2.6827 Z-0.0819
N16860 X-2.6688 Z-0.0724
N16865 X-2.6472 Z-0.0589
N16870 X-2.6325 Z-0.0507
N16875 X-2.6099 Z-0.0395
N16880 X-2.5945 Z-0.0328
N16885 X-2.5778 Z-0.0264
N16890 X-2.5549 Z-0.0186
N16895 X-2.5377 Z-0.0138
N16900 X-2.5142 Z-0.0085
N16905 X-2.4945 Z-0.005
N16910 G2 X-2.4324 Z0.0689 I-0.0129 K0.0739
N16915 G1 Z0.155
N16920 X-1.9424
N16925 Z0.08
N16930 Z0.0688
N16935 G2 X-1.8805 Z-0.005 I0.075 K0.
N16940 G1 X-1.8585 Z-0.0089
N16945 X-1.836 Z-0.0142
N16950 X-1.8138 Z-0.0206
N16955 X-1.7921 Z-0.0283
N16960 X-1.7708 Z-0.0369
N16965 X-1.75 Z-0.0469
N16970 X-1.7297 Z-0.0577
N16975 X-1.7103 Z-0.0698
N16980 X-1.6914 Z-0.0826
N16985 X-1.6768 Z-0.0938
N16990 X-1.6627 Z-0.1055
N16995 X-1.6492 Z-0.1176
N17000 X-1.6363 Z-0.1305
N17005 X-1.6208 Z-0.1472
N17010 X-1.6073 Z-0.1634
N17015 X-1.5957 Z-0.1767
N17020 X-1.5834 Z-0.1886
N17025 X-1.5701 Z-0.1996
N17030 X-1.5563 Z-0.2094
N17035 X-1.5416 Z-0.2181
N17040 X-1.5262 Z-0.2258
N17045 X-1.5105 Z-0.232
N17050 X-1.4943 Z-0.2371
N17055 X-1.478 Z-0.2408
N17060 X-1.4613 Z-0.2433
N17065 X-1.4519 Z-0.2441
N17070 X-1.4424 Z-0.2445
N17075 X-1.4238 Z-0.2441
N17080 X-1.4054 Z-0.2422
N17085 X-1.3874 Z-0.2388
N17090 X-1.3696 Z-0.2338
N17095 X-1.3525 Z-0.2273
N17100 X-1.3361 Z-0.2196
N17105 X-1.3203 Z-0.2104
N17110 X-1.3054 Z-0.2
N17115 X-1.2918 Z-0.1887
N17120 X-1.2788 Z-0.1761
N17125 X-1.2683 Z-0.1642
N17130 X-1.2574 Z-0.151
N17135 X-1.2461 Z-0.1382
N17140 X-1.2282 Z-0.1199
N17145 X-1.2157 Z-0.1084
N17150 X-1.2019 Z-0.0968
N17155 X-1.1827 Z-0.0819
N17160 X-1.1688 Z-0.0724
N17165 X-1.1472 Z-0.0589
N17170 X-1.1325 Z-0.0507
N17175 X-1.1099 Z-0.0395
N17180 X-1.0945 Z-0.0328
N17185 X-1.0778 Z-0.0264
N17190 X-1.0549 Z-0.0186
N17195 X-1.0377 Z-0.0138
N17200 X-1.0142 Z-0.0085
N17205 X-0.9945 Z-0.005
N17210 G2 X-0.9324 Z0.0689 I-0.0129 K0.0739
N17215 G1 Z0.155
N17220 X-0.4424
N17225 Z0.08
N17230 Z0.0688
N17235 G2 X-0.3805 Z-0.005 I0.075 K0.
N17240 G1 X-0.3585 Z-0.0089
N17245 X-0.336 Z-0.0142
N17250 X-0.3138 Z-0.0206
N17255 X-0.2921 Z-0.0283
N17260 X-0.2708 Z-0.0369
N17265 X-0.25 Z-0.0469
N17270 X-0.2297 Z-0.0577
N17275 X-0.2103 Z-0.0698
N17280 X-0.1914 Z-0.0826
N17285 X-0.1768 Z-0.0938
N17290 X-0.1627 Z-0.1055
N17295 X-0.1492 Z-0.1176
N17300 X-0.1363 Z-0.1305
N17305 X-0.1208 Z-0.1472
N17310 X-0.1073 Z-0.1634
N17315 X-0.0957 Z-0.1767
N17320 X-0.0834 Z-0.1886
N17325 X-0.0701 Z-0.1996
N17330 X-0.0563 Z-0.2094
N17335 X-0.0416 Z-0.2181
N17340 X-0.0262 Z-0.2258
N17345 X-0.0105 Z-0.232
N17350 X0.0057 Z-0.2371
N17355 X0.022 Z-0.2408
N17360 X0.0387 Z-0.2433
N17365 X0.0481 Z-0.2441
N17370 X0.0576 Z-0.2445
N17375 X0.0762 Z-0.2441
N17380 X0.0946 Z-0.2422
N17385 X0.1126 Z-0.2388
N17390 X0.1304 Z-0.2338
N17395 X0.1475 Z-0.2273
N17400 X0.1639 Z-0.2196
N17405 X0.1797 Z-0.2104
N17410 X0.1946 Z-0.2
N17415 X0.2082 Z-0.1887
N17420 X0.2212 Z-0.1761
N17425 X0.2317 Z-0.1642
N17430 X0.2426 Z-0.151
N17435 X0.2539 Z-0.1382
N17440 X0.2718 Z-0.1199
N17445 X0.2843 Z-0.1084
N17450 X0.2981 Z-0.0968
N17455 X0.3173 Z-0.0819
N17460 X0.3312 Z-0.0724
N17465 X0.3528 Z-0.0589
N17470 X0.3675 Z-0.0507
N17475 X0.3901 Z-0.0395
N17480 X0.4055 Z-0.0328
N17485 X0.4222 Z-0.0264
N17490 X0.4451 Z-0.0186
N17495 X0.4623 Z-0.0138
N17500 X0.4858 Z-0.0085
N17505 X0.5055 Z-0.005
N17510 G2 X0.5676 Z0.0689 I-0.0129 K0.0739
N17515 G1 Z0.155
N17520 X1.0576
N17525 Z0.08
N17530 Z0.0688
N17535 G2 X1.1195 Z-0.005 I0.075 K0.
N17540 G1 X1.1415 Z-0.0089
N17545 X1.164 Z-0.0142
N17550 X1.1862 Z-0.0206
N17555 X1.2079 Z-0.0283
N17560 X1.2292 Z-0.0369
N17565 X1.25 Z-0.0469
N17570 X1.2703 Z-0.0577
N17575 X1.2897 Z-0.0698
N17580 X1.3086 Z-0.0826
N17585 X1.3232 Z-0.0938
N17590 X1.3373 Z-0.1055
N17595 X1.3508 Z-0.1176
N17600 X1.3637 Z-0.1305
N17605 X1.3792 Z-0.1472
N17610 X1.3927 Z-0.1634
N17615 X1.4043 Z-0.1767
N17620 X1.4166 Z-0.1886
N17625 X1.4299 Z-0.1996
N17630 X1.4437 Z-0.2094
N17635 X1.4584 Z-0.2181
N17640 X1.4738 Z-0.2258
N17645 X1.4895 Z-0.232
N17650 X1.5057 Z-0.2371
N17655 X1.522 Z-0.2408
N17660 X1.5387 Z-0.2433
N17665 X1.5481 Z-0.2441
N17670 X1.5576 Z-0.2445
N17675 X1.5762 Z-0.2441
N17680 X1.5946 Z-0.2422
N17685 X1.6126 Z-0.2388
N17690 X1.6304 Z-0.2338
N17695 X1.6475 Z-0.2273
N17700 X1.6639 Z-0.2196
N17705 X1.6797 Z-0.2104
N17710 X1.6946 Z-0.2
N17715 X1.7082 Z-0.1887
N17720 X1.7212 Z-0.1761
N17725 X1.7317 Z-0.1642
N17730 X1.7426 Z-0.151
N17735 X1.7539 Z-0.1382
N17740 X1.7718 Z-0.1199
N17745 X1.7843 Z-0.1084
N17750 X1.7981 Z-0.0968
N17755 X1.8173 Z-0.0819
N17760 X1.8312 Z-0.0724
N17765 X1.8528 Z-0.0589
N17770 X1.8675 Z-0.0507
N17775 X1.8901 Z-0.0395
N17780 X1.9055 Z-0.0328
N17785 X1.9222 Z-0.0264
N17790 X1.9451 Z-0.0186
N17795 X1.9623 Z-0.0138
N17800 X1.9858 Z-0.0085
N17805 X2.0055 Z-0.005
N17810 G2 X2.0676 Z0.0689 I-0.0129 K0.0739
N17815 G1 Z0.155
N17820 X2.5576
N17825 Z0.08
N17830 Z0.0688
N17835 G2 X2.6195 Z-0.005 I0.075 K0.
N17840 G1 X2.6415 Z-0.0089
N17845 X2.664 Z-0.0142
N17850 X2.6862 Z-0.0206
N17855 X2.7079 Z-0.0283
N17860 X2.7292 Z-0.0369
N17865 X2.75 Z-0.0469
N17870 X2.7703 Z-0.0577
N17875 X2.7897 Z-0.0698
N17880 X2.8086 Z-0.0826
N17885 X2.8232 Z-0.0938
N17890 X2.8373 Z-0.1055
N17895 X2.8508 Z-0.1176
N17900 X2.8637 Z-0.1305
N17905 X2.8792 Z-0.1472
N17910 X2.8927 Z-0.1634
N17915 X2.9043 Z-0.1767
N17920 X2.9166 Z-0.1886
N17925 X2.9299 Z-0.1996
N17930 X2.9437 Z-0.2094
N17935 X2.9584 Z-0.2181
N17940 X2.9738 Z-0.2258
N17945 X2.9895 Z-0.232
N17950 X3.0057 Z-0.2371
N17955 X3.022 Z-0.2408
N17960 X3.0387 Z-0.2433
N17965 X3.0481 Z-0.2441
N17970 X3.0576 Z-0.2445
N17975 X3.0762 Z-0.2441
N17980 X3.0946 Z-0.2422
N17985 X3.1126 Z-0.2388
N17990 X3.1304 Z-0.2338
N17995 X3.1475 Z-0.2273
N18000 X3.1639 Z-0.2196
N18005 X3.1797 Z-0.2104
N18010 X3.1946 Z-0.2
N18015 X3.2082 Z-0.1887
N18020 X3.2212 Z-0.1761
N18025 X3.2317 Z-0.1642
N18030 X3.2426 Z-0.151
N18035 X3.2539 Z-0.1382
N18040 X3.2718 Z-0.1199
N18045 X3.2843 Z-0.1084
N18050 X3.2981 Z-0.0968
N18055 X3.3173 Z-0.0819
N18060 X3.3312 Z-0.0724
N18065 X3.3528 Z-0.0589
N18070 X3.3675 Z-0.0507
N18075 X3.3901 Z-0.0395
N18080 X3.4055 Z-0.0328
N18085 X3.4222 Z-0.0264
N18090 X3.4451 Z-0.0186
N18095 X3.4623 Z-0.0138
N18100 X3.4858 Z-0.0085
N18105 X3.5055 Z-0.005
N18110 G2 X3.5156 Z-0.0017 I-0.0065 K0.0369
N18115 G3 X3.5321 Z0.0021 I0.0165 K-0.0337
N18120 G17 G3 Y-3.68 I0. J0.04
N18125 G1 X3.5202
N18130 G18 G2 X3.5037 Z-0.0017 I0. K-0.0375
N18135 G3 X3.4937 Z-0.005 I-0.0165 K0.0337
N18140 G1 X3.4739 Z-0.0085
N18145 X3.4504 Z-0.0138
N18150 X3.4332 Z-0.0186
N18155 X3.4098 Z-0.0265
N18160 X3.3937 Z-0.0328
N18165 X3.3782 Z-0.0395
N18170 X3.3556 Z-0.0507
N18175 X3.3409 Z-0.0589
N18180 X3.3185 Z-0.0729
N18185 X3.2987 Z-0.087
N18190 X3.2772 Z-0.1043
N18195 X3.2599 Z-0.1199
N18200 X3.2421 Z-0.1383
N18205 X3.2306 Z-0.151
N18210 X3.2198 Z-0.1641
N18215 X3.209 Z-0.1757
N18220 X3.196 Z-0.1878
N18225 X3.1817 Z-0.1989
N18230 X3.1664 Z-0.2087
N18235 X3.1505 Z-0.2171
N18240 X3.1338 Z-0.2242
N18245 X3.1163 Z-0.2298
N18250 X3.0983 Z-0.2338
N18255 X3.0799 Z-0.2361
N18260 X3.0614 Z-0.2368
N18265 X3.0519 Z-0.2366
N18270 X3.0424 Z-0.2359
N18275 X3.0258 Z-0.2336
N18280 X3.0095 Z-0.23
N18285 X2.9933 Z-0.2249
N18290 X2.9776 Z-0.2186
N18295 X2.9625 Z-0.2109
N18300 X2.9478 Z-0.2019
N18305 X2.934 Z-0.1919
N18310 X2.9207 Z-0.1804
N18315 X2.9085 Z-0.1677
N18320 X2.8867 Z-0.1423
N18325 X2.8677 Z-0.1225
N18330 X2.8545 Z-0.1101
N18335 X2.8371 Z-0.0954
N18340 X2.819 Z-0.0815
N18345 X2.8 Z-0.0687
N18350 X2.7803 Z-0.0567
N18355 X2.7595 Z-0.0457
N18360 X2.7393 Z-0.0361
N18365 X2.7179 Z-0.0276
N18370 X2.6961 Z-0.02
N18375 X2.6739 Z-0.0137
N18380 X2.6514 Z-0.0085
N18385 X2.6313 Z-0.005
N18390 G3 X2.5693 Z0.0689 I0.0129 K0.0739
N18395 G1 Z0.155
N18400 X2.0558
N18405 Z0.08
N18410 Z0.0689
N18415 G3 X1.9937 Z-0.005 I-0.075 K0.
N18420 G1 X1.9739 Z-0.0085
N18425 X1.9504 Z-0.0138
N18430 X1.9332 Z-0.0186
N18435 X1.9098 Z-0.0265
N18440 X1.8937 Z-0.0328
N18445 X1.8782 Z-0.0395
N18450 X1.8556 Z-0.0507
N18455 X1.8409 Z-0.0589
N18460 X1.8185 Z-0.0729
N18465 X1.7987 Z-0.087
N18470 X1.7772 Z-0.1043
N18475 X1.7599 Z-0.1199
N18480 X1.7421 Z-0.1383
N18485 X1.7306 Z-0.151
N18490 X1.7198 Z-0.1641
N18495 X1.709 Z-0.1757
N18500 X1.696 Z-0.1878
N18505 X1.6817 Z-0.1989
N18510 X1.6664 Z-0.2087
N18515 X1.6505 Z-0.2171
N18520 X1.6338 Z-0.2242
N18525 X1.6163 Z-0.2298
N18530 X1.5983 Z-0.2338
N18535 X1.5799 Z-0.2361
N18540 X1.5614 Z-0.2368
N18545 X1.5519 Z-0.2366
N18550 X1.5424 Z-0.2359
N18555 X1.5258 Z-0.2336
N18560 X1.5095 Z-0.23
N18565 X1.4933 Z-0.2249
N18570 X1.4776 Z-0.2186
N18575 X1.4625 Z-0.2109
N18580 X1.4478 Z-0.2019
N18585 X1.434 Z-0.1919
N18590 X1.4207 Z-0.1804
N18595 X1.4085 Z-0.1677
N18600 X1.3867 Z-0.1423
N18605 X1.3677 Z-0.1225
N18610 X1.3545 Z-0.1101
N18615 X1.3371 Z-0.0954
N18620 X1.319 Z-0.0815
N18625 X1.3 Z-0.0687
N18630 X1.2803 Z-0.0567
N18635 X1.2595 Z-0.0457
N18640 X1.2393 Z-0.0361
N18645 X1.2179 Z-0.0276
N18650 X1.1961 Z-0.02
N18655 X1.1739 Z-0.0137
N18660 X1.1514 Z-0.0085
N18665 X1.1313 Z-0.005
N18670 G3 X1.0693 Z0.0689 I0.0129 K0.0739
N18675 G1 Z0.155
N18680 X0.5558
N18685 Z0.08
N18690 Z0.0689
N18695 G3 X0.4937 Z-0.005 I-0.075 K0.
N18700 G1 X0.4739 Z-0.0085
N18705 X0.4504 Z-0.0138
N18710 X0.4332 Z-0.0186
N18715 X0.4098 Z-0.0265
N18720 X0.3937 Z-0.0328
N18725 X0.3782 Z-0.0395
N18730 X0.3556 Z-0.0507
N18735 X0.3409 Z-0.0589
N18740 X0.3185 Z-0.0729
N18745 X0.2987 Z-0.087
N18750 X0.2772 Z-0.1043
N18755 X0.2599 Z-0.1199
N18760 X0.2421 Z-0.1383
N18765 X0.2306 Z-0.151
N18770 X0.2198 Z-0.1641
N18775 X0.209 Z-0.1757
N18780 X0.196 Z-0.1878
N18785 X0.1817 Z-0.1989
N18790 X0.1664 Z-0.2087
N18795 X0.1505 Z-0.2171
N18800 X0.1338 Z-0.2242
N18805 X0.1163 Z-0.2298
N18810 X0.0983 Z-0.2338
N18815 X0.0799 Z-0.2361
N18820 X0.0614 Z-0.2368
N18825 X0.0519 Z-0.2366
N18830 X0.0424 Z-0.2359
N18835 X0.0258 Z-0.2336
N18840 X0.0095 Z-0.23
N18845 X-0.0067 Z-0.2249
N18850 X-0.0224 Z-0.2186
N18855 X-0.0375 Z-0.2109
N18860 X-0.0522 Z-0.2019
N18865 X-0.066 Z-0.1919
N18870 X-0.0793 Z-0.1804
N18875 X-0.0915 Z-0.1677
N18880 X-0.1133 Z-0.1423
N18885 X-0.1323 Z-0.1225
N18890 X-0.1455 Z-0.1101
N18895 X-0.1629 Z-0.0954
N18900 X-0.181 Z-0.0815
N18905 X-0.2 Z-0.0687
N18910 X-0.2197 Z-0.0567
N18915 X-0.2405 Z-0.0457
N18920 X-0.2607 Z-0.0361
N18925 X-0.2821 Z-0.0276
N18930 X-0.3039 Z-0.02
N18935 X-0.3261 Z-0.0137
N18940 X-0.3486 Z-0.0085
N18945 X-0.3687 Z-0.005
N18950 G3 X-0.4307 Z0.0689 I0.0129 K0.0739
N18955 G1 Z0.155
N18960 X-0.9442
N18965 Z0.08
N18970 Z0.0689
N18975 G3 X-1.0063 Z-0.005 I-0.075 K0.
N18980 G1 X-1.0261 Z-0.0085
N18985 X-1.0496 Z-0.0138
N18990 X-1.0668 Z-0.0186
N18995 X-1.0902 Z-0.0265
N19000 X-1.1063 Z-0.0328
N19005 X-1.1218 Z-0.0395
N19010 X-1.1444 Z-0.0507
N19015 X-1.1591 Z-0.0589
N19020 X-1.1815 Z-0.0729
N19025 X-1.2013 Z-0.087
N19030 X-1.2228 Z-0.1043
N19035 X-1.2401 Z-0.1199
N19040 X-1.2579 Z-0.1383
N19045 X-1.2694 Z-0.151
N19050 X-1.2802 Z-0.1641
N19055 X-1.291 Z-0.1757
N19060 X-1.304 Z-0.1878
N19065 X-1.3183 Z-0.1989
N19070 X-1.3336 Z-0.2087
N19075 X-1.3495 Z-0.2171
N19080 X-1.3662 Z-0.2242
N19085 X-1.3837 Z-0.2298
N19090 X-1.4017 Z-0.2338
N19095 X-1.4201 Z-0.2361
N19100 X-1.4386 Z-0.2368
N19105 X-1.4481 Z-0.2366
N19110 X-1.4576 Z-0.2359
N19115 X-1.4742 Z-0.2336
N19120 X-1.4905 Z-0.23
N19125 X-1.5067 Z-0.2249
N19130 X-1.5224 Z-0.2186
N19135 X-1.5375 Z-0.2109
N19140 X-1.5522 Z-0.2019
N19145 X-1.566 Z-0.1919
N19150 X-1.5793 Z-0.1804
N19155 X-1.5915 Z-0.1677
N19160 X-1.6133 Z-0.1423
N19165 X-1.6323 Z-0.1225
N19170 X-1.6455 Z-0.1101
N19175 X-1.6629 Z-0.0954
N19180 X-1.681 Z-0.0815
N19185 X-1.7 Z-0.0687
N19190 X-1.7197 Z-0.0567
N19195 X-1.7405 Z-0.0457
N19200 X-1.7607 Z-0.0361
N19205 X-1.7821 Z-0.0276
N19210 X-1.8039 Z-0.02
N19215 X-1.8261 Z-0.0137
N19220 X-1.8486 Z-0.0085
N19225 X-1.8687 Z-0.005
N19230 G3 X-1.9307 Z0.0689 I0.0129 K0.0739
N19235 G1 Z0.155
N19240 X-2.4442
N19245 Z0.08
N19250 Z0.0689
N19255 G3 X-2.5063 Z-0.005 I-0.075 K0.
N19260 G1 X-2.5261 Z-0.0085
N19265 X-2.5496 Z-0.0138
N19270 X-2.5668 Z-0.0186
N19275 X-2.5902 Z-0.0265
N19280 X-2.6063 Z-0.0328
N19285 X-2.6218 Z-0.0395
N19290 X-2.6444 Z-0.0507
N19295 X-2.6591 Z-0.0589
N19300 X-2.6815 Z-0.0729
N19305 X-2.7013 Z-0.087
N19310 X-2.7228 Z-0.1043
N19315 X-2.7401 Z-0.1199
N19320 X-2.7579 Z-0.1383
N19325 X-2.7694 Z-0.151
N19330 X-2.7802 Z-0.1641
N19335 X-2.791 Z-0.1757
N19340 X-2.804 Z-0.1878
N19345 X-2.8183 Z-0.1989
N19350 X-2.8336 Z-0.2087
N19355 X-2.8495 Z-0.2171
N19360 X-2.8662 Z-0.2242
N19365 X-2.8837 Z-0.2298
N19370 X-2.9017 Z-0.2338
N19375 X-2.9201 Z-0.2361
N19380 X-2.9386 Z-0.2368
N19385 X-2.9481 Z-0.2366
N19390 X-2.9576 Z-0.2359
N19395 X-2.9742 Z-0.2336
N19400 X-2.9905 Z-0.23
N19405 X-3.0067 Z-0.2249
N19410 X-3.0224 Z-0.2186
N19415 X-3.0375 Z-0.2109
N19420 X-3.0522 Z-0.2019
N19425 X-3.066 Z-0.1919
N19430 X-3.0793 Z-0.1804
N19435 X-3.0915 Z-0.1677
N19440 X-3.1133 Z-0.1423
N19445 X-3.1323 Z-0.1225
N19450 X-3.1455 Z-0.1101
N19455 X-3.1629 Z-0.0954
N19460 X-3.181 Z-0.0815
N19465 X-3.2 Z-0.0687
N19470 X-3.2197 Z-0.0567
N19475 X-3.2405 Z-0.0457
N19480 X-3.2607 Z-0.0361
N19485 X-3.2821 Z-0.0276
N19490 X-3.3039 Z-0.02
N19495 X-3.3261 Z-0.0137
N19500 X-3.3486 Z-0.0085
N19505 X-3.3687 Z-0.005
N19510 G3 X-3.4307 Z0.0689 I0.0129 K0.0739
N19515 G1 Z0.155
N19520 X-3.9442
N19525 Z0.08
N19530 Z0.0689
N19535 G3 X-4.0063 Z-0.005 I-0.075 K0.
N19540 G1 X-4.0261 Z-0.0085
N19545 X-4.0496 Z-0.0138
N19550 X-4.0668 Z-0.0186
N19555 X-4.0902 Z-0.0265
N19560 X-4.1063 Z-0.0328
N19565 X-4.1218 Z-0.0395
N19570 X-4.1444 Z-0.0507
N19575 X-4.1591 Z-0.0589
N19580 X-4.1815 Z-0.0729
N19585 X-4.2013 Z-0.087
N19590 X-4.2228 Z-0.1043
N19595 X-4.2401 Z-0.1199
N19600 X-4.2579 Z-0.1383
N19605 X-4.2694 Z-0.151
N19610 X-4.2802 Z-0.1641
N19615 X-4.291 Z-0.1757
N19620 X-4.304 Z-0.1878
N19625 X-4.3183 Z-0.1989
N19630 X-4.3336 Z-0.2087
N19635 X-4.3495 Z-0.2171
N19640 X-4.3662 Z-0.2242
N19645 X-4.3837 Z-0.2298
N19650 X-4.4017 Z-0.2338
N19655 X-4.4201 Z-0.2361
N19660 X-4.4386 Z-0.2368
N19665 X-4.4481 Z-0.2366
N19670 X-4.4576 Z-0.2359
N19675 X-4.4742 Z-0.2336
N19680 X-4.4905 Z-0.23
N19685 X-4.5067 Z-0.2249
N19690 X-4.5224 Z-0.2186
N19695 X-4.5375 Z-0.2109
N19700 X-4.5522 Z-0.2019
N19705 X-4.566 Z-0.1919
N19710 X-4.5793 Z-0.1804
N19715 X-4.5915 Z-0.1677
N19720 X-4.6133 Z-0.1423
N19725 X-4.6323 Z-0.1225
N19730 X-4.6455 Z-0.1101
N19735 X-4.6629 Z-0.0954
