(Project THF RCU Combined Plate)
(Created by Estlcam version 11 build 11.245)
(Machining time about 00:04:20 hours)

(Required tools:)
(End mill 1/8)
(End mill 1/4)
(drill 2)

G90

G00 Z0.5

(No. 9: Part 1)
G00 X-0.12500 Y-2.42555 Z0.5
G00 Z0.01969
G01 Z0.00000 F30.00 S2000
G01 Z-0.25000
G01 Y-0.29763
G02 X0.29763 Y0.12500 I0.42482 J-0.00219
G01 X7.70237
G02 X8.12500 Y-0.29763 I-0.00219 J-0.42482
G01 Y-4.55347
G02 X7.70237 Y-4.97610 I-0.42482 J0.00219
G01 X6.87675
G03 X6.62500 Y-5.22785 I-0.00162 J-0.25013
G01 Y-5.97785
G02 X6.12675 Y-6.47610 I-0.50012 J0.00187
G01 X1.87325
G02 X1.37500 Y-5.97785 I0.00187 J0.50012
G01 Y-5.22785
G03 X1.12325 Y-4.97610 I-0.25013 J0.00162
G01 X0.29763
G02 X-0.12500 Y-4.55347 I0.00219 J0.42482
G01 Y-2.42555
G00 Z0.5


(No. 10: Hole 10)
G00 X0.60843 Y-1.53544 Z0.5
G00 Z0.01969
G01 Z0.00000 F30.00
G01 Z-0.25000
G03 X0.72845 Y-1.38495 I0.01656 J0.10989
G03 X0.53811 Y-1.35626 I-0.10345 J-0.04060
G03 X0.60843 Y-1.53544 I0.08689 J-0.06929
G00 Z0.5


(No. 11: Hole 6)
G00 X2.14388 Y-1.72002 Z0.5
G00 Z0.01969
G01 Z0.00000 F30.00
G01 Z-0.25000
G03 X2.18946 Y-1.73047 I0.04403 J0.08742
G01 X2.43999
G03 X2.50200 Y-1.70895 I0.00139 J0.09608
G01 X2.65622 Y-1.58724
G01 X2.65801 Y-1.58572
G01 X2.65807 Y-1.58343
G01 Y-1.26766
G01 X2.65798 Y-1.26532
G01 X2.65622 Y-1.26385
G01 X2.50200 Y-1.14215
G03 X2.43999 Y-1.12063 I-0.06061 J-0.07456
G01 X2.18946
G03 X2.09193 Y-1.21816 I-0.00216 J-0.09537
G01 Y-1.63293
G03 X2.14388 Y-1.72002 I0.09532 J-0.00217
G00 Z0.5


(No. 12: Hole 9)
G00 X3.68149 Y-1.42555 Z0.5
G00 Z0.01969
G01 Z0.00000 F30.00
G01 Z-0.25000
G01 Y-1.58380
G01 X3.68156 Y-1.58578
G01 X3.68246 Y-1.58752
G01 X3.77621 Y-1.75620
G01 X3.77740 Y-1.75821
G01 X3.77764 Y-1.75853
G01 X3.78113 Y-1.75865
G01 X3.78033 Y-1.75862
G01 X4.96967
G01 X4.97201 Y-1.75855
G01 X4.97241 Y-1.75850
G01 X4.97420 Y-1.75551
G01 X4.97378 Y-1.75620
G01 X5.06754 Y-1.58752
G01 X5.06844 Y-1.58576
G01 X5.06850 Y-1.58380
G01 Y-1.26729
G01 X5.06844 Y-1.26531
G01 X5.06754 Y-1.26358
G01 X4.97378 Y-1.09490
G01 X4.97259 Y-1.09289
G01 X4.97235 Y-1.09256
G01 X4.96887 Y-1.09244
G01 X4.96967 Y-1.09248
G01 X3.78033
G01 X3.77799 Y-1.09254
G01 X3.77759 Y-1.09259
G01 X3.77579 Y-1.09558
G01 X3.77621 Y-1.09490
G01 X3.68246 Y-1.26358
G01 X3.68155 Y-1.26534
G01 X3.68149 Y-1.26729
G01 Y-1.42555
G00 Z0.5


(No. 13: Hole 8)
G00 X3.77740 Y-3.75821 Z0.5
G00 Z0.01969
G01 Z0.00000 F30.00
G01 Z-0.25000
G01 X3.77764 Y-3.75853
G01 X3.78113 Y-3.75866
G01 X3.78033 Y-3.75862
G01 X4.96968
G01 X4.97201 Y-3.75855
G01 X4.97241 Y-3.75850
G01 X4.97420 Y-3.75552
G01 X4.97378 Y-3.75620
G01 X5.06754 Y-3.58752
G01 X5.06844 Y-3.58576
G01 X5.06850 Y-3.58380
G01 Y-3.26729
G01 X5.06844 Y-3.26532
G01 X5.06754 Y-3.26358
G01 X4.97377 Y-3.09487
G01 X4.97255 Y-3.09283
G01 X4.97012 Y-3.09247
G01 X4.97052 Y-3.09249
G01 X3.78037 Y-3.09244
G01 X3.77792 Y-3.09255
G01 X3.77583 Y-3.09552
G01 X3.77623 Y-3.09487
G01 X3.68246 Y-3.26358
G01 X3.68155 Y-3.26534
G01 X3.68149 Y-3.26729
G01 Y-3.58380
G01 X3.68156 Y-3.58578
G01 X3.68246 Y-3.58752
G01 X3.77621 Y-3.75620
G01 X3.77740 Y-3.75821
G00 Z0.5


(No. 14: Hole 7)
G00 X2.12532 Y-3.70761 Z0.5
G00 Z0.01969
G01 Z0.00000 F30.00
G01 Z-0.25000
G03 X2.18946 Y-3.73047 I0.06221 J0.07316
G01 X2.43999
G03 X2.50200 Y-3.70895 I0.00139 J0.09608
G01 X2.65622 Y-3.58724
G01 X2.65801 Y-3.58572
G01 X2.65807 Y-3.58343
G01 Y-3.26766
G01 X2.65798 Y-3.26532
G03 X2.49667 Y-3.13817 I-2.73685 J-3.30614
G03 X2.43998 Y-3.12063 I-0.05525 J-0.07818
G01 X2.18946
G03 X2.09193 Y-3.21816 I-0.00216 J-0.09537
G01 Y-3.63293
G03 X2.12532 Y-3.70761 I0.09556 J-0.00208
G00 Z0.5


(No. 15: Hole 11)
G00 X2.78766 Y-5.46945 Z0.5
G00 Z0.01969
G01 Z0.00000 F30.00
G01 Z-0.25000
G03 X3.05053 Y-5.53322 I0.14984 J0.04400
G03 X2.97432 Y-5.27369 I-0.11303 J0.10777
G03 X2.78766 Y-5.46945 I-0.03682 J-0.15177
G00 Z0.5


(No. 16: Hole 12)
G00 X4.90990 Y-5.45865 Z0.5
G00 Z0.01969
G01 Z0.00000 F30.00
G01 Z-0.25000
G03 X5.16755 Y-5.54101 I0.15260 J0.03320
G03 X5.11005 Y-5.27670 I-0.10505 J0.11556
G03 X4.90990 Y-5.45865 I-0.04755 J-0.14875
G00 Z0.5


(No. 17: Hole 13)
G00 X6.71984 Y-3.68723 Z0.5
G00 Z0.01969
G01 Z0.00000 F30.00
G01 Z-0.25000
G03 X6.77520 Y-3.69583 I0.03016 J0.01169
G03 X6.75496 Y-3.64358 I-0.02520 J0.02028
G03 X6.71984 Y-3.68723 I-0.00496 J-0.03196
G00 Z0.5


(No. 18: Hole 14)
G00 X6.72418 Y-1.19504 Z0.5
G00 Z0.01969
G01 Z0.00000 F30.00
G01 Z-0.25000
G03 X6.77979 Y-1.18816 I0.02581 J0.01949
G03 X6.74602 Y-1.14345 I-0.02979 J0.01261
G03 X6.72418 Y-1.19504 I0.00398 J-0.03210
G00 Z0.5

M02
