<<<<<<< HEAD
%
(SPW_HOLDER)
(T1 D=0.25 CR=0. - ZMIN=-0.75 - FLAT END MILL)
N10 G90 G94 G17 G91.1
N15 G20
(WHEN USING FUSION FOR PERSONAL USE, THE FEEDRATE OF RAPID)
(MOVES IS REDUCED TO MATCH THE FEEDRATE OF CUTTING MOVES,)
(WHICH CAN INCREASE MACHINING TIME. UNRESTRICTED RAPID MOVES)
(ARE AVAILABLE WITH A FUSION SUBSCRIPTION.)
N20 G53 G0 Z0.
(2D CONTOUR1)
N25 T1 M6
N30 S5000 M3
N35 G17 G90 G94
N40 G54
N45 G64 P0.0004 Q0.0004
N50 M8
N55 G0 X-1.7104 Y-2.8578
N60 G43 Z0.975 H1
N65 G1 Z0.575 F40.
N70 Z0.1144
N75 Z-0.175
N80 X-1.6959 Y-2.81
N85 G3 X-1.7292 Y-2.7476 I-0.0478 J0.0145
N90 G1 X-1.8249 Y-2.7185
N95 G2 X-2.4878 Y-2.1921 I0.3349 J1.1025
N100 G3 X-3.2259 Y-1.766 I-0.7381 J-0.4261
N105 G1 X-3.6634
N110 G2 X-4.7294 Y-0.7 I0. J1.066
N115 G1 Y0.7
N120 G2 X-3.6634 Y1.766 I1.066 J0.
N125 G1 X-3.2259
N130 G3 X-2.4878 Y2.1921 I0. J0.8523
N135 G2 X-1.8249 Y2.7185 I0.9979 J-0.5761
N140 G1 X-1.7292 Y2.7476
N145 G3 X-1.6959 Y2.81 I-0.0145 J0.0478
N150 G1 X-1.7104 Y2.8578
N155 Z0.575
N160 X3.7812 Y2.725
N165 Z0.1144
N170 Z-0.175
N175 X3.7312
N180 G3 X3.6812 Y2.675 I0. J-0.05
N185 G1 Y1.9213
N190 G3 X3.8366 Y1.766 I0.1553 J0.
N195 G1 X4.2741
N200 G2 X4.7294 Y1.3107 I0. J-0.4553
N205 G1 Y-1.3107
N210 G2 X4.2741 Y-1.766 I-0.4553 J0.
N215 G1 X3.8366
N220 G3 X3.6812 Y-1.9213 I0. J-0.1553
N225 G1 Y-2.575
N230 Y-2.675
N235 G3 X3.7312 Y-2.725 I0.05 J0.
N240 G1 X3.7812
N245 Z0.575
N250 Y2.725
N255 Z-0.1356
N260 Z-0.425
N265 X3.7312
N270 G3 X3.6812 Y2.675 I0. J-0.05
N275 G1 Y1.9213
N280 G3 X3.8366 Y1.766 I0.1553 J0.
N285 G1 X4.2741
N290 G2 X4.7294 Y1.3107 I0. J-0.4553
N295 G1 Y-1.3107
N300 G2 X4.2741 Y-1.766 I-0.4553 J0.
N305 G1 X3.8366
N310 G3 X3.6812 Y-1.9213 I0. J-0.1553
N315 G1 Y-2.575
N320 Y-2.675
N325 G3 X3.7312 Y-2.725 I0.05 J0.
N330 G1 X3.7812
N335 Z0.575
N340 X-1.7104 Y-2.8578
N345 Z-0.1356
N350 Z-0.425
N355 X-1.6959 Y-2.81
N360 G3 X-1.7292 Y-2.7476 I-0.0478 J0.0145
N365 G1 X-1.8249 Y-2.7185
N370 G2 X-2.4878 Y-2.1921 I0.3349 J1.1025
N375 G3 X-3.2259 Y-1.766 I-0.7381 J-0.4261
N380 G1 X-3.6634
N385 G2 X-4.7294 Y-0.7 I0. J1.066
N390 G1 Y0.7
N395 G2 X-3.6634 Y1.766 I1.066 J0.
N400 G1 X-3.2259
N405 G3 X-2.4878 Y2.1921 I0. J0.8523
N410 G2 X-1.8249 Y2.7185 I0.9979 J-0.5761
N415 G1 X-1.7292 Y2.7476
N420 G3 X-1.6959 Y2.81 I-0.0145 J0.0478
N425 G1 X-1.7104 Y2.8578
N430 Z0.575
N435 X3.7812 Y2.725
N440 Z-0.3856
N445 Z-0.675
N450 X3.7312
N455 G3 X3.6812 Y2.675 I0. J-0.05
N460 G1 Y1.9213
N465 G3 X3.8366 Y1.766 I0.1553 J0.
N470 G1 X4.2741
N475 G2 X4.7294 Y1.3107 I0. J-0.4553
N480 G1 Y-1.3107
N485 G2 X4.2741 Y-1.766 I-0.4553 J0.
N490 G1 X3.8366
N495 G3 X3.6812 Y-1.9213 I0. J-0.1553
N500 G1 Y-2.575
N505 Y-2.675
N510 G3 X3.7312 Y-2.725 I0.05 J0.
N515 G1 X3.7812
N520 Z0.575
N525 Y2.725
N530 Z-0.6356
N535 Z-0.75
N540 X3.7312
N545 G3 X3.6812 Y2.675 I0. J-0.05
N550 G1 Y1.9213
N555 G3 X3.8366 Y1.766 I0.1553 J0.
N560 G1 X4.2741
N565 G2 X4.7294 Y1.3107 I0. J-0.4553
N570 G1 Y-1.3107
N575 G2 X4.2741 Y-1.766 I-0.4553 J0.
N580 G1 X3.8366
N585 G3 X3.6812 Y-1.9213 I0. J-0.1553
N590 G1 Y-2.575
N595 Y-2.675
N600 G3 X3.7312 Y-2.725 I0.05 J0.
N605 G1 X3.7812
N610 Z0.575
N615 X3.7562 Y2.725
N620 Z-0.6356
N625 Z-0.75
N630 X3.7062
N635 G3 X3.6562 Y2.675 I0. J-0.05
N640 G1 Y1.9213
N645 G3 X3.8366 Y1.741 I0.1803 J0.
N650 G1 X4.2741
N655 G2 X4.7044 Y1.3107 I0. J-0.4303
N660 G1 Y-1.3107
N665 G2 X4.2741 Y-1.741 I-0.4303 J0.
N670 G1 X3.8366
N675 G3 X3.6562 Y-1.9213 I0. J-0.1803
N680 G1 Y-2.575
N685 Y-2.675
N690 G3 X3.7062 Y-2.725 I0.05 J0.
N695 G1 X3.7562
N700 Z0.575
N705 X-1.7104 Y-2.8578
N710 Z-0.3856
N715 Z-0.675
N720 X-1.6959 Y-2.81
N725 G3 X-1.7292 Y-2.7476 I-0.0478 J0.0145
N730 G1 X-1.8249 Y-2.7185
N735 G2 X-2.4878 Y-2.1921 I0.3349 J1.1025
N740 G3 X-3.2259 Y-1.766 I-0.7381 J-0.4261
N745 G1 X-3.6634
N750 G2 X-4.7294 Y-0.7 I0. J1.066
N755 G1 Y0.7
N760 G2 X-3.6634 Y1.766 I1.066 J0.
N765 G1 X-3.2259
N770 G3 X-2.4878 Y2.1921 I0. J0.8523
N775 G2 X-1.8249 Y2.7185 I0.9979 J-0.5761
N780 G1 X-1.7292 Y2.7476
N785 G3 X-1.6959 Y2.81 I-0.0145 J0.0478
N790 G1 X-1.7104 Y2.8578
N795 Z0.575
N800 Y-2.8578
N805 Z-0.6356
N810 Z-0.75
N815 X-1.6959 Y-2.81
N820 G3 X-1.7292 Y-2.7476 I-0.0478 J0.0145
N825 G1 X-1.8249 Y-2.7185
N830 G2 X-2.4878 Y-2.1921 I0.3349 J1.1025
N835 G3 X-3.2259 Y-1.766 I-0.7381 J-0.4261
N840 G1 X-3.6634
N845 G2 X-4.7294 Y-0.7 I0. J1.066
N850 G1 Y0.7
N855 G2 X-3.6634 Y1.766 I1.066 J0.
N860 G1 X-3.2259
N865 G3 X-2.4878 Y2.1921 I0. J0.8523
N870 G2 X-1.8249 Y2.7185 I0.9979 J-0.5761
N875 G1 X-1.7292 Y2.7476
N880 G3 X-1.6959 Y2.81 I-0.0145 J0.0478
N885 G1 X-1.7104 Y2.8578
N890 Z0.575
N895 X-1.7031 Y-2.8339
N900 Z-0.6356
N905 Z-0.75
N910 X-1.6886 Y-2.786
N915 G3 X-1.7219 Y-2.7237 I-0.0478 J0.0145
N920 G1 X-1.8176 Y-2.6946
N925 G2 X-2.4662 Y-2.1796 I0.3277 J1.0786
N930 G3 X-3.2259 Y-1.741 I-0.7597 J-0.4386
N935 G1 X-3.6634
N940 G2 X-4.7044 Y-0.7 I0. J1.041
N945 G1 Y0.7
N950 G2 X-3.6634 Y1.741 I1.041 J0.
N955 G1 X-3.2259
N960 G3 X-2.4662 Y2.1796 I0. J0.8773
N965 G2 X-1.8176 Y2.6946 I0.9762 J-0.5636
N970 G1 X-1.7219 Y2.7237
N975 G3 X-1.6886 Y2.786 I-0.0145 J0.0478
N980 G1 X-1.7031 Y2.8339
N985 Z0.975
(WHEN USING FUSION FOR PERSONAL USE, THE FEEDRATE OF RAPID)
(MOVES IS REDUCED TO MATCH THE FEEDRATE OF CUTTING MOVES,)
(WHICH CAN INCREASE MACHINING TIME. UNRESTRICTED RAPID MOVES)
(ARE AVAILABLE WITH A FUSION SUBSCRIPTION.)
(2D CONTOUR2)
N990 G0 X3.1762 Y-2.675
N995 G1 Z0.675 F40.
N1000 Z0.275
N1005 Z0.1144
N1010 Z-0.125
N1015 Y-0.6
N1020 X3.1562
N1025 Y-2.575
N1030 Y-2.675
N1035 X3.1762
N1040 Z-0.27
N1045 Y-0.6
N1050 X3.1562
N1055 Y-2.575
N1060 Y-2.675
N1065 Z0.275
N1070 X3.1762 Y0.6
N1075 Z0.1144
N1080 Z-0.125
N1085 Y2.575
N1090 Y2.675
N1095 X3.1562
N1100 Y0.6
N1105 X3.1762
N1110 Z-0.27
N1115 Y2.575
N1120 Y2.675
N1125 X3.1562
N1130 Y0.6
N1135 Z0.675
(WHEN USING FUSION FOR PERSONAL USE, THE FEEDRATE OF RAPID)
(MOVES IS REDUCED TO MATCH THE FEEDRATE OF CUTTING MOVES,)
(WHICH CAN INCREASE MACHINING TIME. UNRESTRICTED RAPID MOVES)
(ARE AVAILABLE WITH A FUSION SUBSCRIPTION.)
(FACE1)
N1140 G0 Z0.975
N1145 X3.6938 Y-2.5103
N1150 G1 Z0.575 F60.
N1155 Z0.025 F40.
N1160 G18 G3 X3.6687 Z0. I-0.025 K0. F60.
N1165 G1 X3.6566
N1170 X3.1758
N1175 X3.1566
N1180 X-2.2577
N1185 X-2.4314
N1190 G17 G2 Y-2.3226 I0. J0.0939
N1195 G1 X3.1566
N1200 X3.1758
N1205 X3.6566
N1210 G3 Y-2.1348 I0. J0.0939
N1215 G1 X3.1758
N1220 X3.1566
N1225 X-2.5551
N1230 X-2.7427
N1235 G2 Y-1.9471 I0. J0.0939
N1240 G1 X3.1566
N1245 X3.1758
N1250 X3.6734
N1255 X3.8579
N1260 G3 Y-1.7594 I0. J0.0939
N1265 G1 X3.1758
N1270 X3.1566
N1275 X-3.1605
N1280 G18 G3 X-3.1855 Z0.025 I0. K0.025
N1285 G1 Z0.575
N1290 X-4.3444 Y-1.5717
N1295 Z0.025 F40.
N1300 G2 X-4.3194 Z0. I0.025 K0. F60.
N1305 G1 X3.1566
N1310 X3.1758
N1315 X4.6726
N1320 X4.7048
N1325 G17 G3 Y-1.3839 I0. J0.0939
N1330 G1 X3.1758
N1335 X3.1566
N1340 X-4.5144
N1345 X-4.6262
N1350 G2 Y-1.1962 I0. J0.0939
N1355 G1 X3.1566
N1360 X3.1758
N1365 X4.7048
N1370 G3 Y-1.0085 I0. J0.0939
N1375 G1 X3.1758
N1380 X3.1566
N1385 X-4.6862
N1390 X-4.7048
N1395 G2 Y-0.8207 I0. J0.0939
N1400 G1 X3.1566
N1405 X3.1758
N1410 X4.7048
N1415 G18 G2 X4.7298 Z0.025 I0. K0.025
N1420 G1 Z0.575
N1425 X4.7419 Y0.7647
N1430 Z0.025 F40.
N1435 G3 X4.7169 Z0. I-0.025 K0. F60.
N1440 G1 X4.7048
N1445 X3.1758
N1450 X3.1566
N1455 X-4.7048
N1460 G17 G2 Y0.9525 I0. J0.0939
N1465 G1 X-4.6957
N1470 X3.1566
N1475 X3.1758
N1480 X4.7048
N1485 G3 Y1.1402 I0. J0.0939
N1490 G1 X3.1758
N1495 X3.1566
N1500 X-4.6487
N1505 G2 Y1.3279 I0. J0.0939
N1510 G1 X-4.5544
N1515 X3.1566
N1520 X3.1758
N1525 X4.7048
N1530 G3 Y1.5156 I0. J0.0939
N1535 G1 X4.694
N1540 X3.1758
N1545 X3.1566
N1550 X-4.3903
N1555 G2 Y1.7034 I0. J0.0939
N1560 G1 X-4.0486
N1565 X3.1566
N1570 X3.1758
N1575 X4.5463
N1580 G3 Y1.8911 I0. J0.0939
N1585 G1 X3.6993
N1590 X3.1758
N1595 X3.1566
N1600 X-2.8241
N1605 G2 Y2.0788 I0. J0.0939
N1610 G1 X-2.6011
N1615 X3.1566
N1620 X3.1758
N1625 X3.6566
N1630 G3 Y2.2665 I0. J0.0939
N1635 G1 X3.1758
N1640 X3.1566
N1645 X-2.4686
N1650 G2 Y2.4543 I0. J0.0939
N1655 G1 X-2.3193
N1660 X3.1566
N1665 X3.1758
N1670 X3.6566
N1675 G18 G2 X3.6816 Z0.025 I0. K0.025
N1680 G1 Z0.975
N1685 G17
N1690 M5
N1695 M9
N1700 G53 G0 Z0.
N1705 M30
%
=======
%
(SPW_HOLDER)
(T1 D=0.25 CR=0. - ZMIN=-0.75 - FLAT END MILL)
N10 G90 G94 G17 G91.1
N15 G20
(WHEN USING FUSION FOR PERSONAL USE, THE FEEDRATE OF RAPID)
(MOVES IS REDUCED TO MATCH THE FEEDRATE OF CUTTING MOVES,)
(WHICH CAN INCREASE MACHINING TIME. UNRESTRICTED RAPID MOVES)
(ARE AVAILABLE WITH A FUSION SUBSCRIPTION.)
N20 G53 G0 Z0.
(2D CONTOUR1)
N25 T1 M6
N30 S5000 M3
N35 G17 G90 G94
N40 G54
N45 G64 P0.0004 Q0.0004
N50 M8
N55 G0 X-1.7104 Y-2.6578
N60 G43 Z0.625 H1
N65 G1 Z0.225 F40.
N70 Z0.0644 F20.
N75 Z-0.35
N80 X-1.6959 Y-2.61 F40.
N85 G3 X-1.7292 Y-2.5476 I-0.0478 J0.0145
N90 G1 X-1.8249 Y-2.5185
N95 G2 X-2.4878 Y-1.9921 I0.3349 J1.1025
N100 G3 X-3.2259 Y-1.566 I-0.7381 J-0.4261
N105 G1 X-3.6634
N110 G2 X-4.7294 Y-0.5 I0. J1.066
N115 G1 Y0.5
N120 G2 X-3.6634 Y1.566 I1.066 J0.
N125 G1 X-3.2259
N130 G3 X-2.4878 Y1.9921 I0. J0.8523
N135 G2 X-1.8249 Y2.5185 I0.9979 J-0.5761
N140 G1 X-1.7292 Y2.5476
N145 G3 X-1.6959 Y2.61 I-0.0145 J0.0478
N150 G1 X-1.7104 Y2.6578
N155 Z0.225
N160 X3.7812 Y2.525
N165 Z0.0644 F20.
N170 Z-0.35
N175 X3.7312 F40.
N180 G3 X3.6812 Y2.475 I0. J-0.05
N185 G1 Y1.7213
N190 G3 X3.8366 Y1.566 I0.1553 J0.
N195 G1 X4.2741
N200 G2 X4.7294 Y1.1107 I0. J-0.4553
N205 G1 Y-1.1107
N210 G2 X4.2741 Y-1.566 I-0.4553 J0.
N215 G1 X3.8366
N220 G3 X3.6812 Y-1.7213 I0. J-0.1553
N225 G1 Y-2.375
N230 Y-2.475
N235 G3 X3.7312 Y-2.525 I0.05 J0.
N240 G1 X3.7812
N245 Z0.225
N250 Y2.525
N255 Z-0.3106 F20.
N260 Z-0.55
N265 X3.7312 F40.
N270 G3 X3.6812 Y2.475 I0. J-0.05
N275 G1 Y1.7213
N280 G3 X3.8366 Y1.566 I0.1553 J0.
N285 G1 X4.2741
N290 G2 X4.7294 Y1.1107 I0. J-0.4553
N295 G1 Y-1.1107
N300 G2 X4.2741 Y-1.566 I-0.4553 J0.
N305 G1 X3.8366
N310 G3 X3.6812 Y-1.7213 I0. J-0.1553
N315 G1 Y-2.375
N320 Y-2.475
N325 G3 X3.7312 Y-2.525 I0.05 J0.
N330 G1 X3.7812
N335 Z0.225
N340 Y2.525
N345 Z-0.5106 F20.
N350 Z-0.75
N355 X3.7312 F40.
N360 G3 X3.6812 Y2.475 I0. J-0.05
N365 G1 Y1.7213
N370 G3 X3.8366 Y1.566 I0.1553 J0.
N375 G1 X4.2741
N380 G2 X4.7294 Y1.1107 I0. J-0.4553
N385 G1 Y-1.1107
N390 G2 X4.2741 Y-1.566 I-0.4553 J0.
N395 G1 X3.8366
N400 G3 X3.6812 Y-1.7213 I0. J-0.1553
N405 G1 Y-2.375
N410 Y-2.475
N415 G3 X3.7312 Y-2.525 I0.05 J0.
N420 G1 X3.7812
N425 Z0.225
N430 X3.7562 Y2.525
N435 Z-0.5106 F20.
N440 Z-0.75
N445 X3.7062 F40.
N450 G3 X3.6562 Y2.475 I0. J-0.05
N455 G1 Y1.7213
N460 G3 X3.8366 Y1.541 I0.1803 J0.
N465 G1 X4.2741
N470 G2 X4.7044 Y1.1107 I0. J-0.4303
N475 G1 Y-1.1107
N480 G2 X4.2741 Y-1.541 I-0.4303 J0.
N485 G1 X3.8366
N490 G3 X3.6562 Y-1.7213 I0. J-0.1803
N495 G1 Y-2.375
N500 Y-2.475
N505 G3 X3.7062 Y-2.525 I0.05 J0.
N510 G1 X3.7562
N515 Z0.225
N520 X-1.7104 Y-2.6578
N525 Z-0.3106 F20.
N530 Z-0.55
N535 X-1.6959 Y-2.61 F40.
N540 G3 X-1.7292 Y-2.5476 I-0.0478 J0.0145
N545 G1 X-1.8249 Y-2.5185
N550 G2 X-2.4878 Y-1.9921 I0.3349 J1.1025
N555 G3 X-3.2259 Y-1.566 I-0.7381 J-0.4261
N560 G1 X-3.6634
N565 G2 X-4.7294 Y-0.5 I0. J1.066
N570 G1 Y0.5
N575 G2 X-3.6634 Y1.566 I1.066 J0.
N580 G1 X-3.2259
N585 G3 X-2.4878 Y1.9921 I0. J0.8523
N590 G2 X-1.8249 Y2.5185 I0.9979 J-0.5761
N595 G1 X-1.7292 Y2.5476
N600 G3 X-1.6959 Y2.61 I-0.0145 J0.0478
N605 G1 X-1.7104 Y2.6578
N610 Z0.225
N615 Y-2.6578
N620 Z-0.5106 F20.
N625 Z-0.75
N630 X-1.6959 Y-2.61 F40.
N635 G3 X-1.7292 Y-2.5476 I-0.0478 J0.0145
N640 G1 X-1.8249 Y-2.5185
N645 G2 X-2.4878 Y-1.9921 I0.3349 J1.1025
N650 G3 X-3.2259 Y-1.566 I-0.7381 J-0.4261
N655 G1 X-3.6634
N660 G2 X-4.7294 Y-0.5 I0. J1.066
N665 G1 Y0.5
N670 G2 X-3.6634 Y1.566 I1.066 J0.
N675 G1 X-3.2259
N680 G3 X-2.4878 Y1.9921 I0. J0.8523
N685 G2 X-1.8249 Y2.5185 I0.9979 J-0.5761
N690 G1 X-1.7292 Y2.5476
N695 G3 X-1.6959 Y2.61 I-0.0145 J0.0478
N700 G1 X-1.7104 Y2.6578
N705 Z0.225
N710 X-1.7031 Y-2.6339
N715 Z-0.5106 F20.
N720 Z-0.75
N725 X-1.6886 Y-2.586 F40.
N730 G3 X-1.7219 Y-2.5237 I-0.0478 J0.0145
N735 G1 X-1.8176 Y-2.4946
N740 G2 X-2.4662 Y-1.9796 I0.3277 J1.0786
N745 G3 X-3.2259 Y-1.541 I-0.7597 J-0.4386
N750 G1 X-3.6634
N755 G2 X-4.7044 Y-0.5 I0. J1.041
N760 G1 Y0.5
N765 G2 X-3.6634 Y1.541 I1.041 J0.
N770 G1 X-3.2259
N775 G3 X-2.4662 Y1.9796 I0. J0.8773
N780 G2 X-1.8176 Y2.4946 I0.9762 J-0.5636
N785 G1 X-1.7219 Y2.5237
N790 G3 X-1.6886 Y2.586 I-0.0145 J0.0478
N795 G1 X-1.7031 Y2.6339
N800 Z0.625
(WHEN USING FUSION FOR PERSONAL USE, THE FEEDRATE OF RAPID)
(MOVES IS REDUCED TO MATCH THE FEEDRATE OF CUTTING MOVES,)
(WHICH CAN INCREASE MACHINING TIME. UNRESTRICTED RAPID MOVES)
(ARE AVAILABLE WITH A FUSION SUBSCRIPTION.)
(2D CONTOUR2)
N805 G0 X3.1762 Y-2.475
N810 G1 Z0.625 F40.
N815 Z0.225
N820 Z0.0644 F20.
N825 Z-0.27
N830 Y-0.4 F40.
N835 X3.1562
N840 Y-2.475
N845 Z0.225
N850 X3.1762 Y0.4
N855 Z0.0644 F20.
N860 Z-0.27
N865 Y2.475 F40.
N870 X3.1562
N875 Y0.4
N880 Z0.625
(WHEN USING FUSION FOR PERSONAL USE, THE FEEDRATE OF RAPID)
(MOVES IS REDUCED TO MATCH THE FEEDRATE OF CUTTING MOVES,)
(WHICH CAN INCREASE MACHINING TIME. UNRESTRICTED RAPID MOVES)
(ARE AVAILABLE WITH A FUSION SUBSCRIPTION.)
(FACE1)
N885 G0 X3.6938 Y-2.3103
N890 G1 Z0.625 F40.
N895 Z0.225
N900 Z0.025 F20.
N905 G18 G3 X3.6687 Z0. I-0.025 K0. F40.
N910 G1 X3.6566
N915 X3.1758
N920 X3.1566
N925 X-2.2577
N930 X-2.4314
N935 G17 G2 Y-2.1225 I0. J0.0939
N940 G1 X3.1566
N945 X3.1758
N950 X3.6566
N955 G3 Y-1.9348 I0. J0.0939
N960 G1 X3.1758
N965 X3.1566
N970 X-2.5551
N975 X-2.7427
N980 G2 Y-1.7471 I0. J0.0939
N985 G1 X3.1566
N990 X3.1758
N995 X3.6734
N1000 X3.8579
N1005 G3 Y-1.5594 I0. J0.0939
N1010 G1 X3.1758
N1015 X3.1566
N1020 X-3.1605
N1025 G18 G3 X-3.1855 Z0.025 I0. K0.025
N1030 G1 Z0.225
N1035 X-4.3444 Y-1.3716
N1040 Z0.025 F20.
N1045 G2 X-4.3194 Z0. I0.025 K0. F40.
N1050 G1 X3.1566
N1055 X3.1758
N1060 X4.6726
N1065 X4.7048
N1070 G17 G3 Y-1.1839 I0. J0.0939
N1075 G1 X3.1758
N1080 X3.1566
N1085 X-4.5144
N1090 X-4.6262
N1095 G2 Y-0.9962 I0. J0.0939
N1100 G1 X3.1566
N1105 X3.1758
N1110 X4.7048
N1115 G3 Y-0.8085 I0. J0.0939
N1120 G1 X3.1758
N1125 X3.1566
N1130 X-4.6862
N1135 X-4.7048
N1140 G2 Y-0.6207 I0. J0.0939
N1145 G1 X3.1566
N1150 X3.1758
N1155 X4.7048
N1160 G18 G2 X4.7298 Z0.025 I0. K0.025
N1165 G1 Z0.225
N1170 X4.7419 Y0.5647
N1175 Z0.025 F20.
N1180 G3 X4.7169 Z0. I-0.025 K0. F40.
N1185 G1 X4.7048
N1190 X3.1758
N1195 X3.1566
N1200 X-4.7048
N1205 G17 G2 Y0.7525 I0. J0.0939
N1210 G1 X-4.6957
N1215 X3.1566
N1220 X3.1758
N1225 X4.7048
N1230 G3 Y0.9402 I0. J0.0939
N1235 G1 X3.1758
N1240 X3.1566
N1245 X-4.6487
N1250 G2 Y1.1279 I0. J0.0939
N1255 G1 X-4.5544
N1260 X3.1566
N1265 X3.1758
N1270 X4.7048
N1275 G3 Y1.3156 I0. J0.0939
N1280 G1 X4.694
N1285 X3.1758
N1290 X3.1566
N1295 X-4.3903
N1300 G2 Y1.5033 I0. J0.0939
N1305 G1 X-4.0486
N1310 X3.1566
N1315 X3.1758
N1320 X4.5463
N1325 G3 Y1.6911 I0. J0.0939
N1330 G1 X3.6993
N1335 X3.1758
N1340 X3.1566
N1345 X-2.8241
N1350 G2 Y1.8788 I0. J0.0939
N1355 G1 X-2.6011
N1360 X3.1566
N1365 X3.1758
N1370 X3.6566
N1375 G3 Y2.0665 I0. J0.0939
N1380 G1 X3.1758
N1385 X3.1566
N1390 X-2.4686
N1395 G2 Y2.2542 I0. J0.0939
N1400 G1 X-2.3193
N1405 X3.1566
N1410 X3.1758
N1415 X3.6566
N1420 G18 G2 X3.6816 Z0.025 I0. K0.025
N1425 G1 Z0.625
N1430 G17
N1435 M5
N1440 M9
N1445 G53 G0 Z0.
N1450 M30
%
>>>>>>> 93dd7c6ae7431e46137e616556ab670ebe7bedf6
