%
(SPW_HOLDER)
(T1 D=0.25 CR=0. - ZMIN=-0.75 - FLAT END MILL)
N10 G90 G94 G17 G91.1
N15 G20
(WHEN USING FUSION FOR PERSONAL USE, THE FEEDRATE OF RAPID)
(MOVES IS REDUCED TO MATCH THE FEEDRATE OF CUTTING MOVES,)
(WHICH CAN INCREASE MACHINING TIME. UNRESTRICTED RAPID MOVES)
(ARE AVAILABLE WITH A FUSION SUBSCRIPTION.)
N20 G54 G0 Z0.6
(2D CONTOUR1)
N25 T1 M6
N30 S5000 M3
N35 G17 G90 G94
(N40 G54)
N45 G64 P0.0004 Q0.0004
N50 M8
N55 G0 X-1.7104 Y-2.8578
N60 G43 Z0.9 H1
N65 G0 Z0.575
N70 G0 Z0.1144
N75 G1 F40. Z-0.175
N80 X-1.6959 Y-2.81 F30.
N85 G3 X-1.7292 Y-2.7476 I-0.0478 J0.0145
N90 G1 X-1.8249 Y-2.7185
N95 G2 X-2.4878 Y-2.1921 I0.3349 J1.1025
N100 G3 X-3.2259 Y-1.766 I-0.7381 J-0.4261
N105 G1 X-3.6634
N110 G2 X-4.7294 Y-0.7 I0. J1.066
N115 G1 Y0.7
N120 G2 X-3.6634 Y1.766 I1.066 J0.
N125 G1 X-3.2259
N130 G3 X-2.4878 Y2.1921 I0. J0.8523
N135 G2 X-1.8249 Y2.7185 I0.9979 J-0.5761
N140 G1 X-1.7292 Y2.7476
N145 G3 X-1.6959 Y2.81 I-0.0145 J0.0478
N150 G1 X-1.7104 Y2.8578
N155 G0 Z0.575
N160 Y-2.8578
N165 G1 Z-0.1356 F40.
N170 Z-0.51
N175 X-1.6959 Y-2.81 F30.
N180 G3 X-1.7292 Y-2.7476 I-0.0478 J0.0145
N185 G1 X-1.8249 Y-2.7185
N190 G2 X-2.4878 Y-2.1921 I0.3349 J1.1025
N195 G3 X-3.2259 Y-1.766 I-0.7381 J-0.4261
N200 G1 X-3.6634
N205 G2 X-4.7294 Y-0.7 I0. J1.066
N210 G1 Y0.7
N215 G2 X-3.6634 Y1.766 I1.066 J0.
N220 G1 X-3.2259
N225 G3 X-2.4878 Y2.1921 I0. J0.8523
N230 G2 X-1.8249 Y2.7185 I0.9979 J-0.5761
N235 G1 X-1.7292 Y2.7476
N240 G3 X-1.6959 Y2.81 I-0.0145 J0.0478
N245 G1 X-1.7104 Y2.8578
N250 G0 Z0.575
N255 Y-2.8578
N355 G1 Z-0.6356 F40.
N360 Z-0.75
N365 X-1.6959 Y-2.81 F30.
N370 G3 X-1.7292 Y-2.7476 I-0.0478 J0.0145
N375 G1 X-1.8249 Y-2.7185
N380 G2 X-2.4878 Y-2.1921 I0.3349 J1.1025
N385 G3 X-3.2259 Y-1.766 I-0.7381 J-0.4261
N390 G1 X-3.6634
N395 G2 X-4.7294 Y-0.7 I0. J1.066
N400 G1 Y0.7
N405 G2 X-3.6634 Y1.766 I1.066 J0.
N410 G1 X-3.2259
N415 G3 X-2.4878 Y2.1921 I0. J0.8523
N420 G2 X-1.8249 Y2.7185 I0.9979 J-0.5761
N425 G1 X-1.7292 Y2.7476
N430 G3 X-1.6959 Y2.81 I-0.0145 J0.0478
N435 G1 X-1.7104 Y2.8578
N440 G0 Z0.575
N445 X-1.7031 Y-2.8339
N450 G1 Z-0.6356 F40.
N455 Z-0.75
N460 X-1.6886 Y-2.786 F20.
N465 G3 X-1.7219 Y-2.7237 I-0.0478 J0.0145
N470 G1 X-1.8176 Y-2.6946
N475 G2 X-2.4662 Y-2.1796 I0.3277 J1.0786
N480 G3 X-3.2259 Y-1.741 I-0.7597 J-0.4386
N485 G1 X-3.6634
N490 G2 X-4.7044 Y-0.7 I0. J1.041
N495 G1 Y0.7
N500 G2 X-3.6634 Y1.741 I1.041 J0.
N505 G1 X-3.2259
N510 G3 X-2.4662 Y2.1796 I0. J0.8773
N515 G2 X-1.8176 Y2.6946 I0.9762 J-0.5636
N520 G1 X-1.7219 Y2.7237
N525 G3 X-1.6886 Y2.786 I-0.0145 J0.0478
N530 G1 X-1.7031 Y2.8339
N535 G0 Z0.9
(WHEN USING FUSION FOR PERSONAL USE, THE FEEDRATE OF RAPID)
(MOVES IS REDUCED TO MATCH THE FEEDRATE OF CUTTING MOVES,)
(WHICH CAN INCREASE MACHINING TIME. UNRESTRICTED RAPID MOVES)
(ARE AVAILABLE WITH A FUSION SUBSCRIPTION.)
(2D CONTOUR1 2)
N540 G0 X3.7812 Y2.725
N545 G0 Z0.9
N550 Z0.575
N555 Z0.1144
N560 G1 Z-0.180 F40.
N565 X3.7312 F30.
N570 G3 X3.6812 Y2.675 I0. J-0.05
N575 G1 Y1.9213
N580 G3 X3.8366 Y1.766 I0.1553 J0.
N585 G1 X4.2741
N590 G2 X4.7294 Y1.3107 I0. J-0.4553
N595 G1 Y-1.3107
N600 G2 X4.2741 Y-1.766 I-0.4553 J0.
N605 G1 X3.8366
N610 G3 X3.6812 Y-1.9213 I0. J-0.1553
N615 G1 Y-2.575
N620 Y-2.675
N625 G3 X3.7312 Y-2.725 I0.05 J0.
N630 G1 X3.7812
N635 G0 Z0.575
N640 Y2.725
N645 G1 Z-0.1356 F40.
N650 Z-0.51
N655 X3.7312 F30.
N660 G3 X3.6812 Y2.675 I0. J-0.05
N665 G1 Y1.9213
N670 G3 X3.8366 Y1.766 I0.1553 J0.
N675 G1 X4.2741
N680 G2 X4.7294 Y1.3107 I0. J-0.4553
N685 G1 Y-1.3107
N690 G2 X4.2741 Y-1.766 I-0.4553 J0.
N695 G1 X3.8366
N700 G3 X3.6812 Y-1.9213 I0. J-0.1553
N705 G1 Y-2.575
N710 Y-2.675
N715 G3 X3.7312 Y-2.725 I0.05 J0.
N720 G1 X3.7812
N725 G0 Z0.575
N730 Y2.725
N825 G1 Z-0.6356 F40.
N830 Z-0.75
N835 X3.7312 F30.
N840 G3 X3.6812 Y2.675 I0. J-0.05
N845 G1 Y1.9213
N850 G3 X3.8366 Y1.766 I0.1553 J0.
N855 G1 X4.2741
N860 G2 X4.7294 Y1.3107 I0. J-0.4553
N865 G1 Y-1.3107
N870 G2 X4.2741 Y-1.766 I-0.4553 J0.
N875 G1 X3.8366
N880 G3 X3.6812 Y-1.9213 I0. J-0.1553
N885 G1 Y-2.575
N890 Y-2.675
N895 G3 X3.7312 Y-2.725 I0.05 J0.
N900 G1 X3.7812
N905 G0 Z0.575
N910 X3.7562 Y2.725
N915 G1 Z-0.6356 F40.
N920 Z-0.75
N925 X3.7062 F20.
N930 G3 X3.6562 Y2.675 I0. J-0.05
N935 G1 Y1.9213
N940 G3 X3.8366 Y1.741 I0.1803 J0.
N945 G1 X4.2741
N950 G2 X4.7044 Y1.3107 I0. J-0.4303
N955 G1 Y-1.3107
N960 G2 X4.2741 Y-1.741 I-0.4303 J0.
N965 G1 X3.8366
N970 G3 X3.6562 Y-1.9213 I0. J-0.1803
N975 G1 Y-2.575
N980 Y-2.675
N985 G3 X3.7062 Y-2.725 I0.05 J0.
N990 G1 X3.7562
N995 G0 Z0.9
(WHEN USING FUSION FOR PERSONAL USE, THE FEEDRATE OF RAPID)
(MOVES IS REDUCED TO MATCH THE FEEDRATE OF CUTTING MOVES,)
(WHICH CAN INCREASE MACHINING TIME. UNRESTRICTED RAPID MOVES)
(ARE AVAILABLE WITH A FUSION SUBSCRIPTION.)
(2D CONTOUR2)
N1000 G0 X3.1762 Y-2.675
N1005 G0 Z0.775
N1010 G0 Z0.275
N1015 Z0.1144
N1020 G1 Z-0.125 F40.
N1025 Y-0.6 F30.
N1030 X3.1562
N1035 Y-2.575
N1040 Y-2.675
N1045 X3.1762
N1050 Z-0.29 F40.
N1055 Y-0.6 F30.
N1060 X3.1562
N1065 Y-2.575
N1070 Y-2.675
N1075 G0 Z0.375
N1080 X3.1762 Y0.6
N1085 Z0.275
N1090 Z0.1144
N1095 G1 Z-0.125 F40.
N1100 Y2.575 F30.
N1105 Y2.675
N1110 X3.1562
N1115 Y0.6
N1120 X3.1762
N1125 Z-0.29 F40.
N1130 Y2.575 F30.
N1135 Y2.675
N1140 X3.1562
N1145 Y0.6
N1150 G0 Z0.775
(WHEN USING FUSION FOR PERSONAL USE, THE FEEDRATE OF RAPID)
(MOVES IS REDUCED TO MATCH THE FEEDRATE OF CUTTING MOVES,)
(WHICH CAN INCREASE MACHINING TIME. UNRESTRICTED RAPID MOVES)
(ARE AVAILABLE WITH A FUSION SUBSCRIPTION.)
(FACE1)
N1155 G0 X3.6687 Y-2.5109
N1165 G0 Z0.2
N1170 G1 Z0. F40.
N1175 X3.6566 F40.
N1180 X-2.2569
N1185 G0 Z0.075
N1190 X-4.7147 Y-0.7653
N1195 G1 Z0. F40.
N1200 X-4.7048 F40.
N1205 X4.7048
N1210 G0 Z0.075
N1215 X3.6687 Y-2.3238
N1220 G1 Z0. F40.
N1225 X3.6566 F40.
N1230 X-2.4305
N1235 G0 Z0.075
N1240 X-4.6955 Y-0.9537
N1245 G1 Z0. F40.
N1250 X4.7048 F40.
N1255 G0 Z0.075
N1260 X3.6687 Y-2.1367
N1265 G1 Z0. F40.
N1270 X3.6566 F40.
N1275 X-2.5536
N1280 G0 Z0.075
N1285 X-4.648 Y-1.142
N1290 G1 Z0. F40.
N1295 X4.7048 F40.
N1300 G0 Z0.075
N1305 X3.6726 Y-1.9496
N1310 G1 Z0. F40.
N1315 X-2.7393 F40.
N1320 G0 Z0.075
N1325 X-4.5527 Y-1.3304
N1330 G1 Z0. F40.
N1335 X4.7048 F40.
N1340 G0 Z0.075
N1345 X3.8499 Y-1.7625
N1350 G1 Z0. F40.
N1355 X-3.1456 F40.
N1360 X-4.3868 Y-1.5187
N1365 X4.6932
N1370 G0 Z0.075
N1375 X4.7169 Y0.7641
N1380 G1 Z0. F40.
N1385 X4.7048 F40.
N1390 X-4.7048
N1395 G0 Z0.075
N1400 X-2.2584 Y2.5096
N1405 G1 Z0. F40.
N1410 X3.6566 F40.
N1415 G0 Z0.075
N1420 X4.7169 Y0.9512
N1425 G1 Z0. F40.
N1430 X4.7048 F40.
N1435 X-4.6959
N1440 G0 Z0.075
N1445 X-2.4323 Y2.3213
N1450 G1 Z0. F40.
N1455 X3.6566 F40.
N1460 G0 Z0.075
N1465 X4.7169 Y1.1383
N1470 G1 Z0. F40.
N1475 X4.7048 F40.
N1480 X-4.6494
N1485 G0 Z0.075
N1490 X-2.5565 Y2.1329
N1495 G1 Z0. F40.
N1500 X3.6566 F40.
N1505 G0 Z0.075
N1510 X4.7165 Y1.3254
N1515 G1 Z0. F40.
N1520 X4.7048 F40.
N1525 X-4.556
N1530 G0 Z0.075
N1535 X-2.746 Y1.9446
N1540 G1 Z0. F40.
N1545 X3.6742 F40.
N1550 G0 Z0.075
N1555 X4.6948 Y1.7562
N1560 G1 Z0. F40.
N1565 X-3.2 F40.
N1570 X-4.4 Y1.5125
N1575 X4.473
N1580 Z0.475
N1585 M5
N1590 M9
N1595 G0 Z0.6
N1596 G0 X-3 Y-3
N1600 M30
%
