(Project THF-HOBIT-JIG)
(Created by Estlcam version 11 build 11.245)
(Machining time about 00:00:07 hours)

(Required tools:)
(End mill 1/4)

G90
M03 S2000
G00 Z0.19685


(No. 1: Hole 9)
G00 X0.63801 Y-0.04997
G00 Z0.01969
G01 Z0.00000 F15.00 S2000
G01 Z-0.15000
G03 X0.67332 Y-0.09534 I0.10725 J0.04703 F30.00
G03 X0.82317 Y-0.18178 I0.27137 J0.29732
G03 X1.62595 Y-0.27619 I0.60336 J1.67028
G01 X1.68360 Y-0.26963
G03 X1.75238 Y-0.19257 I-0.00654 J0.07506
G01 Y0.19257
G03 X1.68354 Y0.26965 I-0.07536 J0.00198
G03 X1.29860 Y0.28282 I-0.25512 J-1.82533
G03 X0.77732 Y0.16389 I0.12402 J-1.74546
G03 X0.64972 Y0.07076 I0.15157 J-0.34166
G03 X0.63801 Y-0.04997 I0.10652 J-0.07126
G00 Z0.19685

M05
M30
