(Project THF-HOBIT-JIG)
(Created by Estlcam version 11 build 11.245)
(Machining time about 00:00:07 hours)

(Required tools:)
(End mill 1/4)

G90
M03 S2000
G00 Z0.19685


(No. 1: Hole 3)
G00 X0.63343 Y-0.04109
G00 Z0.01969
G01 Z0.00000 F15.00 S2000
G01 Z-0.15000
G03 X0.68829 Y-0.09716 I0.10171 J0.04465 F30.00
G03 X0.89825 Y-0.18267 I0.42727 J0.74864
G03 X1.69268 Y-0.25335 I0.57643 J1.97878
G03 X1.75458 Y-0.17730 I-0.01323 J0.07399
G01 Y0.17730
G03 X1.67775 Y0.25515 I-0.07627 J0.00157
G03 X0.80444 Y0.15227 I-0.20182 J-2.04489
G03 X0.66485 Y0.08222 I0.25214 J-0.67652
G03 X0.63343 Y-0.04109 I0.06494 J-0.08221
G00 Z0.19685

M05
M30
