%
(WHEELHUB)
(MACHINE)
(  VENDOR LINUXCNC)
(  MODEL LINUXCNC)
(  DESCRIPTION GENERIC 3-AXIS)
(T1 D=0.25 CR=0. - ZMIN=-0.52 - FLAT END MILL)
N10 G90 G94 G17 G91.1
N15 G20
(WHEN USING FUSION FOR PERSONAL USE, THE FEEDRATE OF RAPID)
(MOVES IS REDUCED TO MATCH THE FEEDRATE OF CUTTING MOVES,)
(WHICH CAN INCREASE MACHINING TIME. UNRESTRICTED RAPID MOVES)
(ARE AVAILABLE WITH A FUSION SUBSCRIPTION.)
N20 G53 G0 Z0.
(ADAPTIVE3)
N25 T1 M6
N30 S3000 M3
N35 G17 G90 G94
N40 G54
N45 G64 P0.004 Q0.004
N50 M8
N55 G0 X-1.9994 Y-2.1243
N60 G43 Z0.6 H1
N65 G1 Z0.2 F12.
N70 Z0.125
N75 Z0.1 F10.
N80 Z-0.125 F6.
N85 Y-2.1183 F12.
N90 X-2.0066 Y-2.0829
N95 X-2.0118 Y-2.0471
N100 X-2.0154 Y-2.0111
N105 X-2.018 Y-1.975
N110 X-2.0199 Y-1.9389
N115 X-2.0212 Y-1.9027
N120 X-2.0221 Y-1.8665
N125 X-2.0227 Y-1.8304
N130 X-2.0232 Y-1.7942
N135 X-2.0235 Y-1.758
N140 X-2.0237 Y-1.7218
N145 X-2.0238 Y-1.6856
N150 X-2.024 Y-1.6133
N155 X-2.0241 Y-1.5047
N160 X-2.024 Y-1.2153
N165 X-2.0236 Y-0.1298
N170 X-2.0228 Y1.8602
N175 Y1.8783
N180 X-2.0224 Y1.8873
N185 X-2.0207 Y1.8962
N190 X-2.0145 Y1.9132
N195 X-1.9939 Y1.9429
N200 X-1.9656 Y1.9655
N205 X-1.9334 Y1.9821
N210 X-1.8993 Y1.9942
N215 X-1.8642 Y2.003
N220 X-1.8286 Y2.0092
N225 X-1.7927 Y2.0137
N230 X-1.7567 Y2.0169
N235 X-1.7205 Y2.0191
N240 X-1.6844 Y2.0207
N245 X-1.6482 Y2.0218
N250 X-1.6121 Y2.0226
N255 X-1.5759 Y2.0231
N260 X-1.5397 Y2.0235
N265 X-1.5035 Y2.0238
N270 X-1.4673 Y2.024
N275 X-1.4312 Y2.0241
N280 X-1.3588 Y2.0242
N285 X-1.2502 Y2.0243
N290 X-0.9246 Y2.0242
N295 X-0.1286 Y2.0238
N300 X1.8614 Y2.0228
N305 X1.8795
N310 X1.8885 Y2.0221
N315 X1.9061 Y2.0179
N320 X1.9374 Y1.9998
N325 X1.9614 Y1.9727
N330 X1.9791 Y1.9411
N335 X1.992 Y1.9074
N340 X2.0014 Y1.8724
N345 X2.0081 Y1.8369
N350 X2.0129 Y1.801
N355 X2.0163 Y1.765
N360 X2.0187 Y1.7289
N365 X2.0204 Y1.6927
N370 X2.0216 Y1.6566
N375 X2.0224 Y1.6204
N380 X2.023 Y1.5842
N385 X2.0234 Y1.548
N390 X2.0237 Y1.5119
N395 X2.0239 Y1.4757
N400 X2.0241 Y1.4395
N405 X2.0242 Y1.3671
N410 X2.0243 Y1.2586
N415 X2.0242 Y0.9691
N420 X2.0238 Y0.1008
N425 X2.0228 Y-1.8892
N430 X2.0177 Y-1.9066
N435 X1.9994 Y-1.9378
N440 X1.9722 Y-1.9617
N445 X1.9406 Y-1.9793
N450 X1.9068 Y-1.9922
N455 X1.8719 Y-2.0016
N460 X1.8363 Y-2.0083
N465 X1.8004 Y-2.013
N470 X1.7644 Y-2.0164
N475 X1.7283 Y-2.0188
N480 X1.6922 Y-2.0206
N485 X1.656 Y-2.0218
N490 X1.6198 Y-2.0226
N495 X1.5837 Y-2.0232
N500 X1.5475 Y-2.0236
N505 X1.5113 Y-2.0239
N510 X1.4751 Y-2.0241
N515 X1.4389 Y-2.0243
N520 X1.3666 Y-2.0244
N525 X1.258 Y-2.0246
N530 X0.9686
N535 X0.1002 Y-2.0245
N540 X-1.7813 Y-2.0243
N545 X-1.7987 Y-2.0197
N550 X-1.8306 Y-2.0025
N555 X-1.8554 Y-1.9761
N560 X-1.8741 Y-1.9451
N565 X-1.8879 Y-1.9117
N570 X-1.898 Y-1.877
N575 X-1.9054 Y-1.8416
N580 X-1.9107 Y-1.8058
N585 X-1.9146 Y-1.7698
N590 X-1.9173 Y-1.7337
N595 X-1.9193 Y-1.6976
N600 X-1.9207 Y-1.6614
N605 X-1.9217 Y-1.6253
N610 X-1.9224 Y-1.5891
N615 X-1.9229 Y-1.5529
N620 X-1.9233 Y-1.5167
N625 X-1.9235 Y-1.4806
N630 X-1.9237 Y-1.4444
N635 X-1.9239 Y-1.372
N640 X-1.924 Y-1.2635
N645 Y-1.0464
N650 X-1.9235 Y0.0029
N655 X-1.9228 Y1.7396
N660 X-1.9224 Y1.7577
N665 X-1.9144 Y1.793
N670 X-1.8948 Y1.8235
N675 X-1.8683 Y1.848
N680 X-1.8376 Y1.8672
N685 X-1.8046 Y1.882
N690 X-1.7701 Y1.8931
N695 X-1.7349 Y1.9014
N700 X-1.6993 Y1.9075
N705 X-1.6634 Y1.9121
N710 X-1.6273 Y1.9154
N715 X-1.5912 Y1.9179
N720 X-1.5551 Y1.9197
N725 X-1.519 Y1.921
N730 X-1.4828 Y1.9219
N735 X-1.4466 Y1.9226
N740 X-1.4104 Y1.9231
N745 X-1.3742 Y1.9234
N750 X-1.3381 Y1.9237
N755 X-1.3019 Y1.9238
N760 X-1.2295 Y1.924
N765 X-1.121 Y1.9242
N770 X-0.9039 Y1.9241
N775 X0.2178 Y1.9236
N780 X1.7555 Y1.9229
N785 X1.7732 Y1.9193
N790 X1.8068 Y1.906
N795 X1.8348 Y1.883
N800 X1.857 Y1.8544
N805 X1.8742 Y1.8226
N810 X1.8872 Y1.7888
N815 X1.897 Y1.754
N820 X1.9043 Y1.7186
N825 X1.9097 Y1.6828
N830 X1.9137 Y1.6468
N835 X1.9166 Y1.6108
N840 X1.9187 Y1.5746
N845 X1.9203 Y1.5385
N850 X1.9214 Y1.5023
N855 X1.9222 Y1.4662
N860 X1.9228 Y1.43
N865 X1.9232 Y1.3938
N870 X1.9235 Y1.3576
N875 X1.9238 Y1.3214
N880 X1.9239 Y1.2853
N885 X1.9241 Y1.2129
N890 X1.9242 Y1.1043
N895 X1.9241 Y0.8873
N900 X1.9235 Y-0.4515
N905 X1.9229 Y-1.754
N910 X1.9196 Y-1.7718
N915 X1.9067 Y-1.8056
N920 X1.8841 Y-1.8339
N925 X1.8557 Y-1.8563
N930 X1.8239 Y-1.8736
N935 X1.7902 Y-1.8868
N940 X1.7555 Y-1.8967
N945 X1.72 Y-1.9041
N950 X1.6843 Y-1.9096
N955 X1.6483 Y-1.9137
N960 X1.6123 Y-1.9166
N965 X1.5761 Y-1.9188
N970 X1.54 Y-1.9204
N975 X1.5038 Y-1.9216
N980 X1.4677 Y-1.9224
N985 X1.4315 Y-1.923
N990 X1.3953 Y-1.9235
N995 X1.3591 Y-1.9238
N1000 X1.3229 Y-1.924
N1005 X1.2868 Y-1.9242
N1010 X1.2144 Y-1.9244
N1015 X1.1059 Y-1.9245
N1020 X0.8888 Y-1.9246
N1025 X-0.6671 Y-1.9244
N1030 X-1.644 Y-1.9243
N1035 X-1.662 Y-1.9224
N1040 X-1.6966 Y-1.9119
N1045 X-1.7261 Y-1.891
N1050 X-1.7498 Y-1.8637
N1055 X-1.7684 Y-1.8326
N1060 X-1.7826 Y-1.7993
N1065 X-1.7933 Y-1.7648
N1070 X-1.8014 Y-1.7295
N1075 X-1.8074 Y-1.6938
N1080 X-1.8118 Y-1.6579
N1085 X-1.8151 Y-1.6219
N1090 X-1.8176 Y-1.5858
N1095 X-1.8193 Y-1.5496
N1100 X-1.8206 Y-1.5135
N1105 X-1.8216 Y-1.4773
N1110 X-1.8223 Y-1.4411
N1115 X-1.8228 Y-1.405
N1120 X-1.8231 Y-1.3688
N1125 X-1.8234 Y-1.3326
N1130 X-1.8235 Y-1.2964
N1135 X-1.8238 Y-1.224
N1140 X-1.8239 Y-1.1155
N1145 Y-1.007
N1150 X-1.8237 Y-0.428
N1155 X-1.8231 Y0.9831
N1160 X-1.8229 Y1.6343
N1165 X-1.8188 Y1.6703
N1170 X-1.8033 Y1.703
N1175 X-1.7798 Y1.7305
N1180 X-1.7511 Y1.7526
N1185 X-1.7194 Y1.77
N1190 X-1.6858 Y1.7834
N1195 X-1.6511 Y1.7937
N1200 X-1.6158 Y1.8015
N1205 X-1.5801 Y1.8073
N1210 X-1.5442 Y1.8117
N1215 X-1.5081 Y1.815
N1220 X-1.472 Y1.8174
N1225 X-1.4359 Y1.8193
N1230 X-1.3997 Y1.8206
N1235 X-1.3636 Y1.8216
N1240 X-1.3274 Y1.8223
N1245 X-1.2912 Y1.8228
N1250 X-1.255 Y1.8232
N1255 X-1.2189 Y1.8235
N1260 X-1.1827 Y1.8237
N1265 X-1.1465 Y1.8238
N1270 X-1.0741 Y1.824
N1275 X-0.9656 Y1.8241
N1280 X-0.7485
N1285 X-0.5676 Y1.824
N1290 X1.4224 Y1.823
N1295 X1.6395 Y1.8229
N1300 X1.6752 Y1.8169
N1305 X1.7072 Y1.8
N1310 X1.7339 Y1.7756
N1315 X1.7553 Y1.7464
N1320 X1.7721 Y1.7144
N1325 X1.785 Y1.6806
N1330 X1.7949 Y1.6458
N1335 X1.8024 Y1.6104
N1340 X1.808 Y1.5747
N1345 X1.8122 Y1.5387
N1350 X1.8154 Y1.5027
N1355 X1.8177 Y1.4666
N1360 X1.8195 Y1.4304
N1365 X1.8207 Y1.3943
N1370 X1.8217 Y1.3581
N1375 X1.8224 Y1.3219
N1380 X1.8229 Y1.2857
N1385 X1.8233 Y1.2496
N1390 X1.8235 Y1.2134
N1395 X1.8237 Y1.1772
N1400 X1.8238 Y1.141
N1405 X1.824 Y1.0687
N1410 X1.8241 Y0.9601
N1415 Y0.743
N1420 X1.8238 Y0.1279
N1425 X1.8229 Y-1.645
N1430 X1.8152 Y-1.6803
N1435 X1.797 Y-1.7116
N1440 X1.7717 Y-1.7375
N1445 X1.742 Y-1.7581
N1450 X1.7096 Y-1.7743
N1455 X1.6756 Y-1.7868
N1460 X1.6407 Y-1.7963
N1465 X1.6053 Y-1.8035
N1470 X1.5695 Y-1.8089
N1475 X1.5335 Y-1.8129
N1480 X1.4975 Y-1.816
N1485 X1.4614 Y-1.8182
N1490 X1.4252 Y-1.8199
N1495 X1.3891 Y-1.8211
N1500 X1.3529 Y-1.822
N1505 X1.3167 Y-1.8227
N1510 X1.2806 Y-1.8232
N1515 X1.2444 Y-1.8236
N1520 X1.2082 Y-1.8239
N1525 X1.172 Y-1.8241
N1530 X1.0996 Y-1.8243
N1535 X0.9911 Y-1.8245
N1540 X0.8102
N1545 X-0.3114
N1550 X-1.5416 Y-1.8243
N1555 X-1.5771 Y-1.8172
N1560 X-1.6086 Y-1.7994
N1565 X-1.6348 Y-1.7745
N1570 X-1.6558 Y-1.745
N1575 X-1.6723 Y-1.7128
N1580 X-1.6851 Y-1.679
N1585 X-1.6948 Y-1.6441
N1590 X-1.7022 Y-1.6087
N1595 X-1.7078 Y-1.5729
N1600 X-1.7119 Y-1.537
N1605 X-1.7151 Y-1.501
N1610 X-1.7174 Y-1.4648
N1615 X-1.7191 Y-1.4287
N1620 X-1.7204 Y-1.3925
N1625 X-1.7214 Y-1.3564
N1630 X-1.7221 Y-1.3202
N1635 X-1.7226 Y-1.284
N1640 X-1.723 Y-1.2478
N1645 X-1.7232 Y-1.2117
N1650 X-1.7234 Y-1.1755
N1655 X-1.7236 Y-1.1393
N1660 X-1.7237 Y-1.0669
N1665 X-1.7238 Y-0.9584
N1670 Y-0.7413
N1675 X-1.7232 Y0.8507
N1680 X-1.7229 Y1.5382
N1685 X-1.7154 Y1.5736
N1690 X-1.6978 Y1.6052
N1695 X-1.6732 Y1.6317
N1700 X-1.644 Y1.653
N1705 X-1.612 Y1.6699
N1710 X-1.5783 Y1.683
N1715 X-1.5435 Y1.6931
N1720 X-1.5082 Y1.7008
N1725 X-1.4725 Y1.7067
N1730 X-1.4366 Y1.7111
N1735 X-1.4005 Y1.7145
N1740 X-1.3644 Y1.717
N1745 X-1.3283 Y1.7188
N1750 X-1.2921 Y1.7202
N1755 X-1.256 Y1.7213
N1760 X-1.2198 Y1.722
N1765 X-1.1836 Y1.7226
N1770 X-1.1474 Y1.723
N1775 X-1.1113 Y1.7233
N1780 X-1.0751 Y1.7235
N1785 X-1.0389 Y1.7237
N1790 X-0.9665 Y1.7239
N1795 X-0.858 Y1.724
N1800 X-0.6771
N1805 X-0.4962 Y1.7239
N1810 X1.4938 Y1.723
N1815 X1.53
N1820 X1.5659 Y1.718
N1825 X1.5985 Y1.7025
N1830 X1.6262 Y1.6791
N1835 X1.6486 Y1.6507
N1840 X1.6664 Y1.6192
N1845 X1.6803 Y1.5858
N1850 X1.6911 Y1.5513
N1855 X1.6993 Y1.516
N1860 X1.7055 Y1.4804
N1865 X1.7102 Y1.4445
N1870 X1.7138 Y1.4085
N1875 X1.7165 Y1.3724
N1880 X1.7185 Y1.3363
N1885 X1.7199 Y1.3002
N1890 X1.7211 Y1.264
N1895 X1.7219 Y1.2278
N1900 X1.7225 Y1.1917
N1905 X1.7229 Y1.1555
N1910 X1.7233 Y1.1193
N1915 X1.7235 Y1.0831
N1920 X1.7237 Y1.0469
N1925 X1.7239 Y0.9746
N1930 X1.724 Y0.866
N1935 Y0.6851
N1940 X1.7236 Y-0.1471
N1945 X1.723 Y-1.522
N1950 X1.7204 Y-1.5581
N1955 X1.707 Y-1.5917
N1960 X1.6851 Y-1.6205
N1965 X1.6577 Y-1.6441
N1970 X1.6268 Y-1.6629
N1975 X1.5937 Y-1.6776
N1980 X1.5594 Y-1.689
N1985 X1.5243 Y-1.6978
N1990 X1.4887 Y-1.7044
N1995 X1.4529 Y-1.7095
N2000 X1.4169 Y-1.7133
N2005 X1.3808 Y-1.7161
N2010 X1.3447 Y-1.7183
N2015 X1.3086 Y-1.7199
N2020 X1.2724 Y-1.7211
N2025 X1.2362 Y-1.722
N2030 X1.2001 Y-1.7227
N2035 X1.1639 Y-1.7232
N2040 X1.1277 Y-1.7235
N2045 X1.0915 Y-1.7238
N2050 X1.0553 Y-1.724
N2055 X0.983 Y-1.7243
N2060 X0.8744 Y-1.7244
N2065 X0.6935 Y-1.7245
N2070 X-0.7176 Y-1.7244
N2075 X-0.7899
N2080 X-1.4412 Y-1.7243
N2085 X-1.4763 Y-1.7155
N2090 X-1.5073 Y-1.6969
N2095 X-1.5333 Y-1.6717
N2100 X-1.5542 Y-1.6422
N2105 X-1.5707 Y-1.61
N2110 X-1.5835 Y-1.5761
N2115 X-1.5934 Y-1.5413
N2120 X-1.6009 Y-1.5059
N2125 X-1.6067 Y-1.4702
N2130 X-1.611 Y-1.4343
N2135 X-1.6143 Y-1.3982
N2140 X-1.6168 Y-1.3622
N2145 X-1.6186 Y-1.326
N2150 X-1.62 Y-1.2899
N2155 X-1.621 Y-1.2537
N2160 X-1.6218 Y-1.2175
N2165 X-1.6223 Y-1.1813
N2170 X-1.6228 Y-1.1452
N2175 X-1.6231 Y-1.109
N2180 X-1.6233 Y-1.0728
N2185 X-1.6235 Y-1.0366
N2190 X-1.6237 Y-0.9643
N2195 X-1.6238 Y-0.8557
N2200 Y-0.6748
N2205 X-1.6237 Y-0.4577
N2210 X-1.623 Y1.4237
N2215 X-1.6187 Y1.4597
N2220 X-1.604 Y1.4927
N2225 X-1.5814 Y1.521
N2230 X-1.5536 Y1.5442
N2235 X-1.5225 Y1.5627
N2240 X-1.4894 Y1.5772
N2245 X-1.455 Y1.5885
N2250 X-1.4199 Y1.5971
N2255 X-1.3843 Y1.6038
N2260 X-1.3485 Y1.6088
N2265 X-1.3125 Y1.6126
N2270 X-1.2764 Y1.6155
N2275 X-1.2403 Y1.6177
N2280 X-1.2042 Y1.6193
N2285 X-1.168 Y1.6206
N2290 X-1.1318 Y1.6215
N2295 X-1.0956 Y1.6222
N2300 X-1.0595 Y1.6227
N2305 X-1.0233 Y1.6231
N2310 X-0.9871 Y1.6233
N2315 X-0.9509 Y1.6235
N2320 X-0.9147 Y1.6237
N2325 X-0.8424 Y1.6239
N2330 X-0.7338 Y1.624
N2335 X-0.5167 Y1.6239
N2340 X0.3878 Y1.6235
N2345 X1.4009 Y1.623
N2350 X1.4371 Y1.6229
N2355 X1.4723 Y1.6146
N2360 X1.5037 Y1.5966
N2365 X1.5301 Y1.5719
N2370 X1.5515 Y1.5427
N2375 X1.5684 Y1.5107
N2380 X1.5817 Y1.4771
N2385 X1.5919 Y1.4423
N2390 X1.5998 Y1.407
N2395 X1.6058 Y1.3714
N2400 X1.6103 Y1.3355
N2405 X1.6138 Y1.2994
N2410 X1.6164 Y1.2634
N2415 X1.6184 Y1.2272
N2420 X1.6198 Y1.1911
N2425 X1.6209 Y1.1549
N2430 X1.6218 Y1.1187
N2435 X1.6224 Y1.0826
N2440 X1.6228 Y1.0464
N2445 X1.6232 Y1.0102
N2450 X1.6234 Y0.974
N2455 X1.6236 Y0.9378
N2460 X1.6238 Y0.8655
N2465 X1.6239 Y0.7569
N2470 X1.624 Y0.576
N2475 X1.6234 Y-0.618
N2480 X1.6231 Y-1.2331
N2485 X1.623 Y-1.414
N2490 X1.6214 Y-1.4501
N2495 X1.6093 Y-1.4842
N2500 X1.5886 Y-1.5139
N2505 X1.562 Y-1.5384
N2510 X1.5317 Y-1.5582
N2515 X1.499 Y-1.5737
N2520 X1.4649 Y-1.5858
N2525 X1.43 Y-1.5952
N2530 X1.3945 Y-1.6023
N2535 X1.3587 Y-1.6078
N2540 X1.3228 Y-1.612
N2545 X1.2867 Y-1.6151
N2550 X1.2506 Y-1.6175
N2555 X1.2145 Y-1.6192
N2560 X1.1783 Y-1.6206
N2565 X1.1422 Y-1.6216
N2570 X1.106 Y-1.6223
N2575 X1.0698 Y-1.6229
N2580 X1.0336 Y-1.6233
N2585 X0.9975 Y-1.6236
N2590 X0.9613 Y-1.6239
N2595 X0.9251 Y-1.6241
N2600 X0.8527 Y-1.6243
N2605 X0.7442 Y-1.6244
N2610 X0.5633 Y-1.6245
N2615 X-0.088
N2620 X-1.3182 Y-1.6244
N2625 X-1.3542 Y-1.6214
N2630 X-1.3878 Y-1.608
N2635 X-1.4168 Y-1.5864
N2640 X-1.4407 Y-1.5592
N2645 X-1.4543 Y-1.5373
N2650 X-1.4593 Y-1.5304
N2655 X-1.4653 Y-1.5243
N2660 X-1.4722 Y-1.5192
N2665 X-1.4729 Y-1.5187
N2670 X-1.4935 Y-1.5037
N2675 X-1.4955 Y-1.5022
N2680 X-1.5015 Y-1.4955
N2685 X-1.5119 Y-1.4828
N2690 X-1.5149 Y-1.4791
N2695 X-1.5157 Y-1.478
N2700 X-1.5162 Y-1.477
N2705 X-1.5277 Y-1.4526
N2710 X-1.5281 Y-1.4517
N2715 X-1.5284 Y-1.4507
N2720 X-1.5293 Y-1.4462
N2725 X-1.5336 Y-1.4236
N2730 X-1.5338 Y-1.4221
N2735 X-1.5339 Y-1.4215
N2740 X-1.5329 Y-1.4051
N2745 X-1.5324 Y-1.3969
N2750 X-1.532 Y-1.3928
N2755 X-1.5317 Y-1.3915
N2760 X-1.5306 Y-1.3856
N2765 X-1.5276 Y-1.3496
N2770 X-1.5258 Y-1.3134
N2775 X-1.5247 Y-1.2773
N2780 X-1.5241 Y-1.2411
N2785 X-1.5238 Y-1.2049
N2790 X-1.5236 Y-1.1687
N2795 Y-1.1326
N2800 Y-1.0602
N2805 X-1.5238 Y-0.8431
N2810 Y-0.626
N2815 X-1.5233 Y0.6042
N2820 X-1.523 Y1.3278
N2825 X-1.5213 Y1.3374
N2830 X-1.5205 Y1.3492
N2835 X-1.5221 Y1.361
N2840 X-1.526 Y1.3723
N2845 X-1.5279 Y1.3764
N2850 X-1.5282 Y1.377
N2855 X-1.5284 Y1.3777
N2860 X-1.5305 Y1.3887
N2865 X-1.5336 Y1.4051
N2870 X-1.5338 Y1.4072
N2875 Y1.4092
N2880 X-1.5325 Y1.4298
N2885 X-1.5322 Y1.4339
N2890 X-1.5315 Y1.438
N2895 X-1.5289 Y1.4462
N2900 X-1.5226 Y1.4651
N2905 X-1.5224 Y1.4655
N2910 X-1.5088 Y1.4873
N2915 X-1.5068 Y1.4904
N2920 X-1.5053 Y1.4919
N2925 X-1.4873 Y1.5089
N2930 X-1.4854 Y1.5105
N2935 X-1.4845 Y1.5113
N2940 X-1.4835 Y1.5119
N2945 X-1.4686 Y1.5201
N2950 X-1.4626 Y1.5234
N2955 X-1.4585 Y1.5254
N2960 X-1.4544 Y1.5268
N2965 X-1.4462 Y1.5289
N2970 X-1.438 Y1.5308
N2975 X-1.4277 Y1.5332
N2980 X-1.4215
N2985 X-1.401
N2990 X-1.3989 Y1.5331
N2995 X-1.3969 Y1.5326
N3000 X-1.3853 Y1.5303
N3005 X-1.3494 Y1.526
N3010 X-1.3133 Y1.5236
N3015 X-1.2771 Y1.5225
N3020 X-1.2409 Y1.522
N3025 X-1.2047 Y1.5219
N3030 X-1.1686 Y1.522
N3035 X-1.0962 Y1.5225
N3040 X-1.0238 Y1.523
N3045 X-0.9515 Y1.5234
N3050 X-0.8791 Y1.5237
N3055 X-0.7706 Y1.5239
N3060 X-0.6258
N3065 X-0.3364
N3070 X0.6043 Y1.5234
N3075 X1.328 Y1.5231
N3080 X1.3369 Y1.5215
N3085 X1.3475 Y1.5206
N3090 X1.3581 Y1.5217
N3095 X1.3683 Y1.5247
N3100 X1.3722 Y1.5262
N3105 X1.3805 Y1.5284
N3110 X1.3969 Y1.5326
N3115 X1.3989 Y1.5331
N3120 X1.401 Y1.5332
N3125 X1.4215
N3130 X1.4277
N3135 X1.438 Y1.5308
N3140 X1.4462 Y1.5289
N3145 X1.4544 Y1.5268
N3150 X1.4585 Y1.5254
N3155 X1.4626 Y1.5234
N3160 X1.4791 Y1.5144
N3165 X1.4835 Y1.5119
N3170 X1.4845 Y1.5113
N3175 X1.4854 Y1.5105
N3180 X1.4873 Y1.5089
N3185 X1.5053 Y1.4919
N3190 X1.5068 Y1.4904
N3195 X1.5088 Y1.4873
N3200 X1.5224 Y1.4655
N3205 X1.5229 Y1.4643
N3210 X1.5289 Y1.4462
N3215 X1.5315 Y1.438
N3220 X1.5322 Y1.4339
N3225 X1.5325 Y1.4298
N3230 X1.5338 Y1.4092
N3235 Y1.4072
N3240 X1.5336 Y1.4051
N3245 X1.5321 Y1.3969
N3250 X1.527 Y1.3611
N3255 X1.5242 Y1.325
N3260 X1.5227 Y1.2888
N3265 X1.5221 Y1.2527
N3270 X1.5219 Y1.2165
N3275 X1.522 Y1.1803
N3280 X1.5222 Y1.1441
N3285 X1.5229 Y1.0356
N3290 X1.5233 Y0.9632
N3295 X1.5236 Y0.8909
N3300 X1.5238 Y0.8185
N3305 X1.5239 Y0.7099
N3310 Y0.529
N3315 X1.5236 Y-0.1584
N3320 X1.5234 Y-0.5926
N3325 X1.5231 Y-1.3162
N3330 X1.5209 Y-1.3432
N3335 X1.5208 Y-1.351
N3340 X1.5217 Y-1.3588
N3345 X1.5237 Y-1.3664
N3350 X1.5284 Y-1.3805
N3355 X1.531 Y-1.3887
N3360 X1.532 Y-1.3928
N3365 X1.5324 Y-1.3969
N3370 X1.5334 Y-1.4133
N3375 X1.5339 Y-1.4215
N3380 X1.5338 Y-1.4221
N3385 X1.5336 Y-1.4236
N3390 X1.5293 Y-1.4462
N3395 X1.5284 Y-1.4506
N3400 X1.5277 Y-1.4525
N3405 X1.5162 Y-1.477
N3410 X1.5157 Y-1.478
N3415 X1.5149 Y-1.4791
N3420 X1.5119 Y-1.4828
N3425 X1.5015 Y-1.4955
N3430 X1.4955 Y-1.5022
N3435 X1.4935 Y-1.5037
N3440 X1.4729 Y-1.5187
N3445 X1.4719 Y-1.5193
N3450 X1.4708 Y-1.5198
N3455 X1.4492 Y-1.5284
N3460 X1.4462 Y-1.5295
N3465 X1.4431 Y-1.5305
N3470 X1.4154 Y-1.534
N3475 X1.4144 Y-1.5341
N3480 X1.4133 Y-1.534
N3485 X1.4051 Y-1.533
N3490 X1.3887 Y-1.5309
N3495 X1.3526 Y-1.5276
N3500 X1.3166 Y-1.5248
N3505 X1.2804 Y-1.5234
N3510 X1.2442 Y-1.5227
N3515 X1.2081 Y-1.5225
N3520 X1.1719
N3525 X1.1357 Y-1.5227
N3530 X1.0272 Y-1.5234
N3535 X0.9548 Y-1.5238
N3540 X0.8824 Y-1.5241
N3545 X0.7739 Y-1.5243
N3550 X0.6292 Y-1.5245
N3555 X0.3397
N3560 X-0.601 Y-1.5244
N3565 X-1.2161
N3570 X-1.2522 Y-1.5213
N3575 X-1.2862 Y-1.509
N3580 X-1.2867 Y-1.5087
N3585 X-1.2987 Y-1.504
N3590 X-1.3114 Y-1.5021
N3595 X-1.3242 Y-1.503
N3600 X-1.3365 Y-1.5067
N3605 X-1.3477 Y-1.513
N3610 X-1.3499 Y-1.515 F10.
N3615 X-1.3519 Y-1.5171
N3620 X-1.3533 Y-1.5198 Z-0.1248
N3625 X-1.3548 Y-1.5224 Z-0.1243
N3630 X-1.3561 Y-1.5249 Z-0.1234
N3635 X-1.3566 Y-1.5277 Z-0.1221
N3640 X-1.357 Y-1.5304 Z-0.1204
N3645 X-1.3574 Y-1.5328 Z-0.1184
N3650 X-1.357 Y-1.5351 Z-0.1159
N3655 X-1.3567 Y-1.5371 Z-0.1131
N3660 X-1.3565 Y-1.5387 Z-0.1101
N3665 X-1.3563 Y-1.5398 Z-0.1068
N3670 X-1.3562 Y-1.5405 Z-0.1035
N3675 X-1.3561 Y-1.5407 Z-0.1
N3680 Z0.2 F12.
N3685 X-1.5645 Y-1.4363
N3690 Z-0.075
N3695 Z-0.1 F10.
N3700 X-1.5643 Y-1.4361 Z-0.1039
N3705 X-1.5636 Y-1.4354 Z-0.1077
N3710 X-1.5626 Y-1.4343 Z-0.1113
N3715 X-1.5612 Y-1.4329 Z-0.1147
N3720 X-1.5594 Y-1.431 Z-0.1177
N3725 X-1.5573 Y-1.4289 Z-0.1202
N3730 X-1.555 Y-1.4265 Z-0.1223
N3735 X-1.5525 Y-1.4239 Z-0.1238
N3740 X-1.5498 Y-1.4212 Z-0.1247
N3745 X-1.5471 Y-1.4184 Z-0.125
N3750 G3 X-1.5317 Y-1.3915 I-0.0447 J0.0434
N3755 G1 X-1.531 Y-1.3887 F12.
N3760 X-1.5284 Y-1.3804
N3765 X-1.5257 Y-1.3722
N3770 X-1.5229 Y-1.364
N3775 X-1.5227 Y-1.3634
N3780 X-1.518 Y-1.3558
N3785 X-1.5119 Y-1.346
N3790 X-1.507 Y-1.3383
N3795 X-1.5065 Y-1.3378
N3800 X-1.4996 Y-1.3312
N3805 X-1.4955 Y-1.3268
N3810 X-1.4886 Y-1.3183
N3815 X-1.4811 Y-1.3073
N3820 X-1.4732 Y-1.2934
N3825 X-1.4648 Y-1.2754
N3830 X-1.456 Y-1.2518
N3835 X-1.4469 Y-1.2196
N3840 X-1.4399 Y-1.1842
N3845 X-1.435 Y-1.1483
N3850 X-1.4316 Y-1.1123
N3855 X-1.4292 Y-1.0762
N3860 X-1.4276 Y-1.04
N3865 X-1.4264 Y-1.0039
N3870 X-1.4256 Y-0.9677
N3875 X-1.4251 Y-0.9315
N3880 X-1.4247 Y-0.8953
N3885 X-1.4244 Y-0.8592
N3890 X-1.4242 Y-0.823
N3895 X-1.424 Y-0.7506
N3900 X-1.4238 Y-0.6421
N3905 Y-0.5496
N3910 X-1.4242 Y-0.5423
N3915 X-1.4256 Y-0.5351
N3920 X-1.4278 Y-0.5282
N3925 X-1.4319 Y-0.5177
N3930 X-1.435 Y-0.5095
N3935 X-1.4747 Y-0.378
N3940 X-1.4791 Y-0.3628
N3945 X-1.4794 Y-0.3615
N3950 X-1.4811 Y-0.3533
N3955 X-1.4827 Y-0.3451
N3960 X-1.506 Y-0.2219
N3965 X-1.5075 Y-0.2136
N3970 X-1.5107 Y-0.189
N3975 X-1.5213 Y-0.0575
N3980 X-1.5217 Y-0.0493
N3985 X-1.5221 Y-0.0329
N3990 X-1.5222 Y-0.0247
N3995 X-1.5187 Y0.1068
N4000 X-1.5181 Y0.115
N4005 X-1.5168 Y0.1315
N4010 X-1.5159 Y0.1397
N4015 X-1.4994 Y0.2629
N4020 X-1.4982 Y0.2712
N4025 X-1.4935 Y0.2958
N4030 X-1.4613 Y0.4273
N4035 X-1.459 Y0.4355
N4040 X-1.4564 Y0.4437
N4045 X-1.4471 Y0.4787
N4050 X-1.4399 Y0.5142
N4055 X-1.4349 Y0.55
N4060 X-1.4315 Y0.586
N4065 X-1.429 Y0.6221
N4070 X-1.4273 Y0.6583
N4075 X-1.4261 Y0.6944
N4080 X-1.4252 Y0.7306
N4085 X-1.4246 Y0.7668
N4090 X-1.4242 Y0.8029
N4095 X-1.4239 Y0.8391
N4100 X-1.4237 Y0.8753
N4105 X-1.4235 Y0.9115
N4110 X-1.4233 Y0.9838
N4115 X-1.4232 Y1.0924
N4120 X-1.4231 Y1.2009
N4125 X-1.4228 Y1.2371
N4130 X-1.4226 Y1.249
N4135 X-1.4236 Y1.2607
N4140 X-1.4269 Y1.2719
N4145 X-1.4324 Y1.2823
N4150 X-1.4399 Y1.2913
N4155 X-1.449 Y1.2987
N4160 X-1.4595 Y1.3041
N4165 G3 X-1.4874 Y1.2962 I-0.0084 J-0.0236 F10.
N4170 G1 X-1.4898 Y1.2932 Z-0.1247
N4175 X-1.4922 Y1.2902 Z-0.1238
N4180 X-1.4945 Y1.2873 Z-0.1223
N4185 X-1.4965 Y1.2847 Z-0.1202
N4190 X-1.4984 Y1.2824 Z-0.1177
N4195 X-1.5 Y1.2804 Z-0.1147
N4200 X-1.5013 Y1.2788 Z-0.1113
N4205 X-1.5022 Y1.2777 Z-0.1077
N4210 X-1.5028 Y1.2769 Z-0.1039
N4215 X-1.503 Y1.2767 Z-0.1
N4220 Z0.2 F12.
N4225 X-1.4924 Y0.4015
N4230 Z-0.075
N4235 Z-0.1 F10.
N4240 X-1.4921 Y0.4017 Z-0.1039
N4245 X-1.4914 Y0.4023 Z-0.1077
N4250 X-1.4903 Y0.4033 Z-0.1113
N4255 X-1.4888 Y0.4047 Z-0.1147
N4260 X-1.4869 Y0.4064 Z-0.1177
N4265 X-1.4847 Y0.4083 Z-0.1202
N4270 X-1.4822 Y0.4106 Z-0.1223
N4275 X-1.4794 Y0.413 Z-0.1238
N4280 X-1.4766 Y0.4155 Z-0.1247
N4285 X-1.4737 Y0.4181 Z-0.125
N4290 G3 X-1.4564 Y0.4437 I-0.0414 J0.0466
N4295 G1 X-1.4537 Y0.4519 F12.
N4300 X-1.4509 Y0.4602
N4305 X-1.4124 Y0.567
N4310 X-1.4033 Y0.5916
N4315 X-1.3996 Y0.5998
N4320 X-1.3956 Y0.6081
N4325 X-1.3756 Y0.6491
N4330 X-1.3619 Y0.6815
N4335 X-1.3527 Y0.7091
N4340 X-1.344 Y0.7442
N4345 X-1.3379 Y0.7799
N4350 X-1.3336 Y0.8158
N4355 X-1.3306 Y0.8518
N4360 X-1.3284 Y0.888
N4365 X-1.3269 Y0.9241
N4370 X-1.3258 Y0.9603
N4375 X-1.325 Y0.9965
N4380 X-1.3245 Y1.0326
N4385 X-1.3241 Y1.0688
N4390 X-1.3235 Y1.1412
N4395 Y1.1774
N4400 X-1.3251 Y1.2062
N4405 X-1.3281 Y1.2287
N4410 X-1.3321 Y1.2468
N4415 X-1.3347 Y1.2554
N4420 X-1.3392 Y1.2662
N4425 X-1.3457 Y1.2758
N4430 X-1.354 Y1.284
N4435 X-1.3638 Y1.2903
N4440 X-1.3747 Y1.2946
N4445 X-1.3861 Y1.2966
N4450 X-1.3978 Y1.2963
N4455 G3 X-1.4183 Y1.2766 Z-0.1188 I0.004 J-0.0247 F10.
N4460 G1 X-1.4187 Y1.2742 Z-0.1183 F12.
N4465 X-1.4188 Y1.2718 Z-0.1178
N4470 Y1.2677 Z-0.117
N4475 X-1.4227 Y0.661
N4480 G3 X-1.4094 Y0.6388 I0.025 J-0.0002
N4485 G1 X-1.4067 Y0.6375 Z-0.1176
N4490 X-1.4039 Y0.6366 Z-0.1182
N4495 X-1.4009 Y0.6361 Z-0.1188
N4500 G3 X-1.3756 Y0.6491 Z-0.125 I0.0032 J0.0248 F10.
N4505 G1 X-1.3394 Y0.7237 F12.
N4510 X-1.3353 Y0.7313
N4515 X-1.326 Y0.7477
N4520 X-1.3229 Y0.7532
N4525 X-1.2852 Y0.8135
N4530 X-1.2753 Y0.8313
N4535 X-1.2724 Y0.8366
N4540 X-1.2696 Y0.8419
N4545 X-1.267 Y0.8473
N4550 X-1.2645 Y0.8528
N4555 X-1.2621 Y0.8583
N4560 X-1.2599 Y0.8638
N4565 X-1.2577 Y0.8694
N4570 X-1.2557 Y0.8751
N4575 X-1.2537 Y0.8808
N4580 X-1.2519 Y0.8865
N4585 X-1.2501 Y0.8922
N4590 X-1.2484 Y0.8979
N4595 X-1.2468 Y0.9037
N4600 X-1.2453 Y0.9095
N4605 X-1.2438 Y0.9153
N4610 X-1.2424 Y0.9212
N4615 X-1.2411 Y0.927
N4620 X-1.2398 Y0.9329
N4625 X-1.2386 Y0.9388
N4630 X-1.2375 Y0.9447
N4635 X-1.2364 Y0.9506
N4640 X-1.2353 Y0.9565
N4645 X-1.2343 Y0.9624
N4650 X-1.2334 Y0.9683
N4655 X-1.2325 Y0.9744
N4660 X-1.2315 Y0.9809
N4665 X-1.2306 Y0.9878
N4670 X-1.2296 Y0.995
N4675 X-1.2287 Y1.0028
N4680 X-1.2277 Y1.0111
N4685 X-1.2268 Y1.02
N4690 X-1.2259 Y1.029
N4695 X-1.225 Y1.0387
N4700 X-1.2241 Y1.0493
N4705 X-1.2233 Y1.0597
N4710 X-1.2227 Y1.0669
N4715 X-1.2223 Y1.0745
N4720 X-1.2218 Y1.0826
N4725 X-1.2214 Y1.0912
N4730 X-1.2211 Y1.0978
N4735 X-1.2209 Y1.1038
N4740 X-1.2208 Y1.1098
N4745 X-1.2207 Y1.1158
N4750 X-1.2206 Y1.122
N4755 Y1.128
N4760 Y1.134
N4765 X-1.2207 Y1.14
N4770 X-1.2209 Y1.146
N4775 X-1.2211 Y1.152
N4780 X-1.2214 Y1.158
N4785 X-1.2217 Y1.1639
N4790 X-1.2221 Y1.1699
N4795 X-1.2226 Y1.1759
N4800 X-1.2231 Y1.1819
N4805 X-1.2238 Y1.1878
N4810 X-1.2245 Y1.1938
N4815 X-1.2254 Y1.1997
N4820 X-1.2263 Y1.2057
N4825 X-1.2273 Y1.2116
N4830 X-1.2285 Y1.2175
N4835 X-1.2298 Y1.2233
N4840 X-1.2312 Y1.2292
N4845 X-1.2327 Y1.235
N4850 X-1.2344 Y1.2407
N4855 X-1.2362 Y1.2464
N4860 X-1.2382 Y1.2521
N4865 X-1.2403 Y1.2577
N4870 X-1.2426 Y1.2633
N4875 X-1.245 Y1.2688
N4880 X-1.2476 Y1.2742
N4885 X-1.2503 Y1.2795
N4890 X-1.2533 Y1.2848
N4895 X-1.2568 Y1.2931
N4900 X-1.259 Y1.3018
N4905 X-1.2599 Y1.3108
N4910 X-1.2593 Y1.3199
N4915 X-1.2574 Y1.3287
N4920 X-1.2541 Y1.3371
N4925 X-1.2495 Y1.3449
N4930 X-1.2438 Y1.352
N4935 X-1.2371 Y1.358
N4940 X-1.2068 Y1.3778
N4945 X-1.1721 Y1.388
N4950 X-1.1367 Y1.3955
N4955 X-1.1009 Y1.4009
N4960 X-1.0649 Y1.4047
N4965 X-1.0289 Y1.4076
N4970 X-0.9927 Y1.4096
N4975 X-0.9566 Y1.4111
N4980 X-0.9204 Y1.4122
N4985 X-0.8842 Y1.4129
N4990 X-0.8481 Y1.4135
N4995 X-0.8119 Y1.4139
N5000 X-0.7757 Y1.4142
N5005 X-0.7395 Y1.4144
N5010 X-0.7033 Y1.4146
N5015 X-0.631 Y1.4147
N5020 X-0.5693 Y1.4148
N5025 X-0.5621 Y1.4153
N5030 X-0.555 Y1.4166
N5035 X-0.5481 Y1.4188
N5040 X-0.4848 Y1.4436
N5045 X-0.4762 Y1.4462
N5050 X-0.4602 Y1.451
N5055 X-0.4479 Y1.4544
N5060 X-0.3533 Y1.4802
N5065 X-0.3369 Y1.4846
N5070 X-0.3267 Y1.4873
N5075 X-0.3205 Y1.4887
N5080 X-0.2958 Y1.493
N5085 X-0.189 Y1.5102
N5090 X-0.1643 Y1.5139
N5095 X-0.1561 Y1.5147
N5100 X-0.1315 Y1.5162
N5105 X-0.0247 Y1.5218
N5110 X0. Y1.5229
N5115 X0.0247 Y1.5218
N5120 X0.1315 Y1.5162
N5125 X0.1561 Y1.5147
N5130 X0.1643 Y1.5139
N5135 X0.189 Y1.5102
N5140 X0.2958 Y1.493
N5145 X0.3205 Y1.4887
N5150 X0.3267 Y1.4873
N5155 X0.3451 Y1.4824
N5160 X0.3698 Y1.4757
N5165 X0.4479 Y1.4544
N5170 X0.4832 Y1.4466
N5175 X0.5187 Y1.4396
N5180 X0.5545 Y1.4348
N5185 X0.5906 Y1.4314
N5190 X0.6267 Y1.429
N5195 X0.6628 Y1.4273
N5200 X0.699 Y1.4261
N5205 X0.7352 Y1.4253
N5210 X0.7713 Y1.4247
N5215 X0.8075 Y1.4243
N5220 X0.8437 Y1.424
N5225 X0.8799 Y1.4238
N5230 X0.9161 Y1.4236
N5235 X0.9884 Y1.4234
N5240 X1.097 Y1.4232
N5245 X1.2055 Y1.4231
N5250 X1.2491 Y1.4227
N5255 X1.2613 Y1.4239
N5260 X1.2729 Y1.4275
N5265 X1.2835 Y1.4335
N5270 X1.2926 Y1.4416
N5275 X1.2999 Y1.4514
N5280 X1.305 Y1.4625
N5285 G3 X1.2956 Y1.4899 I-0.024 J0.0071 F10.
N5290 G1 X1.2924 Y1.4922 Z-0.1247
N5295 X1.2893 Y1.4944 Z-0.1238
N5300 X1.2863 Y1.4965 Z-0.1223
N5305 X1.2836 Y1.4985 Z-0.1202
N5310 X1.2812 Y1.5002 Z-0.1177
N5315 X1.2791 Y1.5017 Z-0.1147
N5320 X1.2775 Y1.5029 Z-0.1113
N5325 X1.2763 Y1.5038 Z-0.1077
N5330 X1.2755 Y1.5043 Z-0.1039
N5335 X1.2753 Y1.5045 Z-0.1
N5340 Z0.2 F12.
N5345 X0.4042 Y1.4886
N5350 Z-0.075
N5355 Z-0.1 F10.
N5360 X0.4044 Y1.4884 Z-0.1039
N5365 X0.405 Y1.4877 Z-0.1077
N5370 X0.4061 Y1.4866 Z-0.1113
N5375 X0.4075 Y1.4852 Z-0.1147
N5380 X0.4092 Y1.4833 Z-0.1177
N5385 X0.4113 Y1.4812 Z-0.1202
N5390 X0.4136 Y1.4788 Z-0.1223
N5395 X0.4162 Y1.4762 Z-0.1238
N5400 X0.4188 Y1.4734 Z-0.1247
N5405 X0.4215 Y1.4706 Z-0.125
N5410 G3 X0.4479 Y1.4544 I0.0448 J0.0433
N5415 G1 X0.4602 Y1.451 F12.
N5420 X0.4766 Y1.4461
N5425 X0.4848 Y1.4436
N5430 X0.6163 Y1.3922
N5435 X0.6245 Y1.3885
N5440 X0.6417 Y1.3805
N5445 X0.6491 Y1.3768
N5450 X0.675 Y1.3649
N5455 X0.7 Y1.3558
N5460 X0.7343 Y1.3464
N5465 X0.7698 Y1.3396
N5470 X0.8057 Y1.3349
N5475 X0.8417 Y1.3315
N5480 X0.8778 Y1.3291
N5485 X0.914 Y1.3274
N5490 X0.9501 Y1.3262
N5495 X0.9863 Y1.3253
N5500 X1.0225 Y1.3247
N5505 X1.0587 Y1.3243
N5510 X1.0948 Y1.3239
N5515 X1.1672 Y1.3234
N5520 X1.1991 Y1.3244
N5525 X1.2221 Y1.327
N5530 X1.2414 Y1.3308
N5535 X1.2539 Y1.3343
N5540 X1.2654 Y1.3388
N5545 X1.2757 Y1.3457
N5550 X1.2843 Y1.3547
N5555 X1.2908 Y1.3652
N5560 X1.2949 Y1.3768
N5565 X1.2965 Y1.3891
N5570 X1.2955 Y1.4014
N5575 G3 X1.2745 Y1.4206 Z-0.1188 I-0.0244 J-0.0056 F10.
N5580 G1 X1.2712 Y1.4209 Z-0.1182 F12.
N5585 X1.2655 Z-0.117
N5590 X0.6615 Y1.4235
N5595 G3 X0.6397 Y1.4108 I-0.0001 J-0.025
N5600 G1 X0.6384 Y1.4081 Z-0.1176
N5605 X0.6374 Y1.4053 Z-0.1182
N5610 X0.6367 Y1.4024 Z-0.1188
N5615 G3 X0.6491 Y1.3768 Z-0.125 I0.0247 J-0.0039 F10.
N5620 G1 X0.756 Y1.3213 F12.
N5625 X0.7642 Y1.3169
N5630 X0.7724 Y1.3122
N5635 X0.7806 Y1.3074
N5640 X0.8053 Y1.291
N5645 X0.8268 Y1.2783
N5650 X0.832 Y1.2752
N5655 X0.8373 Y1.2723
N5660 X0.8426 Y1.2696
N5665 X0.848 Y1.267
N5670 X0.8535 Y1.2645
N5675 X0.859 Y1.2621
N5680 X0.8645 Y1.2599
N5685 X0.8701 Y1.2577
N5690 X0.8758 Y1.2557
N5695 X0.8815 Y1.2537
N5700 X0.8872 Y1.2519
N5705 X0.8929 Y1.2501
N5710 X0.8987 Y1.2484
N5715 X0.9044 Y1.2468
N5720 X0.9102 Y1.2453
N5725 X0.9161 Y1.2438
N5730 X0.9219 Y1.2424
N5735 X0.9277 Y1.2411
N5740 X0.9336 Y1.2399
N5745 X0.9395 Y1.2387
N5750 X0.9454 Y1.2375
N5755 X0.9513 Y1.2364
N5760 X0.9572 Y1.2354
N5765 X0.9631 Y1.2344
N5770 X0.969 Y1.2334
N5775 X0.9752 Y1.2325
N5780 X0.9817 Y1.2316
N5785 X0.9885 Y1.2306
N5790 X0.9958 Y1.2297
N5795 X1.0036 Y1.2287
N5800 X1.0119 Y1.2278
N5805 X1.0208 Y1.2268
N5810 X1.0305 Y1.2259
N5815 X1.041 Y1.2249
N5820 X1.0505 Y1.2241
N5825 X1.0587 Y1.2234
N5830 X1.0674 Y1.2228
N5835 X1.0768 Y1.2222
N5840 X1.0857 Y1.2217
N5845 X1.0916 Y1.2214
N5850 X1.0976 Y1.2212
N5855 X1.1037 Y1.221
N5860 X1.1102 Y1.2208
N5865 X1.1164 Y1.2207
N5870 X1.1224 Y1.2206
N5875 X1.1284
N5880 X1.1344 Y1.2207
N5885 X1.1404 Y1.2208
N5890 X1.1464 Y1.2209
N5895 X1.1524 Y1.2211
N5900 X1.1584 Y1.2214
N5905 X1.1644 Y1.2218
N5910 X1.1704 Y1.2222
N5915 X1.1764 Y1.2227
N5920 X1.1824 Y1.2232
N5925 X1.1883 Y1.2239
N5930 X1.1943 Y1.2246
N5935 X1.2002 Y1.2255
N5940 X1.2061 Y1.2264
N5945 X1.212 Y1.2275
N5950 X1.2179 Y1.2286
N5955 X1.2238 Y1.23
N5960 X1.2296 Y1.2314
N5965 X1.2354 Y1.2329
N5970 X1.2412 Y1.2346
N5975 X1.2469 Y1.2365
N5980 X1.2525 Y1.2384
N5985 X1.2581 Y1.2406
N5990 X1.2637 Y1.2429
N5995 X1.2692 Y1.2453
N6000 X1.2746 Y1.2479
N6005 X1.2799 Y1.2507
N6010 X1.2851 Y1.2536
N6015 X1.2934 Y1.2572
N6020 X1.3022 Y1.2595
N6025 X1.3112 Y1.2604
N6030 X1.3202 Y1.2598
N6035 X1.3291 Y1.2579
N6040 X1.3375 Y1.2547
N6045 X1.3453 Y1.2502
N6050 X1.3524 Y1.2445
N6055 X1.3585 Y1.2378
N6060 X1.3784 Y1.2076
N6065 X1.3885 Y1.1728
N6070 X1.3958 Y1.1374
N6075 X1.4011 Y1.1016
N6080 X1.4049 Y1.0656
N6085 X1.4077 Y1.0296
N6090 X1.4097 Y0.9934
N6095 X1.4111 Y0.9573
N6100 X1.4122 Y0.9211
N6105 X1.413 Y0.8849
N6110 X1.4135 Y0.8488
N6115 X1.4139 Y0.8126
N6120 X1.4142 Y0.7764
N6125 X1.4144 Y0.7402
N6130 X1.4146 Y0.704
N6135 X1.4147 Y0.6317
N6140 X1.4148 Y0.5704
N6145 X1.4152 Y0.5637
N6150 X1.4164 Y0.5571
N6155 X1.4183 Y0.5507
N6160 X1.4509 Y0.4602
N6165 X1.4537 Y0.4519
N6170 X1.459 Y0.4355
N6175 X1.4613 Y0.4273
N6180 X1.4935 Y0.2958
N6185 X1.4982 Y0.2712
N6190 X1.4994 Y0.2629
N6195 X1.5159 Y0.1397
N6200 X1.5168 Y0.1315
N6205 X1.5181 Y0.115
N6210 X1.5187 Y0.1068
N6215 X1.5222 Y-0.0247
N6220 X1.5221 Y-0.0329
N6225 X1.5217 Y-0.0493
N6230 X1.5213 Y-0.0575
N6235 X1.5107 Y-0.189
N6240 X1.5075 Y-0.2136
N6245 X1.506 Y-0.2219
N6250 X1.4827 Y-0.3451
N6255 X1.4811 Y-0.3533
N6260 X1.4794 Y-0.3615
N6265 X1.4791 Y-0.3628
N6270 X1.4747 Y-0.378
N6275 X1.4573 Y-0.4355
N6280 X1.4486 Y-0.4706
N6285 X1.441 Y-0.506
N6290 X1.4357 Y-0.5418
N6295 X1.432 Y-0.5778
N6300 X1.4295 Y-0.6139
N6305 X1.4276 Y-0.65
N6310 X1.4264 Y-0.6862
N6315 X1.4255 Y-0.7223
N6320 X1.4248 Y-0.7585
N6325 X1.4244 Y-0.7947
N6330 X1.424 Y-0.8309
N6335 X1.4238 Y-0.8671
N6340 X1.4236 Y-0.9032
N6345 X1.4234 Y-0.9756
N6350 X1.4232 Y-1.0841
N6355 X1.4231 Y-1.1927
N6360 X1.423 Y-1.2289
N6365 X1.4228 Y-1.2441
N6370 X1.4237 Y-1.2562
N6375 X1.4268 Y-1.2678
N6380 X1.4321 Y-1.2787
N6385 X1.4393 Y-1.2884
N6390 X1.4482 Y-1.2966
N6395 X1.4585 Y-1.303
N6400 X1.4613 Y-1.304 F10.
N6405 X1.4641 Y-1.3048
N6410 X1.4665 Y-1.305 Z-0.1249
N6415 X1.4688 Y-1.3052 Z-0.1246
N6420 Z-0.1245
N6425 X1.4719 Y-1.3047 Z-0.1237
N6430 X1.4748 Y-1.3042 Z-0.1226
N6435 X1.4775 Y-1.3037 Z-0.121
N6440 X1.4798 Y-1.3023 Z-0.119
N6445 X1.4819 Y-1.3011 Z-0.1166
N6450 X1.4836 Y-1.3001 Z-0.114
N6455 X1.4851 Y-1.2992 Z-0.1111
N6460 X1.4861 Y-1.2982 Z-0.1075
N6465 X1.4868 Y-1.2976 Z-0.1038
N6470 X1.487 Y-1.2974 Z-0.1
N6475 Z0.2 F12.
N6480 X1.4927 Y-0.3927
N6485 Z-0.075
N6490 Z-0.1 F10.
N6495 X1.4924 Y-0.3929 Z-0.1039
N6500 X1.4918 Y-0.3936 Z-0.1077
N6505 X1.4907 Y-0.3946 Z-0.1113
N6510 X1.4891 Y-0.396 Z-0.1147
N6515 X1.4873 Y-0.3977 Z-0.1177
N6520 X1.4851 Y-0.3997 Z-0.1202
N6525 X1.4826 Y-0.4019 Z-0.1223
N6530 X1.4799 Y-0.4044 Z-0.1238
N6535 X1.4771 Y-0.407 Z-0.1247
N6540 X1.4742 Y-0.4096 Z-0.125
N6545 G3 X1.4573 Y-0.4355 I0.0421 J-0.0459
N6550 G1 X1.435 Y-0.5095 F12.
N6555 X1.4319 Y-0.5177
N6560 X1.4255 Y-0.5341
N6565 X1.3769 Y-0.6491
N6570 X1.3722 Y-0.6602
N6575 X1.3697 Y-0.6656
N6580 X1.364 Y-0.6783
N6585 X1.3549 Y-0.704
N6590 X1.3456 Y-0.739
N6595 X1.339 Y-0.7746
N6600 X1.3344 Y-0.8105
N6605 X1.3312 Y-0.8465
N6610 X1.3289 Y-0.8826
N6615 X1.3272 Y-0.9187
N6620 X1.3261 Y-0.9549
N6625 X1.3252 Y-0.9911
N6630 X1.3246 Y-1.0273
N6635 X1.3242 Y-1.0634
N6640 X1.3239 Y-1.0996
N6645 X1.3236 Y-1.1358
N6650 Y-1.172
N6655 X1.3251 Y-1.2018
N6660 X1.3282 Y-1.225
N6665 X1.3323 Y-1.2443
N6670 X1.334 Y-1.2501
N6675 X1.3386 Y-1.2614
N6680 X1.3453 Y-1.2716
N6685 X1.3538 Y-1.2803
N6690 X1.3638 Y-1.2873
N6695 X1.3749 Y-1.2922
N6700 X1.3868 Y-1.2949
N6705 X1.3989 Y-1.2953
N6710 G3 X1.4207 Y-1.2769 Z-0.1188 I-0.0024 J0.0249 F10.
N6715 G1 X1.4213 Y-1.2736 Z-0.1181 F12.
N6720 X1.4215 Y-1.2702 Z-0.1174
N6725 Y-1.2681 Z-0.117
N6730 X1.4166 Y-0.6775
N6735 G3 X1.4037 Y-0.6558 I-0.025 J-0.0002
N6740 G1 X1.401 Y-0.6545 Z-0.1176
N6745 X1.3982 Y-0.6536 Z-0.1182
N6750 X1.3952 Y-0.653 Z-0.1188
N6755 G3 X1.3697 Y-0.6656 Z-0.125 I-0.0037 J-0.0247 F10.
N6760 G1 X1.3655 Y-0.6738 F12.
N6765 X1.3064 Y-0.7806
N6770 X1.2925 Y-0.8053
N6775 X1.2901 Y-0.8092
N6780 X1.2871 Y-0.8135
N6785 X1.2803 Y-0.8245
N6790 X1.2772 Y-0.8296
N6795 X1.2742 Y-0.8348
N6800 X1.2714 Y-0.8401
N6805 X1.2687 Y-0.8455
N6810 X1.2661 Y-0.8509
N6815 X1.2637 Y-0.8564
N6820 X1.2613 Y-0.8619
N6825 X1.2591 Y-0.8675
N6830 X1.257 Y-0.8731
N6835 X1.255 Y-0.8787
N6840 X1.2531 Y-0.8844
N6845 X1.2513 Y-0.8901
N6850 X1.2495 Y-0.8959
N6855 X1.2479 Y-0.9016
N6860 X1.2463 Y-0.9074
N6865 X1.2448 Y-0.9132
N6870 X1.2433 Y-0.9191
N6875 X1.242 Y-0.9249
N6880 X1.2407 Y-0.9308
N6885 X1.2394 Y-0.9366
N6890 X1.2382 Y-0.9425
N6895 X1.2371 Y-0.9484
N6900 X1.236 Y-0.9543
N6905 X1.235 Y-0.9602
N6910 X1.234 Y-0.9661
N6915 X1.2331 Y-0.9721
N6920 X1.2322 Y-0.9784
N6925 X1.2312 Y-0.9849
N6930 X1.2303 Y-0.9919
N6935 X1.2294 Y-0.9993
N6940 X1.2284 Y-1.0072
N6945 X1.2275 Y-1.0156
N6950 X1.2266 Y-1.0242
N6955 X1.2257 Y-1.0336
N6960 X1.2247 Y-1.0437
N6965 X1.2239 Y-1.0538
N6970 X1.2234 Y-1.061
N6975 X1.2229 Y-1.0685
N6980 X1.2224 Y-1.0766
N6985 X1.2219 Y-1.0852
N6990 X1.2216 Y-1.0922
N6995 X1.2214 Y-1.0982
N7000 X1.2212 Y-1.1042
N7005 X1.2211 Y-1.1102
N7010 X1.221 Y-1.1163
N7015 X1.2209 Y-1.1223
N7020 Y-1.1283
N7025 X1.221 Y-1.1343
N7030 X1.2211 Y-1.1403
N7035 X1.2213 Y-1.1463
N7040 X1.2215 Y-1.1523
N7045 X1.2218 Y-1.1583
N7050 X1.2222 Y-1.1643
N7055 X1.2226 Y-1.1703
N7060 X1.2231 Y-1.1762
N7065 X1.2238 Y-1.1822
N7070 X1.2245 Y-1.1882
N7075 X1.2252 Y-1.1941
N7080 X1.2261 Y-1.2
N7085 X1.2271 Y-1.206
N7090 X1.2283 Y-1.2118
N7095 X1.2295 Y-1.2177
N7100 X1.2309 Y-1.2236
N7105 X1.2324 Y-1.2294
N7110 X1.234 Y-1.2351
N7115 X1.2358 Y-1.2409
N7120 X1.2377 Y-1.2466
N7125 X1.2397 Y-1.2522
N7130 X1.2419 Y-1.2578
N7135 X1.2443 Y-1.2633
N7140 X1.2468 Y-1.2687
N7145 X1.2495 Y-1.2741
N7150 X1.2523 Y-1.2794
N7155 X1.2553 Y-1.2846
N7160 X1.2585 Y-1.2897
N7165 X1.2624 Y-1.2979
N7170 X1.265 Y-1.3065
N7175 X1.2663 Y-1.3155
N7180 X1.2661 Y-1.3245
N7185 X1.2646 Y-1.3334
N7190 X1.2617 Y-1.342
N7195 X1.2575 Y-1.35
N7200 X1.2521 Y-1.3573
N7205 X1.2457 Y-1.3636
N7210 X1.231 Y-1.3742
N7215 X1.1967 Y-1.3855
N7220 X1.1614 Y-1.3938
N7225 X1.1257 Y-1.3997
N7230 X1.0898 Y-1.404
N7235 X1.0538 Y-1.4071
N7240 X1.0177 Y-1.4094
N7245 X0.9815 Y-1.411
N7250 X0.9453 Y-1.4122
N7255 X0.9092 Y-1.4131
N7260 X0.873 Y-1.4138
N7265 X0.8368 Y-1.4142
N7270 X0.8006 Y-1.4146
N7275 X0.7645 Y-1.4148
N7280 X0.7283 Y-1.415
N7285 X0.6559 Y-1.4152
N7290 X0.5717 Y-1.4154
N7295 X0.5647 Y-1.4158
N7300 X0.5579 Y-1.4171
N7305 X0.5512 Y-1.4191
N7310 X0.5423 Y-1.4225
N7315 X0.5341 Y-1.4254
N7320 X0.4273 Y-1.4607
N7325 X0.4108 Y-1.4661
N7330 X0.4026 Y-1.4687
N7335 X0.378 Y-1.4744
N7340 X0.2712 Y-1.4975
N7345 X0.2465 Y-1.5026
N7350 X0.2409 Y-1.5037
N7355 X0.2219 Y-1.5059
N7360 X0.1068 Y-1.5182
N7365 X0.0822 Y-1.5206
N7370 X0.074 Y-1.5208
N7375 X0.0575 Y-1.521
N7380 X0.0082
N7385 X-0.0493
N7390 X-0.0575
N7395 X-0.074 Y-1.5208
N7400 X-0.0822 Y-1.5206
N7405 X-0.1068 Y-1.5182
N7410 X-0.2219 Y-1.5059
N7415 X-0.2409 Y-1.5037
N7420 X-0.2465 Y-1.5026
N7425 X-0.2712 Y-1.4975
N7430 X-0.378 Y-1.4744
N7435 X-0.4026 Y-1.4687
N7440 X-0.4108 Y-1.4661
N7445 X-0.4273 Y-1.4607
N7450 X-0.4622 Y-1.4511
N7455 X-0.4974 Y-1.443
N7460 X-0.5332 Y-1.4375
N7465 X-0.5692 Y-1.4336
N7470 X-0.6052 Y-1.4308
N7475 X-0.6414 Y-1.4289
N7480 X-0.6775 Y-1.4276
N7485 X-0.7137 Y-1.4266
N7490 X-0.7499 Y-1.426
N7495 X-0.7861 Y-1.4255
N7500 X-0.8222 Y-1.4252
N7505 X-0.8584 Y-1.425
N7510 X-0.8946 Y-1.4248
N7515 X-0.967 Y-1.4246
N7520 X-1.0755 Y-1.4244
N7525 X-1.1117
N7530 X-1.1478 Y-1.4232
N7535 X-1.1838 Y-1.4187
N7540 X-1.2196 Y-1.4139
N7545 X-1.2408 Y-1.4121
N7550 X-1.2538 Y-1.4125
N7555 X-1.2663 Y-1.4158
N7560 X-1.2778 Y-1.4218
N7565 X-1.2876 Y-1.4302
N7570 X-1.2954 Y-1.4405
N7575 X-1.3006 Y-1.4524
N7580 G3 X-1.2938 Y-1.4805 I0.0232 J-0.0093 F10.
N7585 G1 X-1.2909 Y-1.4831 Z-0.1247
N7590 X-1.288 Y-1.4856 Z-0.1238
N7595 X-1.2853 Y-1.488 Z-0.1223
N7600 X-1.2828 Y-1.4902 Z-0.1202
N7605 X-1.2805 Y-1.4921 Z-0.1177
N7610 X-1.2786 Y-1.4938 Z-0.1147
N7615 X-1.277 Y-1.4952 Z-0.1113
N7620 X-1.2759 Y-1.4961 Z-0.1077
N7625 X-1.2752 Y-1.4967 Z-0.1039
N7630 X-1.275 Y-1.497 Z-0.1
N7635 Z0.2 F12.
N7640 X-0.3854 Y-1.4971
N7645 Z-0.075
N7650 Z-0.1 F10.
N7655 X-0.3856 Y-1.4969 Z-0.1039
N7660 X-0.3862 Y-1.4962 Z-0.1077
N7665 X-0.3872 Y-1.4951 Z-0.1113
N7670 X-0.3886 Y-1.4935 Z-0.1147
N7675 X-0.3902 Y-1.4916 Z-0.1177
N7680 X-0.3922 Y-1.4894 Z-0.1202
N7685 X-0.3944 Y-1.4868 Z-0.1223
N7690 X-0.3968 Y-1.4841 Z-0.1238
N7695 X-0.3993 Y-1.4812 Z-0.1247
N7700 X-0.4018 Y-1.4783 Z-0.125
N7705 G3 X-0.4273 Y-1.4607 I-0.047 J-0.0409
N7710 G1 X-0.5341 Y-1.4254 F12.
N7715 X-0.5423 Y-1.4225
N7720 X-0.5588 Y-1.4163
N7725 X-0.5662 Y-1.4133
N7730 X-0.6568 Y-1.3722
N7735 X-0.6878 Y-1.36
N7740 X-0.6934 Y-1.3578
N7745 X-0.699 Y-1.3558
N7750 X-0.7047 Y-1.3538
N7755 X-0.7104 Y-1.352
N7760 X-0.7161 Y-1.3502
N7765 X-0.7219 Y-1.3485
N7770 X-0.7277 Y-1.3469
N7775 X-0.7335 Y-1.3454
N7780 X-0.7393 Y-1.344
N7785 X-0.7451 Y-1.3426
N7790 X-0.751 Y-1.3413
N7795 X-0.7569 Y-1.34
N7800 X-0.7628 Y-1.3388
N7805 X-0.7686 Y-1.3377
N7810 X-0.7746 Y-1.3366
N7815 X-0.7805 Y-1.3356
N7820 X-0.7864 Y-1.3347
N7825 X-0.7923 Y-1.3337
N7830 X-0.7984 Y-1.3328
N7835 X-0.8049 Y-1.3319
N7840 X-0.8117 Y-1.331
N7845 X-0.8189 Y-1.3301
N7850 X-0.8265 Y-1.3292
N7855 X-0.8348 Y-1.3283
N7860 X-0.8436 Y-1.3274
N7865 X-0.8531 Y-1.3265
N7870 X-0.8634 Y-1.3255
N7875 X-0.8747 Y-1.3246
N7880 X-0.8871 Y-1.3237
N7885 X-0.9009 Y-1.3228
N7890 X-0.9164 Y-1.3219
N7895 X-0.9341 Y-1.321
N7900 X-0.9549 Y-1.32
N7905 X-0.9797 Y-1.3191
N7910 X-1.052 Y-1.3169
N7915 X-1.0881 Y-1.3148
N7920 X-1.1242 Y-1.312
N7925 X-1.133 Y-1.3114
N7930 X-1.1409 Y-1.3109
N7935 X-1.1468 Y-1.3105
N7940 X-1.1528 Y-1.3103
N7945 X-1.1588 Y-1.31
N7950 X-1.1648 Y-1.3099
N7955 X-1.1708 Y-1.3098
N7960 X-1.1768
N7965 X-1.1828 Y-1.3099
N7970 X-1.1888 Y-1.3101
N7975 X-1.1948 Y-1.3104
N7980 X-1.2008 Y-1.3108
N7985 X-1.2068 Y-1.3113
N7990 X-1.2128 Y-1.312
N7995 X-1.2187 Y-1.3127
N8000 X-1.2246 Y-1.3136
N8005 X-1.2337 Y-1.3141
N8010 X-1.2427 Y-1.3131
N8015 X-1.2514 Y-1.3108
N8020 X-1.2597 Y-1.3071
N8025 X-1.2673 Y-1.3022
N8030 X-1.274 Y-1.2962
N8035 X-1.2798 Y-1.2892
N8040 X-1.2981 Y-1.258
N8045 X-1.3056 Y-1.2226
N8050 X-1.3101 Y-1.1867
N8055 X-1.3128 Y-1.1506
N8060 X-1.3144 Y-1.1145
N8065 X-1.3152 Y-1.0783
N8070 X-1.3155 Y-1.0421
N8075 X-1.3156 Y-1.0059
N8080 Y-0.9698
N8085 X-1.3151 Y-0.78
N8090 X-1.3159 Y-0.7702
N8095 X-1.3184 Y-0.7606
N8100 X-1.3224 Y-0.7516
N8105 X-1.3655 Y-0.6738
N8110 X-1.3697 Y-0.6656
N8115 X-1.3722 Y-0.6602
N8120 X-1.3839 Y-0.6327
N8125 X-1.4255 Y-0.5341
N8130 X-1.4278 Y-0.5282
N8135 G3 X-1.4526 Y-0.5132 I-0.0229 J-0.0099 F10.
N8140 G1 X-1.4565 Y-0.5135 Z-0.1247
N8145 X-1.4603 Y-0.5138 Z-0.1238
N8150 X-1.4639 Y-0.5141 Z-0.1223
N8155 X-1.4673 Y-0.5143 Z-0.1202
N8160 X-1.4703 Y-0.5145 Z-0.1177
N8165 X-1.4728 Y-0.5147 Z-0.1147
N8170 X-1.4748 Y-0.5149 Z-0.1113
N8175 X-1.4763 Y-0.515 Z-0.1077
N8180 X-1.4773 Y-0.5151 Z-0.1039
N8185 X-1.4776 Z-0.1
N8190 Z0.2 F12.
N8195 X-0.6191 Y-1.4129
N8200 Z-0.075
N8205 Z-0.1 F10.
N8210 X-0.6193 Y-1.4127 Z-0.1039
N8215 X-0.6198 Y-1.4119 Z-0.1077
N8220 X-0.6206 Y-1.4107 Z-0.1113
N8225 X-0.6218 Y-1.409 Z-0.1147
N8230 X-0.6233 Y-1.4069 Z-0.1177
N8235 X-0.625 Y-1.4045 Z-0.1202
N8240 X-0.6269 Y-1.4017 Z-0.1223
N8245 X-0.629 Y-1.3988 Z-0.1238
N8250 X-0.6311 Y-1.3956 Z-0.1247
N8255 X-0.6334 Y-1.3924 Z-0.125
N8260 G3 X-0.6568 Y-1.3722 I-0.0511 J-0.0356
N8265 G1 X-0.682 Y-1.3608 F12.
N8270 X-0.6984 Y-1.3532
N8275 X-0.7088 Y-1.3476
N8280 X-0.7149 Y-1.3442
N8285 X-0.8299 Y-1.2764
N8290 X-0.8487 Y-1.2665
N8295 X-0.8707 Y-1.257
N8300 X-0.8999 Y-1.2471
N8305 X-0.935 Y-1.2383
N8310 X-0.9706 Y-1.2318
N8315 X-1.0064 Y-1.2266
N8320 X-1.0423 Y-1.2221
N8325 X-1.0783 Y-1.2185
N8330 X-1.0955 Y-1.2129
N8335 X-1.1267 Y-1.1946
N8340 X-1.1509 Y-1.1677
N8345 X-1.169 Y-1.1364
N8350 X-1.1822 Y-1.1027
N8355 X-1.1918 Y-1.0678
N8360 X-1.1987 Y-1.0323
N8365 X-1.2036 Y-0.9965
N8370 X-1.207 Y-0.9604
N8375 X-1.2084 Y-0.9406
N8380 X-1.21 Y-0.9302
N8385 X-1.2136 Y-0.9202
N8390 X-1.2188 Y-0.911
N8395 X-1.2736 Y-0.833
N8400 X-1.2901 Y-0.8092
N8405 X-1.2925 Y-0.8053
N8410 X-1.3065 Y-0.7803
N8415 X-1.3224 Y-0.7516
N8420 G3 X-1.349 Y-0.74 I-0.0214 J-0.0129 F10.
N8425 G1 X-1.3528 Y-0.7408 Z-0.1247
N8430 X-1.3566 Y-0.7416 Z-0.1238
N8435 X-1.3601 Y-0.7423 Z-0.1223
N8440 X-1.3634 Y-0.743 Z-0.1202
N8445 X-1.3663 Y-0.7436 Z-0.1177
N8450 X-1.3688 Y-0.7442 Z-0.1147
N8455 X-1.3708 Y-0.7446 Z-0.1113
N8460 X-1.3723 Y-0.7449 Z-0.1077
N8465 X-1.3732 Y-0.7451 Z-0.1039
N8470 X-1.3735 Z-0.1
N8475 Z0.2 F12.
N8480 X-0.7969 Y-1.321
N8485 Z-0.075
N8490 Z-0.1 F10.
N8495 X-0.7971 Y-1.3207 Z-0.1039
N8500 X-0.7975 Y-1.3199 Z-0.1077
N8505 X-0.7982 Y-1.3186 Z-0.1113
N8510 X-0.7992 Y-1.3168 Z-0.1147
N8515 X-0.8004 Y-1.3146 Z-0.1177
N8520 X-0.8019 Y-1.312 Z-0.1202
N8525 X-0.8035 Y-1.309 Z-0.1223
N8530 X-0.8052 Y-1.3058 Z-0.1238
N8535 X-0.807 Y-1.3025 Z-0.1247
N8540 X-0.8089 Y-1.299 Z-0.125
N8545 G3 X-0.8299 Y-1.2764 I-0.0548 J-0.0297
N8550 G1 X-0.8345 Y-1.2736 F12.
N8555 X-0.847 Y-1.2654
N8560 X-0.8546 Y-1.2599
N8565 X-0.9532 Y-1.1867
N8570 X-0.9833 Y-1.1666
N8575 X-1.011 Y-1.1434
N8580 X-1.0344 Y-1.1158
N8585 X-1.0362 Y-1.1137
N8590 X-1.0381 Y-1.1118
N8595 X-1.0401 Y-1.1099
N8600 G3 X-1.0684 Y-1.1069 Z-0.1188 I-0.0163 J-0.0189 F10.
N8605 G1 X-1.0709 Y-1.1085 Z-0.1182 F12.
N8610 X-1.0732 Y-1.1104 Z-0.1176
N8615 X-1.0753 Y-1.1125 Z-0.117
N8620 G3 X-1.0729 Y-1.1476 I0.0189 J-0.0163
N8625 G1 X-0.9853 Y-1.2249
N8630 G3 X-0.9492 Y-1.2218 I0.0166 J0.0187
N8635 G1 X-0.9475 Y-1.2194 Z-0.1176
N8640 X-0.9461 Y-1.2167 Z-0.1182
N8645 X-0.945 Y-1.214 Z-0.1188
N8650 G3 X-0.9532 Y-1.1867 Z-0.125 I-0.0238 J0.0077 F10.
N8655 G1 X-0.9614 Y-1.1806 F12.
N8660 X-0.9687 Y-1.175
N8665 X-0.9872 Y-1.1586
N8670 X-0.9962 Y-1.1504
N8675 X-1.0764 Y-1.0763
N8680 X-1.085 Y-1.0682
N8685 X-1.0929 Y-1.0605
N8690 X-1.1011 Y-1.0514
N8695 X-1.1832 Y-0.9575
N8700 X-1.194 Y-0.945
N8705 X-1.1997 Y-0.9379
N8710 X-1.2079 Y-0.9265
N8715 X-1.2161 Y-0.9149
N8720 X-1.2188 Y-0.911
N8725 G3 X-1.2465 Y-0.9023 I-0.0199 J-0.0151 F10.
N8730 G1 X-1.2502 Y-0.9035 Z-0.1247
N8735 X-1.2538 Y-0.9047 Z-0.1238
N8740 X-1.2573 Y-0.9058 Z-0.1223
N8745 X-1.2605 Y-0.9068 Z-0.1202
N8750 X-1.2633 Y-0.9077 Z-0.1177
N8755 X-1.2657 Y-0.9085 Z-0.1147
N8760 X-1.2677 Y-0.9091 Z-0.1113
N8765 X-1.2691 Y-0.9096 Z-0.1077
N8770 X-1.27 Y-0.9099 Z-0.1039
N8775 X-1.2703 Y-0.91 Z-0.1
N8780 Z0.2 F12.
N8785 X-1.3306 Y0.7815
N8790 Z-0.075
N8795 Z-0.1 F10.
N8800 X-1.3303 Y0.7817 Z-0.1039
N8805 X-1.3295 Y0.7821 Z-0.1077
N8810 X-1.3281 Y0.7828 Z-0.1113
N8815 X-1.3263 Y0.7837 Z-0.1147
N8820 X-1.324 Y0.7849 Z-0.1177
N8825 X-1.3214 Y0.7862 Z-0.1202
N8830 X-1.3184 Y0.7878 Z-0.1223
N8835 X-1.3152 Y0.7894 Z-0.1238
N8840 X-1.3118 Y0.7912 Z-0.1247
N8845 X-1.3083 Y0.793 Z-0.125
N8850 G3 X-1.2852 Y0.8135 I-0.0285 J0.0554
N8855 G1 X-1.2572 Y0.8582 F12.
N8860 X-1.2542 Y0.8628
N8865 X-1.2408 Y0.8821
N8870 X-1.237 Y0.8874
N8875 X-1.1919 Y0.945
N8880 X-1.1825 Y0.9581
N8885 X-1.1735 Y0.9735
N8890 X-1.1641 Y0.9925
N8895 X-1.155 Y1.0157
N8900 X-1.1466 Y1.0434
N8905 X-1.1397 Y1.0752
N8910 X-1.1352 Y1.1093
N8915 X-1.1334 Y1.1431
N8920 X-1.1339 Y1.1612
N8925 X-1.1304 Y1.179
N8930 X-1.1154 Y1.2119
N8935 X-1.0904 Y1.238
N8940 X-1.0603 Y1.2581
N8945 X-1.0274 Y1.2732
N8950 X-0.993 Y1.2845
N8955 X-0.9578 Y1.2928
N8960 X-0.9221 Y1.2988
N8965 X-0.8862 Y1.3033
N8970 X-0.8502 Y1.3065
N8975 X-0.8141 Y1.3088
N8980 X-0.7898 Y1.31
N8985 X-0.781 Y1.311
N8990 X-0.7724 Y1.3134
N8995 X-0.7642 Y1.3169
N9000 X-0.7528 Y1.3229
N9005 X-0.6491 Y1.3768
N9010 X-0.6409 Y1.3808
N9015 X-0.6242 Y1.3887
N9020 X-0.6163 Y1.3922
N9025 X-0.5481 Y1.4188
N9030 G3 X-0.5331 Y1.4436 I-0.0099 J0.023 F10.
N9035 G1 X-0.5334 Y1.4475 Z-0.1247
N9040 X-0.5336 Y1.4513 Z-0.1238
N9045 X-0.5339 Y1.4549 Z-0.1223
N9050 X-0.5342 Y1.4583 Z-0.1202
N9055 X-0.5344 Y1.4612 Z-0.1177
N9060 X-0.5346 Y1.4638 Z-0.1147
N9065 X-0.5347 Y1.4658 Z-0.1113
N9070 X-0.5348 Y1.4673 Z-0.1077
N9075 X-0.5349 Y1.4682 Z-0.1039
N9080 Y1.4686 Z-0.1
N9085 Z0.2 F12.
N9090 X-1.2404 Y0.918
N9095 Z-0.075
N9100 Z-0.1 F10.
N9105 X-1.2401 Y0.9181 Z-0.1039
N9110 X-1.2392 Y0.9184 Z-0.1077
N9115 X-1.2378 Y0.919 Z-0.1113
N9120 X-1.2359 Y0.9197 Z-0.1147
N9125 X-1.2335 Y0.9206 Z-0.1177
N9130 X-1.2308 Y0.9217 Z-0.1202
N9135 X-1.2276 Y0.9229 Z-0.1223
N9140 X-1.2242 Y0.9242 Z-0.1238
N9145 X-1.2207 Y0.9256 Z-0.1247
N9150 X-1.217 Y0.927 Z-0.125
N9155 G3 X-1.1919 Y0.945 I-0.0225 J0.0581
N9160 G1 X-1.1532 Y0.9943 F12.
N9165 X-1.1504 Y0.9974
N9170 X-1.1308 Y1.0189
N9175 X-1.1228 Y1.0271
N9180 X-1.1093 Y1.041
N9185 X-1.1021 Y1.0492
N9190 X-1.0804 Y1.0782
N9195 X-1.0573 Y1.1059
N9200 X-1.0298 Y1.1295
N9205 X-0.9992 Y1.1488
N9210 X-0.9966 Y1.1501
N9215 X-0.9942 Y1.1516
N9220 X-0.9919 Y1.1534
N9225 G3 X-0.9852 Y1.181 Z-0.1188 I-0.0166 J0.0187 F10.
N9230 G1 X-0.9865 Y1.1838 Z-0.1182 F12.
N9235 X-0.988 Y1.1863 Z-0.1176
N9240 X-0.9899 Y1.1886 Z-0.117
N9245 G3 X-1.0258 Y1.1901 I-0.0187 J-0.0166
N9250 G1 X-1.1439 Y1.0771
N9255 G3 X-1.1446 Y1.0418 I0.0173 J-0.0181
N9260 G1 X-1.1424 Y1.0397 Z-0.1176
N9265 X-1.14 Y1.038 Z-0.1182
N9270 X-1.1374 Y1.0365 Z-0.1188
N9275 G3 X-1.1093 Y1.041 Z-0.125 I0.0108 J0.0225 F10.
N9280 G1 X-1.0508 Y1.1011 F12.
N9285 X-1.0353 Y1.1168
N9290 X-1.0251 Y1.1257
N9295 X-1.0189 Y1.131
N9300 X-0.9162 Y1.2161
N9305 X-0.9121 Y1.2193
N9310 X-0.8874 Y1.2365
N9315 X-0.7806 Y1.3074
N9320 X-0.7724 Y1.3122
N9325 X-0.7642 Y1.3169
N9330 G3 X-0.753 Y1.3437 I-0.0132 J0.0212 F10.
N9335 G1 X-0.7539 Y1.3475 Z-0.1247
N9340 X-0.7547 Y1.3512 Z-0.1238
N9345 X-0.7555 Y1.3548 Z-0.1223
N9350 X-0.7563 Y1.358 Z-0.1202
N9355 X-0.7569 Y1.3609 Z-0.1177
N9360 X-0.7575 Y1.3634 Z-0.1147
N9365 X-0.7579 Y1.3654 Z-0.1113
N9370 X-0.7583 Y1.3669 Z-0.1077
N9375 X-0.7585 Y1.3678 Z-0.1039
N9380 Y1.3681 Z-0.1
N9385 Z0.2 F12.
N9390 X0.7745 Y1.3372
N9395 Z-0.075
N9400 Z-0.1 F10.
N9405 X0.7746 Y1.337 Z-0.1039
N9410 X0.775 Y1.3361 Z-0.1077
N9415 X0.7757 Y1.3348 Z-0.1113
N9420 X0.7766 Y1.3329 Z-0.1147
N9425 X0.7777 Y1.3306 Z-0.1177
N9430 X0.779 Y1.328 Z-0.1202
N9435 X0.7804 Y1.3249 Z-0.1223
N9440 X0.782 Y1.3217 Z-0.1238
N9445 X0.7837 Y1.3182 Z-0.1247
N9450 X0.7854 Y1.3147 Z-0.125
N9455 G3 X0.8053 Y1.291 I0.0561 J0.027
N9460 G1 X0.8874 Y1.2365 F12.
N9465 X0.9121 Y1.2193
N9470 X0.9162 Y1.2161
N9475 X0.9367 Y1.1991
N9480 X0.955 Y1.1855
N9485 X0.9692 Y1.1765
N9490 X0.987 Y1.1673
N9495 X1.0087 Y1.158
N9500 X1.0348 Y1.1494
N9505 X1.0651 Y1.1419
N9510 X1.0986 Y1.1365
N9515 X1.1324 Y1.1338
N9520 X1.1686
N9525 X1.1859 Y1.1285
N9530 X1.2176 Y1.111
N9535 X1.2425 Y1.0848
N9540 X1.2615 Y1.054
N9545 X1.2758 Y1.0207
N9550 X1.2864 Y0.9861
N9555 X1.2941 Y0.9508
N9560 X1.2998 Y0.9151
N9565 X1.304 Y0.8791
N9570 X1.307 Y0.8431
N9575 X1.3092 Y0.807
N9580 X1.3101 Y0.788
N9585 X1.3114 Y0.7781
N9590 X1.3143 Y0.7686
N9595 X1.3189 Y0.7597
N9600 X1.3229 Y0.7532
N9605 X1.3312 Y0.7387
N9610 X1.3353 Y0.7313
N9615 X1.3394 Y0.7237
N9620 X1.3969 Y0.6054
N9625 X1.3996 Y0.5998
N9630 X1.4033 Y0.5916
N9635 X1.4133 Y0.5645
N9640 X1.4183 Y0.5507
N9645 G3 X1.4427 Y0.535 I0.0232 J0.0093 F10.
N9650 G1 X1.4466 Y0.5352 Z-0.1247
N9655 X1.4504 Y0.5354 Z-0.1238
N9660 X1.454 Y0.5356 Z-0.1223
N9665 X1.4573 Y0.5357 Z-0.1202
N9670 X1.4603 Y0.5359 Z-0.1177
N9675 X1.4629 Y0.536 Z-0.1147
N9680 X1.4649 Y0.5361 Z-0.1113
N9685 X1.4664 Y0.5362 Z-0.1077
N9690 X1.4673 Z-0.1039
N9695 X1.4676 Z-0.1
N9700 Z0.2 F12.
N9705 X0.9111 Y1.2483
N9710 Z-0.075
N9715 Z-0.1 F10.
N9720 X0.9112 Y1.248 Z-0.1039
N9725 X0.9115 Y1.2472 Z-0.1077
N9730 X0.912 Y1.2458 Z-0.1113
N9735 X0.9127 Y1.2438 Z-0.1147
N9740 X0.9135 Y1.2414 Z-0.1177
N9745 X0.9145 Y1.2386 Z-0.1202
N9750 X0.9157 Y1.2355 Z-0.1223
N9755 X0.9169 Y1.2321 Z-0.1238
N9760 X0.9181 Y1.2285 Z-0.1247
N9765 X0.9195 Y1.2248 Z-0.125
N9770 G3 X0.9367 Y1.1991 I0.0587 J0.0209
N9775 G1 X1.0189 Y1.131 F12.
N9780 X1.0251 Y1.1257
N9785 X1.0353 Y1.1168
N9790 X1.0427 Y1.1093
N9795 X1.0485 Y1.104
N9800 X1.077 Y1.0817
N9805 X1.1049 Y1.0586
N9810 X1.1286 Y1.0313
N9815 X1.1473 Y1.0019
N9820 X1.149 Y0.9995
N9825 X1.1507 Y0.9971
N9830 X1.1526 Y0.9949
N9835 G3 X1.1805 Y0.9889 Z-0.1188 I0.0182 J0.0171 F10.
N9840 G1 X1.1831 Y0.9902 Z-0.1182 F12.
N9845 X1.1857 Y0.9918 Z-0.1176
N9850 X1.1879 Y0.9937 Z-0.117
N9855 G3 X1.1889 Y1.0293 I-0.0171 J0.0183
N9860 G1 X1.0792 Y1.1435
N9865 G3 X1.0443 Y1.1446 I-0.018 J-0.0173
N9870 G1 X1.0422 Y1.1425 Z-0.1176
N9875 X1.0404 Y1.1401 Z-0.1182
N9880 X1.0389 Y1.1375 Z-0.1188
N9885 G3 X1.0427 Y1.1093 Z-0.125 I0.0223 J-0.0113 F10.
N9890 G1 X1.0588 Y1.0929 F12.
N9895 X1.1257 Y1.0241
N9900 X1.1308 Y1.0189
N9905 X1.1504 Y0.9974
N9910 X1.1532 Y0.9943
N9915 X1.237 Y0.8874
N9920 X1.249 Y0.8703
N9925 X1.2542 Y0.8628
N9930 X1.2572 Y0.8582
N9935 X1.3189 Y0.7597
N9940 X1.3207 Y0.7573 F10.
N9945 X1.3227 Y0.7552
N9950 X1.3253 Y0.7536 Z-0.1248
N9955 X1.3278 Y0.752 Z-0.1243
N9960 X1.3302 Y0.7505 Z-0.1234
N9965 X1.3333 Y0.7498 Z-0.1219
N9970 X1.3362 Y0.7492 Z-0.12
N9975 X1.3388 Y0.7487 Z-0.1177
N9980 X1.3396 Z-0.1168
N9985 X1.3418 Y0.7489 Z-0.1139
N9990 X1.3436 Y0.7492 Z-0.1107
N9995 X1.345 Y0.7494 Z-0.1073
N10000 X1.3458 Y0.7495 Z-0.1037
N10005 X1.346 Z-0.1
N10010 Z0.2 F12.
N10015 X1.3339 Y-0.7836
N10020 Z-0.075
N10025 Z-0.1 F10.
N10030 X1.3336 Y-0.7838 Z-0.1039
N10035 X1.3328 Y-0.7841 Z-0.1077
N10040 X1.3314 Y-0.7848 Z-0.1113
N10045 X1.3295 Y-0.7856 Z-0.1147
N10050 X1.3272 Y-0.7867 Z-0.1177
N10055 X1.3245 Y-0.7879 Z-0.1202
N10060 X1.3215 Y-0.7893 Z-0.1223
N10065 X1.3182 Y-0.7908 Z-0.1238
N10070 X1.3147 Y-0.7924 Z-0.1247
N10075 X1.3112 Y-0.794 Z-0.125
N10080 G3 X1.2871 Y-0.8135 I0.0259 J-0.0567
N10085 G1 X1.2736 Y-0.833 F12.
N10090 X1.2123 Y-0.9203
N10095 X1.2064 Y-0.9285
N10100 X1.1997 Y-0.9379
N10105 X1.194 Y-0.945
N10110 X1.1875 Y-0.9534
N10115 X1.1786 Y-0.9669
N10120 X1.1695 Y-0.9837
N10125 X1.1603 Y-1.0043
N10130 X1.1516 Y-1.029
N10135 X1.1439 Y-1.0581
N10140 X1.1381 Y-1.0904
N10145 X1.1348 Y-1.1237
N10150 X1.1342 Y-1.1599
N10155 X1.1317 Y-1.1778
N10160 X1.1177 Y-1.2111
N10165 X1.0932 Y-1.2377
N10170 X1.0633 Y-1.2581
N10175 X1.0305 Y-1.2734
N10180 X0.9962 Y-1.2848
N10185 X0.961 Y-1.2932
N10190 X0.9253 Y-1.2993
N10195 X0.8894 Y-1.3037
N10200 X0.8533 Y-1.307
N10205 X0.8172 Y-1.3093
N10210 X0.7847 Y-1.3109
N10215 X0.7753 Y-1.3121
N10220 X0.7663 Y-1.3148
N10225 X0.7578 Y-1.3189
N10230 X0.7149 Y-1.3442
N10235 X0.7067 Y-1.3488
N10240 X0.6984 Y-1.3532
N10245 X0.6656 Y-1.3682
N10250 X0.5662 Y-1.4133
N10255 X0.5588 Y-1.4163
N10260 X0.5512 Y-1.4191
N10265 G3 X0.5359 Y-1.4437 I0.0096 J-0.0231 F10.
N10270 G1 X0.5361 Y-1.4476 Z-0.1247
N10275 X0.5363 Y-1.4515 Z-0.1238
N10280 X0.5366 Y-1.4551 Z-0.1223
N10285 X0.5368 Y-1.4584 Z-0.1202
N10290 X0.5369 Y-1.4614 Z-0.1177
N10295 X0.5371 Y-1.4639 Z-0.1147
N10300 X0.5372 Y-1.466 Z-0.1113
N10305 X0.5373 Y-1.4675 Z-0.1077
N10310 X0.5374 Y-1.4684 Z-0.1039
N10315 Y-1.4687 Z-0.1
N10320 Z0.2 F12.
N10325 X1.2437 Y-0.9202
N10330 Z-0.075
N10335 Z-0.1 F10.
N10340 X1.2434 Y-0.9203 Z-0.1039
N10345 X1.2425 Y-0.9206 Z-0.1077
N10350 X1.2411 Y-0.921 Z-0.1113
N10355 X1.2392 Y-0.9217 Z-0.1147
N10360 X1.2368 Y-0.9225 Z-0.1177
N10365 X1.2339 Y-0.9235 Z-0.1202
N10370 X1.2308 Y-0.9245 Z-0.1223
N10375 X1.2273 Y-0.9257 Z-0.1238
N10380 X1.2237 Y-0.9269 Z-0.1247
N10385 X1.22 Y-0.9281 Z-0.125
N10390 G3 X1.194 Y-0.945 I0.0198 J-0.0591
N10395 G1 X1.1832 Y-0.9575 F12.
N10400 X1.1093 Y-1.042
N10405 X1.0869 Y-1.0704
N10410 X1.065 Y-1.0993
N10415 X1.0387 Y-1.1241
N10420 X1.0089 Y-1.1446
N10425 X1.0017 Y-1.1482
N10430 X0.9971 Y-1.1508
N10435 X0.9928 Y-1.1538
N10440 X0.9888 Y-1.1571
N10445 G3 X0.9834 Y-1.1851 Z-0.1188 I0.0175 J-0.0179 F10.
N10450 G1 X0.9848 Y-1.1878 Z-0.1182 F12.
N10455 X0.9865 Y-1.1902 Z-0.1176
N10460 X0.9884 Y-1.1925 Z-0.117
N10465 G3 X1.0236 Y-1.1931 I0.0179 J0.0175
N10470 G1 X1.1448 Y-1.0772
N10475 G3 X1.1446 Y-1.0409 I-0.0173 J0.0181
N10480 G1 X1.1423 Y-1.039 Z-0.1176
N10485 X1.1398 Y-1.0374 Z-0.1182
N10490 X1.1371 Y-1.036 Z-0.1188
N10495 G3 X1.1093 Y-1.042 Z-0.125 I-0.0096 J-0.0231 F10.
N10500 G1 X1.1007 Y-1.0518 F12.
N10505 X1.0929 Y-1.0605
N10510 X1.0846 Y-1.0686
N10515 X1.0763 Y-1.0764
N10520 X0.9943 Y-1.1522
N10525 X0.986 Y-1.1596
N10530 X0.9687 Y-1.175
N10535 X0.9578 Y-1.1832
N10540 X0.8546 Y-1.2599
N10545 X0.847 Y-1.2654
N10550 X0.8345 Y-1.2736
N10555 X0.8053 Y-1.2909
N10560 X0.7578 Y-1.3189
N10565 G3 X0.7469 Y-1.3457 I0.0134 J-0.0211 F10.
N10570 G1 X0.7478 Y-1.3496 Z-0.1247
N10575 X0.7487 Y-1.3533 Z-0.1238
N10580 X0.7495 Y-1.3568 Z-0.1223
N10585 X0.7503 Y-1.36 Z-0.1202
N10590 X0.751 Y-1.3629 Z-0.1177
N10595 X0.7516 Y-1.3654 Z-0.1147
N10600 X0.7521 Y-1.3674 Z-0.1113
N10605 X0.7524 Y-1.3689 Z-0.1077
N10610 X0.7526 Y-1.3698 Z-0.1039
N10615 X0.7527 Y-1.3701 Z-0.1
N10620 Z0.6 F12.
(WHEN USING FUSION FOR PERSONAL USE, THE FEEDRATE OF RAPID)
(MOVES IS REDUCED TO MATCH THE FEEDRATE OF CUTTING MOVES,)
(WHICH CAN INCREASE MACHINING TIME. UNRESTRICTED RAPID MOVES)
(ARE AVAILABLE WITH A FUSION SUBSCRIPTION.)
(BORE2)
N10625 G64 P0.0004 Q0.0004
N10630 G0 X-0.025 Y1.5655
N10635 G1 Z0.6 F12.
N10640 Z0.08
N10645 Z0.025 F10.
N10650 G19 G2 Y1.5405 Z0. J-0.025 K0.
N10655 G1 Y1.528
N10660 G17 G3 X0. Y1.503 I0.025 J0.
N10665 G2 Y-1.503 Z-0.0722 I0. J-1.503 F12.
N10670 X-1.1245 Y0.9972 Z-0.125 I0. J1.503
N10675 X1.1245 Y-0.9972 I1.1245 J-0.9972
N10680 X-1.1245 Y0.9972 I-1.1245 J0.9972
N10685 G3 X-1.1266 Y1.0325 I-0.0187 J0.0166 F10.
N10690 G1 X-1.1359 Y1.0408
N10695 X-1.1389 Y1.0434 Z-0.1247
N10700 X-1.1417 Y1.0459 Z-0.1238
N10705 X-1.1444 Y1.0483 Z-0.1223
N10710 X-1.1469 Y1.0506 Z-0.1202
N10715 X-1.1492 Y1.0525 Z-0.1177
N10720 X-1.1511 Y1.0542 Z-0.1147
N10725 X-1.1526 Y1.0556 Z-0.1113
N10730 X-1.1537 Y1.0566 Z-0.1077
N10735 X-1.1544 Y1.0572 Z-0.1039
N10740 X-1.1546 Y1.0574 Z-0.1
N10745 Z0.6 F12.
(WHEN USING FUSION FOR PERSONAL USE, THE FEEDRATE OF RAPID)
(MOVES IS REDUCED TO MATCH THE FEEDRATE OF CUTTING MOVES,)
(WHICH CAN INCREASE MACHINING TIME. UNRESTRICTED RAPID MOVES)
(ARE AVAILABLE WITH A FUSION SUBSCRIPTION.)
(2D ADAPTIVE2)
N10750 G64 P0.004 Q0.004
N10755 G0 X-0.043 Y0.1138
N10760 G1 Z0.6 F12.
N10765 Z0.2
N10770 Z0.1
N10775 G3 X-0.1151 Y-0.0392 Z0.0836 I0.043 J-0.1138 F10.
N10780 X0.035 Y-0.1162 Z0.0673 I0.1149 J0.0391
N10785 X0.1167 Y0.0311 Z0.0509 I-0.0352 J0.1158
N10790 X-0.0274 Y0.1173 Z0.0345 I-0.1166 J-0.0313
N10795 X-0.1181 Y-0.0236 Z0.0182 I0.0274 J-0.1173
N10800 X0.0194 Y-0.1186 Z0.0018 I0.1179 J0.0235
N10805 X0.1187 Y0.0153 Z-0.0145 I-0.0196 J0.1183
N10810 X-0.0117 Y0.1187 Z-0.0309 I-0.1186 J-0.0157
N10815 X-0.119 Y-0.0079 Z-0.0473 I0.0117 J-0.1188
N10820 X0.0037 Y-0.119 Z-0.0636 I0.1188 J0.0078
N10825 X0.1185 Y-0.0003 Z-0.08 I-0.0039 J0.1187
N10830 X-0.119 I-0.1188 J0.
N10835 X0.1185 I0.1188 J0.
N10840 G1 X0.1187 Y0.0094 F12.
N10845 X0.1258 Y0.0477
N10850 X0.1272 Y0.0524
N10855 X0.1285 Y0.0583
N10860 X0.1291 Y0.0642
N10865 X0.1293 Y0.0702
N10870 X0.1289 Y0.0767
N10875 X0.1279 Y0.0835
N10880 X0.1263 Y0.0906
N10885 X0.124 Y0.0981
N10890 X0.1209 Y0.1058
N10895 X0.1171 Y0.1136
N10900 X0.1123 Y0.1214
N10905 X0.1067 Y0.1292
N10910 X0.1003 Y0.1369
N10915 X0.0929 Y0.1442
N10920 X0.0847 Y0.1513
N10925 X0.0757 Y0.1578
N10930 X0.0658 Y0.1639
N10935 X0.0552 Y0.1692
N10940 X0.0439 Y0.1738
N10945 X0.0319 Y0.1776
N10950 X0.0195 Y0.1804
N10955 X0.0066 Y0.1823
N10960 X-0.0067 Y0.1832
N10965 X-0.0201 Y0.183
N10970 X-0.0338 Y0.1817
N10975 X-0.0474 Y0.1793
N10980 X-0.061 Y0.1757
N10985 X-0.0743 Y0.171
N10990 X-0.0874 Y0.1652
N10995 X-0.1001 Y0.1584
N11000 X-0.1122 Y0.1504
N11005 X-0.1238 Y0.1415
N11010 X-0.1347 Y0.1316
N11015 X-0.1447 Y0.1208
N11020 X-0.154 Y0.1092
N11025 X-0.1623 Y0.0969
N11030 X-0.1696 Y0.0839
N11035 X-0.1758 Y0.0703
N11040 X-0.181 Y0.0562
N11045 X-0.185 Y0.0417
N11050 X-0.1878 Y0.0269
N11055 X-0.1895 Y0.0119
N11060 X-0.1899 Y-0.0032
N11065 X-0.1891 Y-0.0184
N11070 X-0.1871 Y-0.0334
N11075 X-0.1839 Y-0.0482
N11080 X-0.1796 Y-0.0627
N11085 X-0.174 Y-0.0769
N11090 X-0.1674 Y-0.0906
N11095 X-0.1597 Y-0.1037
N11100 X-0.1509 Y-0.1161
N11105 X-0.1411 Y-0.1278
N11110 X-0.1305 Y-0.1387
N11115 X-0.119 Y-0.1487
N11120 X-0.1067 Y-0.1578
N11125 X-0.0938 Y-0.1658
N11130 X-0.0802 Y-0.1728
N11135 X-0.0661 Y-0.1786
N11140 X-0.0516 Y-0.1834
N11145 X-0.0368 Y-0.1869
N11150 X-0.0217 Y-0.1892
N11155 X-0.0065 Y-0.1904
N11160 X0.0088 Y-0.1903
N11165 X0.024 Y-0.1889
N11170 X0.039 Y-0.1864
N11175 X0.0538 Y-0.1826
N11180 X0.0683 Y-0.1777
N11185 X0.0823 Y-0.1716
N11190 X0.0958 Y-0.1645
N11195 X0.1087 Y-0.1562
N11200 X0.1208 Y-0.147
N11205 X0.1322 Y-0.1368
N11210 X0.1427 Y-0.1257
N11215 X0.1523 Y-0.1139
N11220 X0.1609 Y-0.1013
N11225 X0.1736 Y-0.0792
N11230 X0.1875 Y-0.0495
N11235 X0.196 Y-0.0269
N11240 X0.2018 Y-0.0066
N11245 X0.2055 Y0.0121
N11250 X0.2077 Y0.0302
N11255 X0.2083 Y0.0477
N11260 X0.2076 Y0.0647
N11265 X0.2055 Y0.0812
N11270 X0.2022 Y0.0974
N11275 X0.1976 Y0.1132
N11280 X0.1917 Y0.1285
N11285 X0.1846 Y0.1435
N11290 X0.1763 Y0.1579
N11295 X0.1667 Y0.1717
N11300 X0.156 Y0.1848
N11305 X0.1441 Y0.1971
N11310 X0.1311 Y0.2086
N11315 X0.1171 Y0.2191
N11320 X0.102 Y0.2286
N11325 X0.086 Y0.237
N11330 X0.0692 Y0.2442
N11335 X0.0516 Y0.2501
N11340 X0.0333 Y0.2546
N11345 X0.0146 Y0.2577
N11350 X-0.0046 Y0.2592
N11355 X-0.0241 Y0.2593
N11360 X-0.0437 Y0.2577
N11365 X-0.0632 Y0.2546
N11370 X-0.0826 Y0.2498
N11375 X-0.1018 Y0.2435
N11380 X-0.1204 Y0.2356
N11385 X-0.1385 Y0.2261
N11390 X-0.1559 Y0.2152
N11395 X-0.1725 Y0.2028
N11400 X-0.188 Y0.1891
N11405 X-0.2025 Y0.1741
N11410 X-0.2158 Y0.158
N11415 X-0.2279 Y0.1407
N11420 X-0.2385 Y0.1225
N11425 X-0.2476 Y0.1034
N11430 X-0.2552 Y0.0836
N11435 X-0.2613 Y0.0632
N11440 X-0.2656 Y0.0423
N11445 X-0.2683 Y0.0211
N11450 X-0.2693 Y-0.0003
N11455 X-0.2685 Y-0.0217
N11460 X-0.2661 Y-0.0431
N11465 X-0.2619 Y-0.0641
N11470 X-0.256 Y-0.0848
N11475 X-0.2485 Y-0.105
N11480 X-0.2394 Y-0.1246
N11485 X-0.2287 Y-0.1433
N11490 X-0.2166 Y-0.1612
N11495 X-0.2031 Y-0.178
N11500 X-0.1882 Y-0.1937
N11505 X-0.1721 Y-0.2081
N11510 X-0.155 Y-0.2213
N11515 X-0.1368 Y-0.233
N11520 X-0.1177 Y-0.2432
N11525 X-0.0979 Y-0.2518
N11530 X-0.0774 Y-0.2589
N11535 X-0.0564 Y-0.2642
N11540 X-0.0351 Y-0.2679
N11545 X-0.0135 Y-0.2698
N11550 X0.0082 Y-0.27
N11555 X0.0298 Y-0.2685
N11560 X0.0512 Y-0.2652
N11565 X0.0723 Y-0.2603
N11570 X0.0929 Y-0.2536
N11575 X0.1129 Y-0.2453
N11580 X0.1322 Y-0.2355
N11585 X0.1506 Y-0.2241
N11590 X0.1681 Y-0.2113
N11595 X0.186 Y-0.1958
N11600 X0.2045 Y-0.1769
N11605 X0.2219 Y-0.1562
N11610 X0.2379 Y-0.1335
N11615 X0.2521 Y-0.1096
N11620 X0.2641 Y-0.0852
N11625 X0.2738 Y-0.0605
N11630 X0.2813 Y-0.0357
N11635 X0.2867 Y-0.011
N11640 X0.29 Y0.0136
N11645 X0.2913 Y0.038
N11650 X0.2907 Y0.0622
N11655 X0.2881 Y0.0861
N11660 X0.2837 Y0.1095
N11665 X0.2774 Y0.1324
N11670 X0.2693 Y0.1547
N11675 X0.2595 Y0.1762
N11680 X0.2479 Y0.1969
N11685 X0.2347 Y0.2167
N11690 X0.2199 Y0.2355
N11695 X0.2035 Y0.2531
N11700 X0.1856 Y0.2694
N11705 X0.1664 Y0.2844
N11710 X0.1458 Y0.2979
N11715 X0.124 Y0.3097
N11720 X0.1012 Y0.3199
N11725 X0.0774 Y0.3283
N11730 X0.0528 Y0.3348
N11735 X0.0276 Y0.3394
N11740 X0.0019 Y0.3419
N11745 X-0.0241 Y0.3424
N11750 X-0.0503 Y0.3407
N11755 X-0.0764 Y0.337
N11760 X-0.1022 Y0.3311
N11765 X-0.1277 Y0.3231
N11770 X-0.1526 Y0.313
N11775 X-0.1767 Y0.301
N11780 X-0.1999 Y0.2869
N11785 X-0.2221 Y0.2709
N11790 X-0.2429 Y0.2532
N11795 X-0.2623 Y0.2337
N11800 X-0.2802 Y0.2127
N11805 X-0.2964 Y0.1902
N11810 X-0.3108 Y0.1664
N11815 X-0.3233 Y0.1415
N11820 X-0.3337 Y0.1156
N11825 X-0.3421 Y0.0889
N11830 X-0.3483 Y0.0615
N11835 X-0.3523 Y0.0337
N11840 X-0.354 Y0.0056
N11845 X-0.3535 Y-0.0226
N11850 X-0.3507 Y-0.0507
N11855 X-0.3457 Y-0.0786
N11860 X-0.3384 Y-0.1059
N11865 X-0.329 Y-0.1326
N11870 X-0.3174 Y-0.1585
N11875 X-0.3038 Y-0.1834
N11880 X-0.2882 Y-0.2071
N11885 X-0.2708 Y-0.2295
N11890 X-0.2516 Y-0.2505
N11895 X-0.2308 Y-0.2698
N11900 X-0.2085 Y-0.2875
N11905 X-0.1848 Y-0.3033
N11910 X-0.1599 Y-0.3171
N11915 X-0.134 Y-0.3289
N11920 X-0.1073 Y-0.3386
N11925 X-0.0798 Y-0.3461
N11930 X-0.0518 Y-0.3514
N11935 X-0.0235 Y-0.3544
N11940 X0.0006 Y-0.355
N11945 X0.0088
N11950 X0.0314 Y-0.3539
N11955 X0.0598 Y-0.3502
N11960 X0.0877 Y-0.3442
N11965 X0.1151 Y-0.336
N11970 X0.1417 Y-0.3256
N11975 X0.1678 Y-0.313
N11980 X0.1936 Y-0.2977
N11985 X0.219 Y-0.2799
N11990 X0.2435 Y-0.2596
N11995 X0.2668 Y-0.2368
N12000 X0.2885 Y-0.212
N12005 X0.3081 Y-0.1854
N12010 X0.3256 Y-0.1573
N12015 X0.3407 Y-0.1281
N12020 X0.3505 Y-0.1047
N12025 X0.353 Y-0.0974
N12030 X0.3545 Y-0.0898
N12035 X0.355 Y-0.0822
N12040 Y0.0973
N12045 X0.3537 Y0.1234
N12050 X0.3509 Y0.1446
N12055 X0.3461 Y0.1669
N12060 X0.3394 Y0.1894
N12065 X0.3305 Y0.2123
N12070 X0.3192 Y0.2355
N12075 X0.3055 Y0.2588
N12080 X0.2895 Y0.2816
N12085 X0.2712 Y0.3036
N12090 X0.2508 Y0.3246
N12095 X0.2324 Y0.3406
N12100 X0.2239 Y0.3468
N12105 X0.2145 Y0.3513
N12110 X0.2044 Y0.3541
N12115 X0.194 Y0.355
N12120 G3 X0.1712 Y0.338 Z-0.0738 I0.0009 J-0.025 F10.
N12125 G1 X0.1704 Y0.3351 Z-0.0732 F12.
N12130 X0.17 Y0.3321 Z-0.0726
N12135 X0.1699 Y0.3292 Z-0.072
N12140 G3 X0.1733 Y0.3174 I0.025 J0.0009
N12145 G1 X0.3084 Y0.0856
N12150 G3 X0.3292 Y0.0732 I0.0216 J0.0126
N12155 G1 X0.3321 Y0.0733 Z-0.0726
N12160 X0.3351 Y0.0737 Z-0.0732
N12165 X0.338 Y0.0745 Z-0.0738
N12170 G3 X0.355 Y0.0973 Z-0.08 I-0.008 J0.0237 F10.
N12175 G1 Y0.2478 F12.
N12180 X0.3542 Y0.2637
N12185 X0.3527 Y0.2753
N12190 X0.3497 Y0.2891
N12195 X0.3456 Y0.303
N12200 X0.3395 Y0.3187
N12205 X0.3378 Y0.3221
N12210 X0.3308 Y0.3331
N12215 X0.3216 Y0.3423
N12220 X0.3106 Y0.3493
N12225 X0.2983 Y0.3535
N12230 X0.2853 Y0.355
N12235 G3 X0.2625 Y0.338 Z-0.0738 I0.0009 J-0.025 F10.
N12240 G1 X0.2617 Y0.3351 Z-0.0732 F12.
N12245 X0.2613 Y0.3321 Z-0.0726
N12250 X0.2612 Y0.3292 Z-0.072
N12255 G3 X0.2642 Y0.3182 I0.025 J0.0009
N12260 G1 X0.308 Y0.2368
N12265 G3 X0.3292 Y0.2237 I0.022 J0.0119
N12270 G1 X0.3321 Z-0.0726
N12275 X0.3351 Y0.2242 Z-0.0732
N12280 X0.338 Y0.225 Z-0.0738
N12285 G3 X0.355 Y0.2478 Z-0.08 I-0.008 J0.0237 F10.
N12290 G1 Y0.3186 F12.
N12295 X0.3551 Y0.3274
N12300 X0.355 Y0.3318
N12305 X0.3547 Y0.3341
N12310 X0.3541 Y0.3363
N12315 X0.354 Y0.3369
N12320 X0.3532 Y0.3389
N12325 X0.3523 Y0.341
N12330 X0.351 Y0.3431
N12335 X0.3495 Y0.3451
N12340 X0.3473 Y0.3475
N12345 X0.3451 Y0.3495
N12350 X0.343 Y0.351
N12355 X0.341 Y0.3523
N12360 X0.3389 Y0.3532
N12365 X0.3368 Y0.354
N12370 X0.3363 Y0.3541
N12375 X0.3341 Y0.3547
N12380 X0.3318 Y0.355
N12385 X0.3274 Y0.3551
N12390 X0.3186 Y0.355
N12395 X-0.1681
N12400 X-0.1818 Y0.3543
N12405 X-0.1954 Y0.3525
N12410 X-0.2102 Y0.3494
N12415 X-0.2262 Y0.3446
N12420 X-0.2429 Y0.3381
N12425 X-0.2614 Y0.3291
N12430 X-0.2795 Y0.3184
N12435 X-0.2985 Y0.3051
N12440 X-0.318 Y0.2889
N12445 X-0.3372 Y0.2702
N12450 X-0.3406 Y0.2663
N12455 X-0.3468 Y0.2578
N12460 X-0.3513 Y0.2484
N12465 X-0.3541 Y0.2383
N12470 X-0.355 Y0.2279
N12475 G3 X-0.338 Y0.2051 Z-0.0738 I0.025 J0.0009 F10.
N12480 G1 X-0.3351 Y0.2043 Z-0.0732 F12.
N12485 X-0.3321 Y0.2039 Z-0.0726
N12490 X-0.3292 Y0.2038 Z-0.072
N12495 G3 X-0.3167 Y0.2076 I-0.0009 J0.025
N12500 G1 X-0.1557 Y0.3089
N12505 G3 X-0.144 Y0.3292 I-0.0133 J0.0212
N12510 G1 X-0.1441 Y0.3321 Z-0.0726
N12515 X-0.1445 Y0.3351 Z-0.0732
N12520 X-0.1453 Y0.338 Z-0.0738
N12525 G3 X-0.1681 Y0.355 Z-0.08 I-0.0237 J-0.008 F10.
N12530 G1 X-0.2832 F12.
N12535 X-0.2962 Y0.3544
N12540 X-0.3069 Y0.3529
N12545 X-0.3089 Y0.3525
N12550 X-0.3214 Y0.3483
N12555 X-0.3326 Y0.3414
N12560 X-0.342 Y0.3322
N12565 X-0.3491 Y0.321
N12570 X-0.3535 Y0.3086
N12575 X-0.355 Y0.2955
N12580 G3 X-0.338 Y0.2726 Z-0.0738 I0.025 J0.0009 F10.
N12585 G1 X-0.3351 Y0.2719 Z-0.0732 F12.
N12590 X-0.3321 Y0.2714 Z-0.0726
N12595 X-0.3292 Z-0.072
N12600 G3 X-0.3152 Y0.2762 I-0.0009 J0.025
N12605 G1 X-0.2693 Y0.3098
N12610 G3 X-0.2591 Y0.3292 I-0.0148 J0.0202
N12615 G1 Y0.3321 Z-0.0726
N12620 X-0.2596 Y0.3351 Z-0.0732
N12625 X-0.2603 Y0.338 Z-0.0738
N12630 G3 X-0.2832 Y0.355 Z-0.08 I-0.0237 J-0.008 F10.
N12635 G1 X-0.3186 F12.
N12640 X-0.3274 Y0.3551
N12645 X-0.3318 Y0.355
N12650 X-0.3341 Y0.3547
N12655 X-0.3363 Y0.3541
N12660 X-0.3369 Y0.354
N12665 X-0.3389 Y0.3532
N12670 X-0.341 Y0.3523
N12675 X-0.3431 Y0.351
N12680 X-0.3451 Y0.3495
N12685 X-0.3475 Y0.3473
N12690 X-0.3495 Y0.3451
N12695 X-0.351 Y0.343
N12700 X-0.3523 Y0.341
N12705 X-0.3532 Y0.3389
N12710 X-0.354 Y0.3368
N12715 X-0.3541 Y0.3363
N12720 X-0.3547 Y0.3341
N12725 X-0.355 Y0.3318
N12730 X-0.3551 Y0.3274
N12735 X-0.355 Y0.3186
N12740 Y-0.177
N12745 X-0.3544 Y-0.1889
N12750 X-0.3528 Y-0.2014
N12755 X-0.3497 Y-0.2159
N12760 X-0.3453 Y-0.2305
N12765 X-0.3388 Y-0.2472
N12770 X-0.3306 Y-0.2642
N12775 X-0.32 Y-0.282
N12780 X-0.3066 Y-0.3011
N12785 X-0.2913 Y-0.3196
N12790 X-0.2733 Y-0.338
N12795 X-0.2703 Y-0.3406
N12800 X-0.2619 Y-0.3468
N12805 X-0.2524 Y-0.3513
N12810 X-0.2424 Y-0.3541
N12815 X-0.232 Y-0.355
N12820 G3 X-0.2091 Y-0.338 Z-0.0738 I-0.0009 J0.025 F10.
N12825 G1 X-0.2084 Y-0.3351 Z-0.0732 F12.
N12830 X-0.2079 Y-0.3321 Z-0.0726
N12835 Y-0.3292 Z-0.072
N12840 G3 X-0.2118 Y-0.3166 I-0.025 J-0.0009
N12845 G1 X-0.3089 Y-0.1644
N12850 G3 X-0.3292 Y-0.1529 I-0.0211 J-0.0135
N12855 G1 X-0.3321 Z-0.0726
N12860 X-0.3351 Y-0.1534 Z-0.0732
N12865 X-0.338 Y-0.1542 Z-0.0738
N12870 G3 X-0.355 Y-0.177 Z-0.08 I0.008 J-0.0237 F10.
N12875 G1 Y-0.292 F12.
N12880 X-0.3546 Y-0.2999
N12885 X-0.354 Y-0.3042
N12890 X-0.3513 Y-0.3159
N12895 X-0.3462 Y-0.3268
N12900 X-0.339 Y-0.3363
N12905 X-0.33 Y-0.3442
N12910 X-0.3195 Y-0.3501
N12915 X-0.3081 Y-0.3538
N12920 X-0.2962 Y-0.355
N12925 G3 X-0.2734 Y-0.338 Z-0.0738 I-0.0009 J0.025 F10.
N12930 G1 X-0.2726 Y-0.3351 Z-0.0732 F12.
N12935 X-0.2722 Y-0.3321 Z-0.0726
N12940 X-0.2721 Y-0.3292 Z-0.072
N12945 G3 X-0.2784 Y-0.3134 I-0.025 J-0.0009
N12950 G1 X-0.3113 Y-0.2763
N12955 G3 X-0.3292 Y-0.2679 I-0.0187 J-0.0166
N12960 G1 X-0.3321 Y-0.268 Z-0.0726
N12965 X-0.3351 Y-0.2684 Z-0.0732
N12970 X-0.338 Y-0.2692 Z-0.0738
N12975 G3 X-0.355 Y-0.292 Z-0.08 I0.008 J-0.0237 F10.
N12980 G1 Y-0.3186 F12.
N12985 X-0.3551 Y-0.3274
N12990 X-0.355 Y-0.3318
N12995 X-0.3547 Y-0.3341
N13000 X-0.3541 Y-0.3363
N13005 X-0.354 Y-0.3369
N13010 X-0.3532 Y-0.3389
N13015 X-0.3523 Y-0.341
N13020 X-0.351 Y-0.3431
N13025 X-0.3495 Y-0.3451
N13030 X-0.3473 Y-0.3475
N13035 X-0.3451 Y-0.3495
N13040 X-0.343 Y-0.351
N13045 X-0.341 Y-0.3523
N13050 X-0.3389 Y-0.3532
N13055 X-0.3368 Y-0.354
N13060 X-0.3363 Y-0.3541
N13065 X-0.3341 Y-0.3547
N13070 X-0.3318 Y-0.355
N13075 X-0.3274 Y-0.3551
N13080 X-0.3186 Y-0.355
N13085 X0.0006
N13090 X0.0022 Y-0.3549
N13095 X0.0042 Y-0.3548
N13100 X0.0062 Y-0.3549
N13105 X0.0088 Y-0.355
N13110 X0.177
N13115 X0.1896 Y-0.3544
N13120 X0.2033 Y-0.3526
N13125 X0.2172 Y-0.3496
N13130 X0.2337 Y-0.3447
N13135 X0.2501 Y-0.3383
N13140 X0.2691 Y-0.329
N13145 X0.2879 Y-0.318
N13150 X0.3083 Y-0.3037
N13155 X0.3296 Y-0.286
N13160 X0.3374 Y-0.2784
N13165 X0.3449 Y-0.2695
N13170 X0.3504 Y-0.2593
N13175 X0.3538 Y-0.2482
N13180 X0.355 Y-0.2366
N13185 G3 X0.338 Y-0.2138 Z-0.0738 I-0.025 J-0.0009 F10.
N13190 G1 X0.3351 Y-0.213 Z-0.0732 F12.
N13195 X0.3321 Y-0.2126 Z-0.0726
N13200 X0.3292 Y-0.2125 Z-0.072
N13205 G3 X0.317 Y-0.2161 I0.0009 J-0.025
N13210 G1 X0.1649 Y-0.3087
N13215 G3 X0.1529 Y-0.3292 I0.013 J-0.0214
N13220 G1 Y-0.3321 Z-0.0726
N13225 X0.1534 Y-0.3351 Z-0.0732
N13230 X0.1542 Y-0.338 Z-0.0738
N13235 G3 X0.177 Y-0.355 Z-0.08 I0.0237 J0.008 F10.
N13240 G1 X0.292 F12.
N13245 X0.3045 Y-0.3544
N13250 X0.3161 Y-0.3516
N13255 X0.3269 Y-0.3465
N13260 X0.3364 Y-0.3394
N13265 X0.3443 Y-0.3304
N13270 X0.3502 Y-0.32
N13275 X0.3538 Y-0.3086
N13280 X0.355 Y-0.2968
N13285 G3 X0.338 Y-0.274 Z-0.0738 I-0.025 J-0.0009 F10.
N13290 G1 X0.3351 Y-0.2732 Z-0.0732 F12.
N13295 X0.3321 Y-0.2727 Z-0.0726
N13300 X0.3292 Z-0.072
N13305 G3 X0.3136 Y-0.2788 I0.0009 J-0.025
N13310 G1 X0.2765 Y-0.3112
N13315 G3 X0.2679 Y-0.3292 I0.0164 J-0.0188
N13320 G1 X0.268 Y-0.3321 Z-0.0726
N13325 X0.2684 Y-0.3351 Z-0.0732
N13330 X0.2692 Y-0.338 Z-0.0738
N13335 G3 X0.292 Y-0.355 Z-0.08 I0.0237 J0.008 F10.
N13340 G1 X0.3186 F12.
N13345 X0.3274 Y-0.3551
N13350 X0.3318 Y-0.355
N13355 X0.3341 Y-0.3547
N13360 X0.3363 Y-0.3541
N13365 X0.3368 Y-0.354
N13370 X0.3389 Y-0.3532
N13375 X0.341 Y-0.3523
N13380 X0.343 Y-0.351
N13385 X0.3451 Y-0.3495
N13390 X0.3473 Y-0.3475
N13395 X0.3495 Y-0.3451
N13400 X0.351 Y-0.3431
N13405 X0.3523 Y-0.341
N13410 X0.3532 Y-0.3389
N13415 X0.354 Y-0.3369
N13420 X0.3541 Y-0.3363
N13425 X0.3547 Y-0.3341
N13430 X0.355 Y-0.3318
N13435 X0.3551 Y-0.3274
N13440 X0.355 Y-0.3186
N13445 Y-0.0822
N13450 X0.3547 Y-0.0792 F10.
N13455 X0.3541 Y-0.0763
N13460 X0.3528 Y-0.0736 Z-0.0798
N13465 X0.3515 Y-0.071 Z-0.0793
N13470 X0.3503 Y-0.0684 Z-0.0784
N13475 X0.348 Y-0.0662 Z-0.0769
N13480 X0.3459 Y-0.0641 Z-0.075
N13485 X0.344 Y-0.0623 Z-0.0727
N13490 X0.3417 Y-0.0612 Z-0.0697
N13495 X0.3398 Y-0.0603 Z-0.0664
N13500 X0.3385 Y-0.0597 Z-0.0627
N13505 X0.3377 Y-0.0593 Z-0.0589
N13510 X0.3374 Y-0.0591 Z-0.055
N13515 Z0.2 F12.
N13520 X-0.043 Y0.1138
N13525 Z0.02
N13530 G3 X-0.1151 Y-0.0392 Z0.0036 I0.043 J-0.1138 F10.
N13535 X0.035 Y-0.1162 Z-0.0127 I0.1149 J0.0391
N13540 X0.1167 Y0.0311 Z-0.0291 I-0.0352 J0.1158
N13545 X-0.0274 Y0.1173 Z-0.0455 I-0.1166 J-0.0313
N13550 X-0.1181 Y-0.0236 Z-0.0618 I0.0274 J-0.1173
N13555 X0.0194 Y-0.1186 Z-0.0782 I0.1179 J0.0235
N13560 X0.1187 Y0.0153 Z-0.0945 I-0.0196 J0.1183
N13565 X-0.0117 Y0.1187 Z-0.1109 I-0.1186 J-0.0157
N13570 X-0.119 Y-0.0079 Z-0.1273 I0.0117 J-0.1188
N13575 X0.0037 Y-0.119 Z-0.1436 I0.1188 J0.0078
N13580 X0.1185 Y-0.0003 Z-0.16 I-0.0039 J0.1187
N13585 X-0.119 I-0.1188 J0.
N13590 X0.1185 I0.1188 J0.
N13595 G1 X0.1187 Y0.0094 F12.
N13600 X0.1258 Y0.0477
N13605 X0.1272 Y0.0524
N13610 X0.1285 Y0.0583
N13615 X0.1291 Y0.0642
N13620 X0.1293 Y0.0702
N13625 X0.1289 Y0.0767
N13630 X0.1279 Y0.0835
N13635 X0.1263 Y0.0906
N13640 X0.124 Y0.0981
N13645 X0.1209 Y0.1058
N13650 X0.1171 Y0.1136
N13655 X0.1123 Y0.1214
N13660 X0.1067 Y0.1292
N13665 X0.1003 Y0.1369
N13670 X0.0929 Y0.1442
N13675 X0.0847 Y0.1513
N13680 X0.0757 Y0.1578
N13685 X0.0658 Y0.1639
N13690 X0.0552 Y0.1692
N13695 X0.0439 Y0.1738
N13700 X0.0319 Y0.1776
N13705 X0.0195 Y0.1804
N13710 X0.0066 Y0.1823
N13715 X-0.0067 Y0.1832
N13720 X-0.0201 Y0.183
N13725 X-0.0338 Y0.1817
N13730 X-0.0474 Y0.1793
N13735 X-0.061 Y0.1757
N13740 X-0.0743 Y0.171
N13745 X-0.0874 Y0.1652
N13750 X-0.1001 Y0.1584
N13755 X-0.1122 Y0.1504
N13760 X-0.1238 Y0.1415
N13765 X-0.1347 Y0.1316
N13770 X-0.1447 Y0.1208
N13775 X-0.154 Y0.1092
N13780 X-0.1623 Y0.0969
N13785 X-0.1696 Y0.0839
N13790 X-0.1758 Y0.0703
N13795 X-0.181 Y0.0562
N13800 X-0.185 Y0.0417
N13805 X-0.1878 Y0.0269
N13810 X-0.1895 Y0.0119
N13815 X-0.1899 Y-0.0032
N13820 X-0.1891 Y-0.0184
N13825 X-0.1871 Y-0.0334
N13830 X-0.1839 Y-0.0482
N13835 X-0.1796 Y-0.0627
N13840 X-0.174 Y-0.0769
N13845 X-0.1674 Y-0.0906
N13850 X-0.1597 Y-0.1037
N13855 X-0.1509 Y-0.1161
N13860 X-0.1411 Y-0.1278
N13865 X-0.1305 Y-0.1387
N13870 X-0.119 Y-0.1487
N13875 X-0.1067 Y-0.1578
N13880 X-0.0938 Y-0.1658
N13885 X-0.0802 Y-0.1728
N13890 X-0.0661 Y-0.1786
N13895 X-0.0516 Y-0.1834
N13900 X-0.0368 Y-0.1869
N13905 X-0.0217 Y-0.1892
N13910 X-0.0065 Y-0.1904
N13915 X0.0088 Y-0.1903
N13920 X0.024 Y-0.1889
N13925 X0.039 Y-0.1864
N13930 X0.0538 Y-0.1826
N13935 X0.0683 Y-0.1777
N13940 X0.0823 Y-0.1716
N13945 X0.0958 Y-0.1645
N13950 X0.1087 Y-0.1562
N13955 X0.1208 Y-0.147
N13960 X0.1322 Y-0.1368
N13965 X0.1427 Y-0.1257
N13970 X0.1523 Y-0.1139
N13975 X0.1609 Y-0.1013
N13980 X0.1736 Y-0.0792
N13985 X0.1875 Y-0.0495
N13990 X0.196 Y-0.0269
N13995 X0.2018 Y-0.0066
N14000 X0.2055 Y0.0121
N14005 X0.2077 Y0.0302
N14010 X0.2083 Y0.0477
N14015 X0.2076 Y0.0647
N14020 X0.2055 Y0.0812
N14025 X0.2022 Y0.0974
N14030 X0.1976 Y0.1132
N14035 X0.1917 Y0.1285
N14040 X0.1846 Y0.1435
N14045 X0.1763 Y0.1579
N14050 X0.1667 Y0.1717
N14055 X0.156 Y0.1848
N14060 X0.1441 Y0.1971
N14065 X0.1311 Y0.2086
N14070 X0.1171 Y0.2191
N14075 X0.102 Y0.2286
N14080 X0.086 Y0.237
N14085 X0.0692 Y0.2442
N14090 X0.0516 Y0.2501
N14095 X0.0333 Y0.2546
N14100 X0.0146 Y0.2577
N14105 X-0.0046 Y0.2592
N14110 X-0.0241 Y0.2593
N14115 X-0.0437 Y0.2577
N14120 X-0.0632 Y0.2546
N14125 X-0.0826 Y0.2498
N14130 X-0.1018 Y0.2435
N14135 X-0.1204 Y0.2356
N14140 X-0.1385 Y0.2261
N14145 X-0.1559 Y0.2152
N14150 X-0.1725 Y0.2028
N14155 X-0.188 Y0.1891
N14160 X-0.2025 Y0.1741
N14165 X-0.2158 Y0.158
N14170 X-0.2279 Y0.1407
N14175 X-0.2385 Y0.1225
N14180 X-0.2476 Y0.1034
N14185 X-0.2552 Y0.0836
N14190 X-0.2613 Y0.0632
N14195 X-0.2656 Y0.0423
N14200 X-0.2683 Y0.0211
N14205 X-0.2693 Y-0.0003
N14210 X-0.2685 Y-0.0217
N14215 X-0.2661 Y-0.0431
N14220 X-0.2619 Y-0.0641
N14225 X-0.256 Y-0.0848
N14230 X-0.2485 Y-0.105
N14235 X-0.2394 Y-0.1246
N14240 X-0.2287 Y-0.1433
N14245 X-0.2166 Y-0.1612
N14250 X-0.2031 Y-0.178
N14255 X-0.1882 Y-0.1937
N14260 X-0.1721 Y-0.2081
N14265 X-0.155 Y-0.2213
N14270 X-0.1368 Y-0.233
N14275 X-0.1177 Y-0.2432
N14280 X-0.0979 Y-0.2518
N14285 X-0.0774 Y-0.2589
N14290 X-0.0564 Y-0.2642
N14295 X-0.0351 Y-0.2679
N14300 X-0.0135 Y-0.2698
N14305 X0.0082 Y-0.27
N14310 X0.0298 Y-0.2685
N14315 X0.0512 Y-0.2652
N14320 X0.0723 Y-0.2603
N14325 X0.0929 Y-0.2536
N14330 X0.1129 Y-0.2453
N14335 X0.1322 Y-0.2355
N14340 X0.1506 Y-0.2241
N14345 X0.1681 Y-0.2113
N14350 X0.186 Y-0.1958
N14355 X0.2045 Y-0.1769
N14360 X0.2219 Y-0.1562
N14365 X0.2379 Y-0.1335
N14370 X0.2521 Y-0.1096
N14375 X0.2641 Y-0.0852
N14380 X0.2738 Y-0.0605
N14385 X0.2813 Y-0.0357
N14390 X0.2867 Y-0.011
N14395 X0.29 Y0.0136
N14400 X0.2913 Y0.038
N14405 X0.2907 Y0.0622
N14410 X0.2881 Y0.0861
N14415 X0.2837 Y0.1095
N14420 X0.2774 Y0.1324
N14425 X0.2693 Y0.1547
N14430 X0.2595 Y0.1762
N14435 X0.2479 Y0.1969
N14440 X0.2347 Y0.2167
N14445 X0.2199 Y0.2355
N14450 X0.2035 Y0.2531
N14455 X0.1856 Y0.2694
N14460 X0.1664 Y0.2844
N14465 X0.1458 Y0.2979
N14470 X0.124 Y0.3097
N14475 X0.1012 Y0.3199
N14480 X0.0774 Y0.3283
N14485 X0.0528 Y0.3348
N14490 X0.0276 Y0.3394
N14495 X0.0019 Y0.3419
N14500 X-0.0241 Y0.3424
N14505 X-0.0503 Y0.3407
N14510 X-0.0764 Y0.337
N14515 X-0.1022 Y0.3311
N14520 X-0.1277 Y0.3231
N14525 X-0.1526 Y0.313
N14530 X-0.1767 Y0.301
N14535 X-0.1999 Y0.2869
N14540 X-0.2221 Y0.2709
N14545 X-0.2429 Y0.2532
N14550 X-0.2623 Y0.2337
N14555 X-0.2802 Y0.2127
N14560 X-0.2964 Y0.1902
N14565 X-0.3108 Y0.1664
N14570 X-0.3233 Y0.1415
N14575 X-0.3337 Y0.1156
N14580 X-0.3421 Y0.0889
N14585 X-0.3483 Y0.0615
N14590 X-0.3523 Y0.0337
N14595 X-0.354 Y0.0056
N14600 X-0.3535 Y-0.0226
N14605 X-0.3507 Y-0.0507
N14610 X-0.3457 Y-0.0786
N14615 X-0.3384 Y-0.1059
N14620 X-0.329 Y-0.1326
N14625 X-0.3174 Y-0.1585
N14630 X-0.3038 Y-0.1834
N14635 X-0.2882 Y-0.2071
N14640 X-0.2708 Y-0.2295
N14645 X-0.2516 Y-0.2505
N14650 X-0.2308 Y-0.2698
N14655 X-0.2085 Y-0.2875
N14660 X-0.1848 Y-0.3033
N14665 X-0.1599 Y-0.3171
N14670 X-0.134 Y-0.3289
N14675 X-0.1073 Y-0.3386
N14680 X-0.0798 Y-0.3461
N14685 X-0.0518 Y-0.3514
N14690 X-0.0235 Y-0.3544
N14695 X0.0006 Y-0.355
N14700 X0.0088
N14705 X0.0314 Y-0.3539
N14710 X0.0598 Y-0.3502
N14715 X0.0877 Y-0.3442
N14720 X0.1151 Y-0.336
N14725 X0.1417 Y-0.3256
N14730 X0.1678 Y-0.313
N14735 X0.1936 Y-0.2977
N14740 X0.219 Y-0.2799
N14745 X0.2435 Y-0.2596
N14750 X0.2668 Y-0.2368
N14755 X0.2885 Y-0.212
N14760 X0.3081 Y-0.1854
N14765 X0.3256 Y-0.1573
N14770 X0.3407 Y-0.1281
N14775 X0.3505 Y-0.1047
N14780 X0.353 Y-0.0974
N14785 X0.3545 Y-0.0898
N14790 X0.355 Y-0.0822
N14795 Y0.0973
N14800 X0.3537 Y0.1234
N14805 X0.3509 Y0.1446
N14810 X0.3461 Y0.1669
N14815 X0.3394 Y0.1894
N14820 X0.3305 Y0.2123
N14825 X0.3192 Y0.2355
N14830 X0.3055 Y0.2588
N14835 X0.2895 Y0.2816
N14840 X0.2712 Y0.3036
N14845 X0.2508 Y0.3246
N14850 X0.2324 Y0.3406
N14855 X0.2239 Y0.3468
N14860 X0.2145 Y0.3513
N14865 X0.2044 Y0.3541
N14870 X0.194 Y0.355
N14875 G3 X0.1712 Y0.338 Z-0.1538 I0.0009 J-0.025 F10.
N14880 G1 X0.1704 Y0.3351 Z-0.1532 F12.
N14885 X0.17 Y0.3321 Z-0.1526
N14890 X0.1699 Y0.3292 Z-0.152
N14895 G3 X0.1733 Y0.3174 I0.025 J0.0009
N14900 G1 X0.3084 Y0.0856
N14905 G3 X0.3292 Y0.0732 I0.0216 J0.0126
N14910 G1 X0.3321 Y0.0733 Z-0.1526
N14915 X0.3351 Y0.0737 Z-0.1532
N14920 X0.338 Y0.0745 Z-0.1538
N14925 G3 X0.355 Y0.0973 Z-0.16 I-0.008 J0.0237 F10.
N14930 G1 Y0.2478 F12.
N14935 X0.3542 Y0.2637
N14940 X0.3527 Y0.2753
N14945 X0.3497 Y0.2891
N14950 X0.3456 Y0.303
N14955 X0.3395 Y0.3187
N14960 X0.3378 Y0.3221
N14965 X0.3308 Y0.3331
N14970 X0.3216 Y0.3423
N14975 X0.3106 Y0.3493
N14980 X0.2983 Y0.3535
N14985 X0.2853 Y0.355
N14990 G3 X0.2625 Y0.338 Z-0.1538 I0.0009 J-0.025 F10.
N14995 G1 X0.2617 Y0.3351 Z-0.1532 F12.
N15000 X0.2613 Y0.3321 Z-0.1526
N15005 X0.2612 Y0.3292 Z-0.152
N15010 G3 X0.2642 Y0.3182 I0.025 J0.0009
N15015 G1 X0.308 Y0.2368
N15020 G3 X0.3292 Y0.2237 I0.022 J0.0119
N15025 G1 X0.3321 Z-0.1526
N15030 X0.3351 Y0.2242 Z-0.1532
N15035 X0.338 Y0.225 Z-0.1538
N15040 G3 X0.355 Y0.2478 Z-0.16 I-0.008 J0.0237 F10.
N15045 G1 Y0.3186 F12.
N15050 X0.3551 Y0.3274
N15055 X0.355 Y0.3318
N15060 X0.3547 Y0.3341
N15065 X0.3541 Y0.3363
N15070 X0.354 Y0.3369
N15075 X0.3532 Y0.3389
N15080 X0.3523 Y0.341
N15085 X0.351 Y0.3431
N15090 X0.3495 Y0.3451
N15095 X0.3473 Y0.3475
N15100 X0.3451 Y0.3495
N15105 X0.343 Y0.351
N15110 X0.341 Y0.3523
N15115 X0.3389 Y0.3532
N15120 X0.3368 Y0.354
N15125 X0.3363 Y0.3541
N15130 X0.3341 Y0.3547
N15135 X0.3318 Y0.355
N15140 X0.3274 Y0.3551
N15145 X0.3186 Y0.355
N15150 X-0.1681
N15155 X-0.1818 Y0.3543
N15160 X-0.1954 Y0.3525
N15165 X-0.2102 Y0.3494
N15170 X-0.2262 Y0.3446
N15175 X-0.2429 Y0.3381
N15180 X-0.2614 Y0.3291
N15185 X-0.2795 Y0.3184
N15190 X-0.2985 Y0.3051
N15195 X-0.318 Y0.2889
N15200 X-0.3372 Y0.2702
N15205 X-0.3406 Y0.2663
N15210 X-0.3468 Y0.2578
N15215 X-0.3513 Y0.2484
N15220 X-0.3541 Y0.2383
N15225 X-0.355 Y0.2279
N15230 G3 X-0.338 Y0.2051 Z-0.1538 I0.025 J0.0009 F10.
N15235 G1 X-0.3351 Y0.2043 Z-0.1532 F12.
N15240 X-0.3321 Y0.2039 Z-0.1526
N15245 X-0.3292 Y0.2038 Z-0.152
N15250 G3 X-0.3167 Y0.2076 I-0.0009 J0.025
N15255 G1 X-0.1557 Y0.3089
N15260 G3 X-0.144 Y0.3292 I-0.0133 J0.0212
N15265 G1 X-0.1441 Y0.3321 Z-0.1526
N15270 X-0.1445 Y0.3351 Z-0.1532
N15275 X-0.1453 Y0.338 Z-0.1538
N15280 G3 X-0.1681 Y0.355 Z-0.16 I-0.0237 J-0.008 F10.
N15285 G1 X-0.2832 F12.
N15290 X-0.2962 Y0.3544
N15295 X-0.3069 Y0.3529
N15300 X-0.3089 Y0.3525
N15305 X-0.3214 Y0.3483
N15310 X-0.3326 Y0.3414
N15315 X-0.342 Y0.3322
N15320 X-0.3491 Y0.321
N15325 X-0.3535 Y0.3086
N15330 X-0.355 Y0.2955
N15335 G3 X-0.338 Y0.2726 Z-0.1538 I0.025 J0.0009 F10.
N15340 G1 X-0.3351 Y0.2719 Z-0.1532 F12.
N15345 X-0.3321 Y0.2714 Z-0.1526
N15350 X-0.3292 Z-0.152
N15355 G3 X-0.3152 Y0.2762 I-0.0009 J0.025
N15360 G1 X-0.2693 Y0.3098
N15365 G3 X-0.2591 Y0.3292 I-0.0148 J0.0202
N15370 G1 Y0.3321 Z-0.1526
N15375 X-0.2596 Y0.3351 Z-0.1532
N15380 X-0.2603 Y0.338 Z-0.1538
N15385 G3 X-0.2832 Y0.355 Z-0.16 I-0.0237 J-0.008 F10.
N15390 G1 X-0.3186 F12.
N15395 X-0.3274 Y0.3551
N15400 X-0.3318 Y0.355
N15405 X-0.3341 Y0.3547
N15410 X-0.3363 Y0.3541
N15415 X-0.3369 Y0.354
N15420 X-0.3389 Y0.3532
N15425 X-0.341 Y0.3523
N15430 X-0.3431 Y0.351
N15435 X-0.3451 Y0.3495
N15440 X-0.3475 Y0.3473
N15445 X-0.3495 Y0.3451
N15450 X-0.351 Y0.343
N15455 X-0.3523 Y0.341
N15460 X-0.3532 Y0.3389
N15465 X-0.354 Y0.3368
N15470 X-0.3541 Y0.3363
N15475 X-0.3547 Y0.3341
N15480 X-0.355 Y0.3318
N15485 X-0.3551 Y0.3274
N15490 X-0.355 Y0.3186
N15495 Y-0.177
N15500 X-0.3544 Y-0.1889
N15505 X-0.3528 Y-0.2014
N15510 X-0.3497 Y-0.2159
N15515 X-0.3453 Y-0.2305
N15520 X-0.3388 Y-0.2472
N15525 X-0.3306 Y-0.2642
N15530 X-0.32 Y-0.282
N15535 X-0.3066 Y-0.3011
N15540 X-0.2913 Y-0.3196
N15545 X-0.2733 Y-0.338
N15550 X-0.2703 Y-0.3406
N15555 X-0.2619 Y-0.3468
N15560 X-0.2524 Y-0.3513
N15565 X-0.2424 Y-0.3541
N15570 X-0.232 Y-0.355
N15575 G3 X-0.2091 Y-0.338 Z-0.1538 I-0.0009 J0.025 F10.
N15580 G1 X-0.2084 Y-0.3351 Z-0.1532 F12.
N15585 X-0.2079 Y-0.3321 Z-0.1526
N15590 Y-0.3292 Z-0.152
N15595 G3 X-0.2118 Y-0.3166 I-0.025 J-0.0009
N15600 G1 X-0.3089 Y-0.1644
N15605 G3 X-0.3292 Y-0.1529 I-0.0211 J-0.0135
N15610 G1 X-0.3321 Z-0.1526
N15615 X-0.3351 Y-0.1534 Z-0.1532
N15620 X-0.338 Y-0.1542 Z-0.1538
N15625 G3 X-0.355 Y-0.177 Z-0.16 I0.008 J-0.0237 F10.
N15630 G1 Y-0.292 F12.
N15635 X-0.3546 Y-0.2999
N15640 X-0.354 Y-0.3042
N15645 X-0.3513 Y-0.3159
N15650 X-0.3462 Y-0.3268
N15655 X-0.339 Y-0.3363
N15660 X-0.33 Y-0.3442
N15665 X-0.3195 Y-0.3501
N15670 X-0.3081 Y-0.3538
N15675 X-0.2962 Y-0.355
N15680 G3 X-0.2734 Y-0.338 Z-0.1538 I-0.0009 J0.025 F10.
N15685 G1 X-0.2726 Y-0.3351 Z-0.1532 F12.
N15690 X-0.2722 Y-0.3321 Z-0.1526
N15695 X-0.2721 Y-0.3292 Z-0.152
N15700 G3 X-0.2784 Y-0.3134 I-0.025 J-0.0009
N15705 G1 X-0.3113 Y-0.2763
N15710 G3 X-0.3292 Y-0.2679 I-0.0187 J-0.0166
N15715 G1 X-0.3321 Y-0.268 Z-0.1526
N15720 X-0.3351 Y-0.2684 Z-0.1532
N15725 X-0.338 Y-0.2692 Z-0.1538
N15730 G3 X-0.355 Y-0.292 Z-0.16 I0.008 J-0.0237 F10.
N15735 G1 Y-0.3186 F12.
N15740 X-0.3551 Y-0.3274
N15745 X-0.355 Y-0.3318
N15750 X-0.3547 Y-0.3341
N15755 X-0.3541 Y-0.3363
N15760 X-0.354 Y-0.3369
N15765 X-0.3532 Y-0.3389
N15770 X-0.3523 Y-0.341
N15775 X-0.351 Y-0.3431
N15780 X-0.3495 Y-0.3451
N15785 X-0.3473 Y-0.3475
N15790 X-0.3451 Y-0.3495
N15795 X-0.343 Y-0.351
N15800 X-0.341 Y-0.3523
N15805 X-0.3389 Y-0.3532
N15810 X-0.3368 Y-0.354
N15815 X-0.3363 Y-0.3541
N15820 X-0.3341 Y-0.3547
N15825 X-0.3318 Y-0.355
N15830 X-0.3274 Y-0.3551
N15835 X-0.3186 Y-0.355
N15840 X0.0006
N15845 X0.0022 Y-0.3549
N15850 X0.0042 Y-0.3548
N15855 X0.0062 Y-0.3549
N15860 X0.0088 Y-0.355
N15865 X0.177
N15870 X0.1896 Y-0.3544
N15875 X0.2033 Y-0.3526
N15880 X0.2172 Y-0.3496
N15885 X0.2337 Y-0.3447
N15890 X0.2501 Y-0.3383
N15895 X0.2691 Y-0.329
N15900 X0.2879 Y-0.318
N15905 X0.3083 Y-0.3037
N15910 X0.3296 Y-0.286
N15915 X0.3374 Y-0.2784
N15920 X0.3449 Y-0.2695
N15925 X0.3504 Y-0.2593
N15930 X0.3538 Y-0.2482
N15935 X0.355 Y-0.2366
N15940 G3 X0.338 Y-0.2138 Z-0.1538 I-0.025 J-0.0009 F10.
N15945 G1 X0.3351 Y-0.213 Z-0.1532 F12.
N15950 X0.3321 Y-0.2126 Z-0.1526
N15955 X0.3292 Y-0.2125 Z-0.152
N15960 G3 X0.317 Y-0.2161 I0.0009 J-0.025
N15965 G1 X0.1649 Y-0.3087
N15970 G3 X0.1529 Y-0.3292 I0.013 J-0.0214
N15975 G1 Y-0.3321 Z-0.1526
N15980 X0.1534 Y-0.3351 Z-0.1532
N15985 X0.1542 Y-0.338 Z-0.1538
N15990 G3 X0.177 Y-0.355 Z-0.16 I0.0237 J0.008 F10.
N15995 G1 X0.292 F12.
N16000 X0.3045 Y-0.3544
N16005 X0.3161 Y-0.3516
N16010 X0.3269 Y-0.3465
N16015 X0.3364 Y-0.3394
N16020 X0.3443 Y-0.3304
N16025 X0.3502 Y-0.32
N16030 X0.3538 Y-0.3086
N16035 X0.355 Y-0.2968
N16040 G3 X0.338 Y-0.274 Z-0.1538 I-0.025 J-0.0009 F10.
N16045 G1 X0.3351 Y-0.2732 Z-0.1532 F12.
N16050 X0.3321 Y-0.2727 Z-0.1526
N16055 X0.3292 Z-0.152
N16060 G3 X0.3136 Y-0.2788 I0.0009 J-0.025
N16065 G1 X0.2765 Y-0.3112
N16070 G3 X0.2679 Y-0.3292 I0.0164 J-0.0188
N16075 G1 X0.268 Y-0.3321 Z-0.1526
N16080 X0.2684 Y-0.3351 Z-0.1532
N16085 X0.2692 Y-0.338 Z-0.1538
N16090 G3 X0.292 Y-0.355 Z-0.16 I0.0237 J0.008 F10.
N16095 G1 X0.3186 F12.
N16100 X0.3274 Y-0.3551
N16105 X0.3318 Y-0.355
N16110 X0.3341 Y-0.3547
N16115 X0.3363 Y-0.3541
N16120 X0.3368 Y-0.354
N16125 X0.3389 Y-0.3532
N16130 X0.341 Y-0.3523
N16135 X0.343 Y-0.351
N16140 X0.3451 Y-0.3495
N16145 X0.3473 Y-0.3475
N16150 X0.3495 Y-0.3451
N16155 X0.351 Y-0.3431
N16160 X0.3523 Y-0.341
N16165 X0.3532 Y-0.3389
N16170 X0.354 Y-0.3369
N16175 X0.3541 Y-0.3363
N16180 X0.3547 Y-0.3341
N16185 X0.355 Y-0.3318
N16190 X0.3551 Y-0.3274
N16195 X0.355 Y-0.3186
N16200 Y-0.0822
N16205 X0.3547 Y-0.0792 F10.
N16210 X0.3541 Y-0.0763
N16215 X0.3528 Y-0.0736 Z-0.1598
N16220 X0.3515 Y-0.071 Z-0.1593
N16225 X0.3503 Y-0.0684 Z-0.1584
N16230 X0.348 Y-0.0662 Z-0.1569
N16235 X0.3459 Y-0.0641 Z-0.155
N16240 X0.344 Y-0.0623 Z-0.1527
N16245 X0.3417 Y-0.0612 Z-0.1497
N16250 X0.3398 Y-0.0603 Z-0.1464
N16255 X0.3385 Y-0.0597 Z-0.1427
N16260 X0.3377 Y-0.0593 Z-0.1389
N16265 X0.3374 Y-0.0591 Z-0.135
N16270 Z0.2 F12.
N16275 X-0.043 Y0.1138
N16280 Z-0.06
N16285 G3 X-0.1151 Y-0.0392 Z-0.0764 I0.043 J-0.1138 F10.
N16290 X0.035 Y-0.1162 Z-0.0927 I0.1149 J0.0391
N16295 X0.1167 Y0.0311 Z-0.1091 I-0.0352 J0.1158
N16300 X-0.0274 Y0.1173 Z-0.1255 I-0.1166 J-0.0313
N16305 X-0.1181 Y-0.0236 Z-0.1418 I0.0274 J-0.1173
N16310 X0.0194 Y-0.1186 Z-0.1582 I0.1179 J0.0235
N16315 X0.1187 Y0.0153 Z-0.1745 I-0.0196 J0.1183
N16320 X-0.0117 Y0.1187 Z-0.1909 I-0.1186 J-0.0157
N16325 X-0.119 Y-0.0079 Z-0.2073 I0.0117 J-0.1188
N16330 X0.0037 Y-0.119 Z-0.2236 I0.1188 J0.0078
N16335 X0.1185 Y-0.0003 Z-0.24 I-0.0039 J0.1187
N16340 X-0.119 I-0.1188 J0.
N16345 X0.1185 I0.1188 J0.
N16350 G1 X0.1187 Y0.0094 F12.
N16355 X0.1258 Y0.0477
N16360 X0.1272 Y0.0524
N16365 X0.1285 Y0.0583
N16370 X0.1291 Y0.0642
N16375 X0.1293 Y0.0702
N16380 X0.1289 Y0.0767
N16385 X0.1279 Y0.0835
N16390 X0.1263 Y0.0906
N16395 X0.124 Y0.0981
N16400 X0.1209 Y0.1058
N16405 X0.1171 Y0.1136
N16410 X0.1123 Y0.1214
N16415 X0.1067 Y0.1292
N16420 X0.1003 Y0.1369
N16425 X0.0929 Y0.1442
N16430 X0.0847 Y0.1513
N16435 X0.0757 Y0.1578
N16440 X0.0658 Y0.1639
N16445 X0.0552 Y0.1692
N16450 X0.0439 Y0.1738
N16455 X0.0319 Y0.1776
N16460 X0.0195 Y0.1804
N16465 X0.0066 Y0.1823
N16470 X-0.0067 Y0.1832
N16475 X-0.0201 Y0.183
N16480 X-0.0338 Y0.1817
N16485 X-0.0474 Y0.1793
N16490 X-0.061 Y0.1757
N16495 X-0.0743 Y0.171
N16500 X-0.0874 Y0.1652
N16505 X-0.1001 Y0.1584
N16510 X-0.1122 Y0.1504
N16515 X-0.1238 Y0.1415
N16520 X-0.1347 Y0.1316
N16525 X-0.1447 Y0.1208
N16530 X-0.154 Y0.1092
N16535 X-0.1623 Y0.0969
N16540 X-0.1696 Y0.0839
N16545 X-0.1758 Y0.0703
N16550 X-0.181 Y0.0562
N16555 X-0.185 Y0.0417
N16560 X-0.1878 Y0.0269
N16565 X-0.1895 Y0.0119
N16570 X-0.1899 Y-0.0032
N16575 X-0.1891 Y-0.0184
N16580 X-0.1871 Y-0.0334
N16585 X-0.1839 Y-0.0482
N16590 X-0.1796 Y-0.0627
N16595 X-0.174 Y-0.0769
N16600 X-0.1674 Y-0.0906
N16605 X-0.1597 Y-0.1037
N16610 X-0.1509 Y-0.1161
N16615 X-0.1411 Y-0.1278
N16620 X-0.1305 Y-0.1387
N16625 X-0.119 Y-0.1487
N16630 X-0.1067 Y-0.1578
N16635 X-0.0938 Y-0.1658
N16640 X-0.0802 Y-0.1728
N16645 X-0.0661 Y-0.1786
N16650 X-0.0516 Y-0.1834
N16655 X-0.0368 Y-0.1869
N16660 X-0.0217 Y-0.1892
N16665 X-0.0065 Y-0.1904
N16670 X0.0088 Y-0.1903
N16675 X0.024 Y-0.1889
N16680 X0.039 Y-0.1864
N16685 X0.0538 Y-0.1826
N16690 X0.0683 Y-0.1777
N16695 X0.0823 Y-0.1716
N16700 X0.0958 Y-0.1645
N16705 X0.1087 Y-0.1562
N16710 X0.1208 Y-0.147
N16715 X0.1322 Y-0.1368
N16720 X0.1427 Y-0.1257
N16725 X0.1523 Y-0.1139
N16730 X0.1609 Y-0.1013
N16735 X0.1736 Y-0.0792
N16740 X0.1875 Y-0.0495
N16745 X0.196 Y-0.0269
N16750 X0.2018 Y-0.0066
N16755 X0.2055 Y0.0121
N16760 X0.2077 Y0.0302
N16765 X0.2083 Y0.0477
N16770 X0.2076 Y0.0647
N16775 X0.2055 Y0.0812
N16780 X0.2022 Y0.0974
N16785 X0.1976 Y0.1132
N16790 X0.1917 Y0.1285
N16795 X0.1846 Y0.1435
N16800 X0.1763 Y0.1579
N16805 X0.1667 Y0.1717
N16810 X0.156 Y0.1848
N16815 X0.1441 Y0.1971
N16820 X0.1311 Y0.2086
N16825 X0.1171 Y0.2191
N16830 X0.102 Y0.2286
N16835 X0.086 Y0.237
N16840 X0.0692 Y0.2442
N16845 X0.0516 Y0.2501
N16850 X0.0333 Y0.2546
N16855 X0.0146 Y0.2577
N16860 X-0.0046 Y0.2592
N16865 X-0.0241 Y0.2593
N16870 X-0.0437 Y0.2577
N16875 X-0.0632 Y0.2546
N16880 X-0.0826 Y0.2498
N16885 X-0.1018 Y0.2435
N16890 X-0.1204 Y0.2356
N16895 X-0.1385 Y0.2261
N16900 X-0.1559 Y0.2152
N16905 X-0.1725 Y0.2028
N16910 X-0.188 Y0.1891
N16915 X-0.2025 Y0.1741
N16920 X-0.2158 Y0.158
N16925 X-0.2279 Y0.1407
N16930 X-0.2385 Y0.1225
N16935 X-0.2476 Y0.1034
N16940 X-0.2552 Y0.0836
N16945 X-0.2613 Y0.0632
N16950 X-0.2656 Y0.0423
N16955 X-0.2683 Y0.0211
N16960 X-0.2693 Y-0.0003
N16965 X-0.2685 Y-0.0217
N16970 X-0.2661 Y-0.0431
N16975 X-0.2619 Y-0.0641
N16980 X-0.256 Y-0.0848
N16985 X-0.2485 Y-0.105
N16990 X-0.2394 Y-0.1246
N16995 X-0.2287 Y-0.1433
N17000 X-0.2166 Y-0.1612
N17005 X-0.2031 Y-0.178
N17010 X-0.1882 Y-0.1937
N17015 X-0.1721 Y-0.2081
N17020 X-0.155 Y-0.2213
N17025 X-0.1368 Y-0.233
N17030 X-0.1177 Y-0.2432
N17035 X-0.0979 Y-0.2518
N17040 X-0.0774 Y-0.2589
N17045 X-0.0564 Y-0.2642
N17050 X-0.0351 Y-0.2679
N17055 X-0.0135 Y-0.2698
N17060 X0.0082 Y-0.27
N17065 X0.0298 Y-0.2685
N17070 X0.0512 Y-0.2652
N17075 X0.0723 Y-0.2603
N17080 X0.0929 Y-0.2536
N17085 X0.1129 Y-0.2453
N17090 X0.1322 Y-0.2355
N17095 X0.1506 Y-0.2241
N17100 X0.1681 Y-0.2113
N17105 X0.186 Y-0.1958
N17110 X0.2045 Y-0.1769
N17115 X0.2219 Y-0.1562
N17120 X0.2379 Y-0.1335
N17125 X0.2521 Y-0.1096
N17130 X0.2641 Y-0.0852
N17135 X0.2738 Y-0.0605
N17140 X0.2813 Y-0.0357
N17145 X0.2867 Y-0.011
N17150 X0.29 Y0.0136
N17155 X0.2913 Y0.038
N17160 X0.2907 Y0.0622
N17165 X0.2881 Y0.0861
N17170 X0.2837 Y0.1095
N17175 X0.2774 Y0.1324
N17180 X0.2693 Y0.1547
N17185 X0.2595 Y0.1762
N17190 X0.2479 Y0.1969
N17195 X0.2347 Y0.2167
N17200 X0.2199 Y0.2355
N17205 X0.2035 Y0.2531
N17210 X0.1856 Y0.2694
N17215 X0.1664 Y0.2844
N17220 X0.1458 Y0.2979
N17225 X0.124 Y0.3097
N17230 X0.1012 Y0.3199
N17235 X0.0774 Y0.3283
N17240 X0.0528 Y0.3348
N17245 X0.0276 Y0.3394
N17250 X0.0019 Y0.3419
N17255 X-0.0241 Y0.3424
N17260 X-0.0503 Y0.3407
N17265 X-0.0764 Y0.337
N17270 X-0.1022 Y0.3311
N17275 X-0.1277 Y0.3231
N17280 X-0.1526 Y0.313
N17285 X-0.1767 Y0.301
N17290 X-0.1999 Y0.2869
N17295 X-0.2221 Y0.2709
N17300 X-0.2429 Y0.2532
N17305 X-0.2623 Y0.2337
N17310 X-0.2802 Y0.2127
N17315 X-0.2964 Y0.1902
N17320 X-0.3108 Y0.1664
N17325 X-0.3233 Y0.1415
N17330 X-0.3337 Y0.1156
N17335 X-0.3421 Y0.0889
N17340 X-0.3483 Y0.0615
N17345 X-0.3523 Y0.0337
N17350 X-0.354 Y0.0056
N17355 X-0.3535 Y-0.0226
N17360 X-0.3507 Y-0.0507
N17365 X-0.3457 Y-0.0786
N17370 X-0.3384 Y-0.1059
N17375 X-0.329 Y-0.1326
N17380 X-0.3174 Y-0.1585
N17385 X-0.3038 Y-0.1834
N17390 X-0.2882 Y-0.2071
N17395 X-0.2708 Y-0.2295
N17400 X-0.2516 Y-0.2505
N17405 X-0.2308 Y-0.2698
N17410 X-0.2085 Y-0.2875
N17415 X-0.1848 Y-0.3033
N17420 X-0.1599 Y-0.3171
N17425 X-0.134 Y-0.3289
N17430 X-0.1073 Y-0.3386
N17435 X-0.0798 Y-0.3461
N17440 X-0.0518 Y-0.3514
N17445 X-0.0235 Y-0.3544
N17450 X0.0006 Y-0.355
N17455 X0.0088
N17460 X0.0314 Y-0.3539
N17465 X0.0598 Y-0.3502
N17470 X0.0877 Y-0.3442
N17475 X0.1151 Y-0.336
N17480 X0.1417 Y-0.3256
N17485 X0.1678 Y-0.313
N17490 X0.1936 Y-0.2977
N17495 X0.219 Y-0.2799
N17500 X0.2435 Y-0.2596
N17505 X0.2668 Y-0.2368
N17510 X0.2885 Y-0.212
N17515 X0.3081 Y-0.1854
N17520 X0.3256 Y-0.1573
N17525 X0.3407 Y-0.1281
N17530 X0.3505 Y-0.1047
N17535 X0.353 Y-0.0974
N17540 X0.3545 Y-0.0898
N17545 X0.355 Y-0.0822
N17550 Y0.0973
N17555 X0.3537 Y0.1234
N17560 X0.3509 Y0.1446
N17565 X0.3461 Y0.1669
N17570 X0.3394 Y0.1894
N17575 X0.3305 Y0.2123
N17580 X0.3192 Y0.2355
N17585 X0.3055 Y0.2588
N17590 X0.2895 Y0.2816
N17595 X0.2712 Y0.3036
N17600 X0.2508 Y0.3246
N17605 X0.2324 Y0.3406
N17610 X0.2239 Y0.3468
N17615 X0.2145 Y0.3513
N17620 X0.2044 Y0.3541
N17625 X0.194 Y0.355
N17630 G3 X0.1712 Y0.338 Z-0.2338 I0.0009 J-0.025 F10.
N17635 G1 X0.1704 Y0.3351 Z-0.2332 F12.
N17640 X0.17 Y0.3321 Z-0.2326
N17645 X0.1699 Y0.3292 Z-0.232
N17650 G3 X0.1733 Y0.3174 I0.025 J0.0009
N17655 G1 X0.3084 Y0.0856
N17660 G3 X0.3292 Y0.0732 I0.0216 J0.0126
N17665 G1 X0.3321 Y0.0733 Z-0.2326
N17670 X0.3351 Y0.0737 Z-0.2332
N17675 X0.338 Y0.0745 Z-0.2338
N17680 G3 X0.355 Y0.0973 Z-0.24 I-0.008 J0.0237 F10.
N17685 G1 Y0.2478 F12.
N17690 X0.3542 Y0.2637
N17695 X0.3527 Y0.2753
N17700 X0.3497 Y0.2891
N17705 X0.3456 Y0.303
N17710 X0.3395 Y0.3187
N17715 X0.3378 Y0.3221
N17720 X0.3308 Y0.3331
N17725 X0.3216 Y0.3423
N17730 X0.3106 Y0.3493
N17735 X0.2983 Y0.3535
N17740 X0.2853 Y0.355
N17745 G3 X0.2625 Y0.338 Z-0.2338 I0.0009 J-0.025 F10.
N17750 G1 X0.2617 Y0.3351 Z-0.2332 F12.
N17755 X0.2613 Y0.3321 Z-0.2326
N17760 X0.2612 Y0.3292 Z-0.232
N17765 G3 X0.2642 Y0.3182 I0.025 J0.0009
N17770 G1 X0.308 Y0.2368
N17775 G3 X0.3292 Y0.2237 I0.022 J0.0119
N17780 G1 X0.3321 Z-0.2326
N17785 X0.3351 Y0.2242 Z-0.2332
N17790 X0.338 Y0.225 Z-0.2338
N17795 G3 X0.355 Y0.2478 Z-0.24 I-0.008 J0.0237 F10.
N17800 G1 Y0.3186 F12.
N17805 X0.3551 Y0.3274
N17810 X0.355 Y0.3318
N17815 X0.3547 Y0.3341
N17820 X0.3541 Y0.3363
N17825 X0.354 Y0.3369
N17830 X0.3532 Y0.3389
N17835 X0.3523 Y0.341
N17840 X0.351 Y0.3431
N17845 X0.3495 Y0.3451
N17850 X0.3473 Y0.3475
N17855 X0.3451 Y0.3495
N17860 X0.343 Y0.351
N17865 X0.341 Y0.3523
N17870 X0.3389 Y0.3532
N17875 X0.3368 Y0.354
N17880 X0.3363 Y0.3541
N17885 X0.3341 Y0.3547
N17890 X0.3318 Y0.355
N17895 X0.3274 Y0.3551
N17900 X0.3186 Y0.355
N17905 X-0.1681
N17910 X-0.1818 Y0.3543
N17915 X-0.1954 Y0.3525
N17920 X-0.2102 Y0.3494
N17925 X-0.2262 Y0.3446
N17930 X-0.2429 Y0.3381
N17935 X-0.2614 Y0.3291
N17940 X-0.2795 Y0.3184
N17945 X-0.2985 Y0.3051
N17950 X-0.318 Y0.2889
N17955 X-0.3372 Y0.2702
N17960 X-0.3406 Y0.2663
N17965 X-0.3468 Y0.2578
N17970 X-0.3513 Y0.2484
N17975 X-0.3541 Y0.2383
N17980 X-0.355 Y0.2279
N17985 G3 X-0.338 Y0.2051 Z-0.2338 I0.025 J0.0009 F10.
N17990 G1 X-0.3351 Y0.2043 Z-0.2332 F12.
N17995 X-0.3321 Y0.2039 Z-0.2326
N18000 X-0.3292 Y0.2038 Z-0.232
N18005 G3 X-0.3167 Y0.2076 I-0.0009 J0.025
N18010 G1 X-0.1557 Y0.3089
N18015 G3 X-0.144 Y0.3292 I-0.0133 J0.0212
N18020 G1 X-0.1441 Y0.3321 Z-0.2326
N18025 X-0.1445 Y0.3351 Z-0.2332
N18030 X-0.1453 Y0.338 Z-0.2338
N18035 G3 X-0.1681 Y0.355 Z-0.24 I-0.0237 J-0.008 F10.
N18040 G1 X-0.2832 F12.
N18045 X-0.2962 Y0.3544
N18050 X-0.3069 Y0.3529
N18055 X-0.3089 Y0.3525
N18060 X-0.3214 Y0.3483
N18065 X-0.3326 Y0.3414
N18070 X-0.342 Y0.3322
N18075 X-0.3491 Y0.321
N18080 X-0.3535 Y0.3086
N18085 X-0.355 Y0.2955
N18090 G3 X-0.338 Y0.2726 Z-0.2338 I0.025 J0.0009 F10.
N18095 G1 X-0.3351 Y0.2719 Z-0.2332 F12.
N18100 X-0.3321 Y0.2714 Z-0.2326
N18105 X-0.3292 Z-0.232
N18110 G3 X-0.3152 Y0.2762 I-0.0009 J0.025
N18115 G1 X-0.2693 Y0.3098
N18120 G3 X-0.2591 Y0.3292 I-0.0148 J0.0202
N18125 G1 Y0.3321 Z-0.2326
N18130 X-0.2596 Y0.3351 Z-0.2332
N18135 X-0.2603 Y0.338 Z-0.2338
N18140 G3 X-0.2832 Y0.355 Z-0.24 I-0.0237 J-0.008 F10.
N18145 G1 X-0.3186 F12.
N18150 X-0.3274 Y0.3551
N18155 X-0.3318 Y0.355
N18160 X-0.3341 Y0.3547
N18165 X-0.3363 Y0.3541
N18170 X-0.3369 Y0.354
N18175 X-0.3389 Y0.3532
N18180 X-0.341 Y0.3523
N18185 X-0.3431 Y0.351
N18190 X-0.3451 Y0.3495
N18195 X-0.3475 Y0.3473
N18200 X-0.3495 Y0.3451
N18205 X-0.351 Y0.343
N18210 X-0.3523 Y0.341
N18215 X-0.3532 Y0.3389
N18220 X-0.354 Y0.3368
N18225 X-0.3541 Y0.3363
N18230 X-0.3547 Y0.3341
N18235 X-0.355 Y0.3318
N18240 X-0.3551 Y0.3274
N18245 X-0.355 Y0.3186
N18250 Y-0.177
N18255 X-0.3544 Y-0.1889
N18260 X-0.3528 Y-0.2014
N18265 X-0.3497 Y-0.2159
N18270 X-0.3453 Y-0.2305
N18275 X-0.3388 Y-0.2472
N18280 X-0.3306 Y-0.2642
N18285 X-0.32 Y-0.282
N18290 X-0.3066 Y-0.3011
N18295 X-0.2913 Y-0.3196
N18300 X-0.2733 Y-0.338
N18305 X-0.2703 Y-0.3406
N18310 X-0.2619 Y-0.3468
N18315 X-0.2524 Y-0.3513
N18320 X-0.2424 Y-0.3541
N18325 X-0.232 Y-0.355
N18330 G3 X-0.2091 Y-0.338 Z-0.2338 I-0.0009 J0.025 F10.
N18335 G1 X-0.2084 Y-0.3351 Z-0.2332 F12.
N18340 X-0.2079 Y-0.3321 Z-0.2326
N18345 Y-0.3292 Z-0.232
N18350 G3 X-0.2118 Y-0.3166 I-0.025 J-0.0009
N18355 G1 X-0.3089 Y-0.1644
N18360 G3 X-0.3292 Y-0.1529 I-0.0211 J-0.0135
N18365 G1 X-0.3321 Z-0.2326
N18370 X-0.3351 Y-0.1534 Z-0.2332
N18375 X-0.338 Y-0.1542 Z-0.2338
N18380 G3 X-0.355 Y-0.177 Z-0.24 I0.008 J-0.0237 F10.
N18385 G1 Y-0.292 F12.
N18390 X-0.3546 Y-0.2999
N18395 X-0.354 Y-0.3042
N18400 X-0.3513 Y-0.3159
N18405 X-0.3462 Y-0.3268
N18410 X-0.339 Y-0.3363
N18415 X-0.33 Y-0.3442
N18420 X-0.3195 Y-0.3501
N18425 X-0.3081 Y-0.3538
N18430 X-0.2962 Y-0.355
N18435 G3 X-0.2734 Y-0.338 Z-0.2338 I-0.0009 J0.025 F10.
N18440 G1 X-0.2726 Y-0.3351 Z-0.2332 F12.
N18445 X-0.2722 Y-0.3321 Z-0.2326
N18450 X-0.2721 Y-0.3292 Z-0.232
N18455 G3 X-0.2784 Y-0.3134 I-0.025 J-0.0009
N18460 G1 X-0.3113 Y-0.2763
N18465 G3 X-0.3292 Y-0.2679 I-0.0187 J-0.0166
N18470 G1 X-0.3321 Y-0.268 Z-0.2326
N18475 X-0.3351 Y-0.2684 Z-0.2332
N18480 X-0.338 Y-0.2692 Z-0.2338
N18485 G3 X-0.355 Y-0.292 Z-0.24 I0.008 J-0.0237 F10.
N18490 G1 Y-0.3186 F12.
N18495 X-0.3551 Y-0.3274
N18500 X-0.355 Y-0.3318
N18505 X-0.3547 Y-0.3341
N18510 X-0.3541 Y-0.3363
N18515 X-0.354 Y-0.3369
N18520 X-0.3532 Y-0.3389
N18525 X-0.3523 Y-0.341
N18530 X-0.351 Y-0.3431
N18535 X-0.3495 Y-0.3451
N18540 X-0.3473 Y-0.3475
N18545 X-0.3451 Y-0.3495
N18550 X-0.343 Y-0.351
N18555 X-0.341 Y-0.3523
N18560 X-0.3389 Y-0.3532
N18565 X-0.3368 Y-0.354
N18570 X-0.3363 Y-0.3541
N18575 X-0.3341 Y-0.3547
N18580 X-0.3318 Y-0.355
N18585 X-0.3274 Y-0.3551
N18590 X-0.3186 Y-0.355
N18595 X0.0006
N18600 X0.0022 Y-0.3549
N18605 X0.0042 Y-0.3548
N18610 X0.0062 Y-0.3549
N18615 X0.0088 Y-0.355
N18620 X0.177
N18625 X0.1896 Y-0.3544
N18630 X0.2033 Y-0.3526
N18635 X0.2172 Y-0.3496
N18640 X0.2337 Y-0.3447
N18645 X0.2501 Y-0.3383
N18650 X0.2691 Y-0.329
N18655 X0.2879 Y-0.318
N18660 X0.3083 Y-0.3037
N18665 X0.3296 Y-0.286
N18670 X0.3374 Y-0.2784
N18675 X0.3449 Y-0.2695
N18680 X0.3504 Y-0.2593
N18685 X0.3538 Y-0.2482
N18690 X0.355 Y-0.2366
N18695 G3 X0.338 Y-0.2138 Z-0.2338 I-0.025 J-0.0009 F10.
N18700 G1 X0.3351 Y-0.213 Z-0.2332 F12.
N18705 X0.3321 Y-0.2126 Z-0.2326
N18710 X0.3292 Y-0.2125 Z-0.232
N18715 G3 X0.317 Y-0.2161 I0.0009 J-0.025
N18720 G1 X0.1649 Y-0.3087
N18725 G3 X0.1529 Y-0.3292 I0.013 J-0.0214
N18730 G1 Y-0.3321 Z-0.2326
N18735 X0.1534 Y-0.3351 Z-0.2332
N18740 X0.1542 Y-0.338 Z-0.2338
N18745 G3 X0.177 Y-0.355 Z-0.24 I0.0237 J0.008 F10.
N18750 G1 X0.292 F12.
N18755 X0.3045 Y-0.3544
N18760 X0.3161 Y-0.3516
N18765 X0.3269 Y-0.3465
N18770 X0.3364 Y-0.3394
N18775 X0.3443 Y-0.3304
N18780 X0.3502 Y-0.32
N18785 X0.3538 Y-0.3086
N18790 X0.355 Y-0.2968
N18795 G3 X0.338 Y-0.274 Z-0.2338 I-0.025 J-0.0009 F10.
N18800 G1 X0.3351 Y-0.2732 Z-0.2332 F12.
N18805 X0.3321 Y-0.2727 Z-0.2326
N18810 X0.3292 Z-0.232
N18815 G3 X0.3136 Y-0.2788 I0.0009 J-0.025
N18820 G1 X0.2765 Y-0.3112
N18825 G3 X0.2679 Y-0.3292 I0.0164 J-0.0188
N18830 G1 X0.268 Y-0.3321 Z-0.2326
N18835 X0.2684 Y-0.3351 Z-0.2332
N18840 X0.2692 Y-0.338 Z-0.2338
N18845 G3 X0.292 Y-0.355 Z-0.24 I0.0237 J0.008 F10.
N18850 G1 X0.3186 F12.
N18855 X0.3274 Y-0.3551
N18860 X0.3318 Y-0.355
N18865 X0.3341 Y-0.3547
N18870 X0.3363 Y-0.3541
N18875 X0.3368 Y-0.354
N18880 X0.3389 Y-0.3532
N18885 X0.341 Y-0.3523
N18890 X0.343 Y-0.351
N18895 X0.3451 Y-0.3495
N18900 X0.3473 Y-0.3475
N18905 X0.3495 Y-0.3451
N18910 X0.351 Y-0.3431
N18915 X0.3523 Y-0.341
N18920 X0.3532 Y-0.3389
N18925 X0.354 Y-0.3369
N18930 X0.3541 Y-0.3363
N18935 X0.3547 Y-0.3341
N18940 X0.355 Y-0.3318
N18945 X0.3551 Y-0.3274
N18950 X0.355 Y-0.3186
N18955 Y-0.0822
N18960 X0.3547 Y-0.0792 F10.
N18965 X0.3541 Y-0.0763
N18970 X0.3528 Y-0.0736 Z-0.2398
N18975 X0.3515 Y-0.071 Z-0.2393
N18980 X0.3503 Y-0.0684 Z-0.2384
N18985 X0.348 Y-0.0662 Z-0.2369
N18990 X0.3459 Y-0.0641 Z-0.235
N18995 X0.344 Y-0.0623 Z-0.2327
N19000 X0.3417 Y-0.0612 Z-0.2297
N19005 X0.3398 Y-0.0603 Z-0.2264
N19010 X0.3385 Y-0.0597 Z-0.2227
N19015 X0.3377 Y-0.0593 Z-0.2189
N19020 X0.3374 Y-0.0591 Z-0.215
N19025 Z0.2 F12.
N19030 X-0.043 Y0.1138
N19035 Z-0.14
N19040 G3 X-0.1151 Y-0.0392 Z-0.1564 I0.043 J-0.1138 F10.
N19045 X0.035 Y-0.1162 Z-0.1727 I0.1149 J0.0391
N19050 X0.1167 Y0.0311 Z-0.1891 I-0.0352 J0.1158
N19055 X-0.0274 Y0.1173 Z-0.2055 I-0.1166 J-0.0313
N19060 X-0.1181 Y-0.0236 Z-0.2218 I0.0274 J-0.1173
N19065 X0.0194 Y-0.1186 Z-0.2382 I0.1179 J0.0235
N19070 X0.1187 Y0.0153 Z-0.2545 I-0.0196 J0.1183
N19075 X-0.0117 Y0.1187 Z-0.2709 I-0.1186 J-0.0157
N19080 X-0.119 Y-0.0079 Z-0.2873 I0.0117 J-0.1188
N19085 X0.0037 Y-0.119 Z-0.3036 I0.1188 J0.0078
N19090 X0.1185 Y-0.0003 Z-0.32 I-0.0039 J0.1187
N19095 X-0.119 I-0.1188 J0.
N19100 X0.1185 I0.1188 J0.
N19105 G1 X0.1187 Y0.0094 F12.
N19110 X0.1258 Y0.0477
N19115 X0.1272 Y0.0524
N19120 X0.1285 Y0.0583
N19125 X0.1291 Y0.0642
N19130 X0.1293 Y0.0702
N19135 X0.1289 Y0.0767
N19140 X0.1279 Y0.0835
N19145 X0.1263 Y0.0906
N19150 X0.124 Y0.0981
N19155 X0.1209 Y0.1058
N19160 X0.1171 Y0.1136
N19165 X0.1123 Y0.1214
N19170 X0.1067 Y0.1292
N19175 X0.1003 Y0.1369
N19180 X0.0929 Y0.1442
N19185 X0.0847 Y0.1513
N19190 X0.0757 Y0.1578
N19195 X0.0658 Y0.1639
N19200 X0.0552 Y0.1692
N19205 X0.0439 Y0.1738
N19210 X0.0319 Y0.1776
N19215 X0.0195 Y0.1804
N19220 X0.0066 Y0.1823
N19225 X-0.0067 Y0.1832
N19230 X-0.0201 Y0.183
N19235 X-0.0338 Y0.1817
N19240 X-0.0474 Y0.1793
N19245 X-0.061 Y0.1757
N19250 X-0.0743 Y0.171
N19255 X-0.0874 Y0.1652
N19260 X-0.1001 Y0.1584
N19265 X-0.1122 Y0.1504
N19270 X-0.1238 Y0.1415
N19275 X-0.1347 Y0.1316
N19280 X-0.1447 Y0.1208
N19285 X-0.154 Y0.1092
N19290 X-0.1623 Y0.0969
N19295 X-0.1696 Y0.0839
N19300 X-0.1758 Y0.0703
N19305 X-0.181 Y0.0562
N19310 X-0.185 Y0.0417
N19315 X-0.1878 Y0.0269
N19320 X-0.1895 Y0.0119
N19325 X-0.1899 Y-0.0032
N19330 X-0.1891 Y-0.0184
N19335 X-0.1871 Y-0.0334
N19340 X-0.1839 Y-0.0482
N19345 X-0.1796 Y-0.0627
N19350 X-0.174 Y-0.0769
N19355 X-0.1674 Y-0.0906
N19360 X-0.1597 Y-0.1037
N19365 X-0.1509 Y-0.1161
N19370 X-0.1411 Y-0.1278
N19375 X-0.1305 Y-0.1387
N19380 X-0.119 Y-0.1487
N19385 X-0.1067 Y-0.1578
N19390 X-0.0938 Y-0.1658
N19395 X-0.0802 Y-0.1728
N19400 X-0.0661 Y-0.1786
N19405 X-0.0516 Y-0.1834
N19410 X-0.0368 Y-0.1869
N19415 X-0.0217 Y-0.1892
N19420 X-0.0065 Y-0.1904
N19425 X0.0088 Y-0.1903
N19430 X0.024 Y-0.1889
N19435 X0.039 Y-0.1864
N19440 X0.0538 Y-0.1826
N19445 X0.0683 Y-0.1777
N19450 X0.0823 Y-0.1716
N19455 X0.0958 Y-0.1645
N19460 X0.1087 Y-0.1562
N19465 X0.1208 Y-0.147
N19470 X0.1322 Y-0.1368
N19475 X0.1427 Y-0.1257
N19480 X0.1523 Y-0.1139
N19485 X0.1609 Y-0.1013
N19490 X0.1736 Y-0.0792
N19495 X0.1875 Y-0.0495
N19500 X0.196 Y-0.0269
N19505 X0.2018 Y-0.0066
