%
(HEMA-P016-D.197)
(T1 D=0.2 CR=0. TAPER=118DEG - ZMIN=-0.5151 - DRILL)
N10 G90 G94 G17 G91.1
N15 G20
N20 G53 G0 Z0.
(DRILL1)
N25 T1 M6
N30 S5000 M3
N35 G17 G90 G94
N40 G54
N45 M8
N50 G0 X-2.9959 Y1.3084
N55 G43 Z0.6 H1
N60 G0 Z0.2
N65 G98 G83 X-2.9959 Y1.3084 Z-0.5151 R0.003 Q0.07 F5.
N70 X-0.3791
N75 Y-1.3084
N80 X-2.9959
N85 G80
N90 G0 Z0.6
N95 M5
N100 M9
N105 G53 G0 Z0.
N110 M30
%
