%
(HEMA-P016-M.3125)
(T2 D=0.3125 CR=0. - ZMIN=-0.455 - FLAT END MILL)
N10 G90 G94 G17 G91.1
N15 G20
N20 G53 G0 Z0.
(ADAPTIVE1)
N25 T2 M6
N30 S5000 M3
N35 G17 G90 G94
N40 G54
N45 G64 P0.004 Q0.004
N50 M8
N55 G0 X-1.8308 Y-0.5214
N60 G43 Z0.6 H2
N65 G0 Z0.2
N70 Z0.1
N75 G3 X-1.7502 Y-0.7369 Z0.0775 I0.1433 J-0.0692 F13.333
N80 X-1.5401 Y-0.6473 Z0.055 I0.0623 J0.1452
N85 X-1.6383 Y-0.443 Z0.0325 I-0.1468 J0.0552
N90 X-1.8365 Y-0.5495 Z0.01 I-0.0482 J-0.148
N95 X-1.7221 Y-0.7412 Z-0.0125 I0.1489 J-0.0412
N100 X-1.5371 Y-0.6192 Z-0.035 I0.0342 J0.1494
N105 X-1.6662 Y-0.4413 Z-0.0575 I-0.1496 J0.0272
N110 X-1.8369 Y-0.5773 Z-0.08 I-0.0203 J-0.1496
N115 X-1.6945 Y-0.7403 Z-0.1025 I0.1491 J-0.0135
N120 X-1.5392 Y-0.5919 Z-0.125 I0.0067 J0.1484
N125 X-1.8364 I-0.1486 J0.
N130 X-1.5392 I0.1486 J0.
N135 G1 X-1.539 Y-0.5818 F25.
N140 X-1.5335 Y-0.5417
N145 X-1.5317 Y-0.537
N150 X-1.5301 Y-0.5312
N155 X-1.529 Y-0.5253
N160 X-1.5283 Y-0.5193
N165 X-1.5281 Y-0.513
N170 X-1.5284 Y-0.5062
N175 X-1.5292 Y-0.499
N180 X-1.5307 Y-0.4913
N185 X-1.5328 Y-0.4834
N190 X-1.5356 Y-0.4752
N195 X-1.5391 Y-0.4668
N200 X-1.5435 Y-0.4582
N205 X-1.5487 Y-0.4497
N210 X-1.5548 Y-0.4411
N215 X-1.5617 Y-0.4327
N220 X-1.5695 Y-0.4246
N225 X-1.5781 Y-0.4168
N230 X-1.5875 Y-0.4093
N235 X-1.5978 Y-0.4024
N240 X-1.6088 Y-0.3961
N245 X-1.6205 Y-0.3904
N250 X-1.6329 Y-0.3855
N255 X-1.6458 Y-0.3815
N260 X-1.6592 Y-0.3783
N265 X-1.673 Y-0.376
N270 X-1.6872 Y-0.3747
N275 X-1.7016 Y-0.3745
N280 X-1.7162 Y-0.3753
N285 X-1.7308 Y-0.3771
N290 X-1.7454 Y-0.3801
N295 X-1.7599 Y-0.3841
N300 X-1.7742 Y-0.3892
N305 X-1.7881 Y-0.3953
N310 X-1.8017 Y-0.4025
N315 X-1.8148 Y-0.4106
N320 X-1.8273 Y-0.4197
N325 X-1.8392 Y-0.4298
N330 X-1.8504 Y-0.4407
N335 X-1.8608 Y-0.4524
N340 X-1.8703 Y-0.4649
N345 X-1.879 Y-0.4781
N350 X-1.8867 Y-0.4919
N355 X-1.8934 Y-0.5063
N360 X-1.899 Y-0.5211
N365 X-1.9036 Y-0.5363
N370 X-1.9071 Y-0.5518
N375 X-1.9095 Y-0.5676
N380 X-1.9107 Y-0.5835
N385 X-1.9108 Y-0.5994
N390 X-1.9097 Y-0.6154
N395 X-1.9075 Y-0.6312
N400 X-1.9042 Y-0.6469
N405 X-1.8997 Y-0.6622
N410 X-1.8941 Y-0.6773
N415 X-1.8875 Y-0.6919
N420 X-1.8798 Y-0.7059
N425 X-1.8712 Y-0.7194
N430 X-1.8616 Y-0.7323
N435 X-1.8511 Y-0.7444
N440 X-1.8397 Y-0.7557
N445 X-1.8275 Y-0.7662
N450 X-1.8147 Y-0.7758
N455 X-1.8011 Y-0.7845
N460 X-1.787 Y-0.7921
N465 X-1.7724 Y-0.7988
N470 X-1.7573 Y-0.8043
N475 X-1.7418 Y-0.8088
N480 X-1.7261 Y-0.8121
N485 X-1.7102 Y-0.8143
N490 X-1.6941 Y-0.8153
N495 X-1.6781 Y-0.8152
N500 X-1.662 Y-0.8139
N505 X-1.6462 Y-0.8115
N510 X-1.6305 Y-0.8079
N515 X-1.6151 Y-0.8033
N520 X-1.6001 Y-0.7975
N525 X-1.5855 Y-0.7907
N530 X-1.5715 Y-0.7828
N535 X-1.5581 Y-0.7739
N540 X-1.5453 Y-0.7641
N545 X-1.5333 Y-0.7535
N550 X-1.5221 Y-0.7419
N555 X-1.5117 Y-0.7296
N560 X-1.5023 Y-0.7166
N565 X-1.4936 Y-0.7027
N570 X-1.4783 Y-0.6736
N575 X-1.4659 Y-0.6452
N580 X-1.4576 Y-0.6218
N585 X-1.4519 Y-0.6008
N590 X-1.448 Y-0.581
N595 X-1.4456 Y-0.5622
N600 X-1.4447 Y-0.5442
N605 X-1.445 Y-0.5265
N610 X-1.4466 Y-0.5092
N615 X-1.4494 Y-0.4922
N620 X-1.4534 Y-0.4757
N625 X-1.4586 Y-0.4594
N630 X-1.4649 Y-0.4436
N635 X-1.4723 Y-0.4282
N640 X-1.481 Y-0.4133
N645 X-1.4907 Y-0.3989
N650 X-1.5016 Y-0.3851
N655 X-1.5135 Y-0.372
N660 X-1.5265 Y-0.3597
N665 X-1.5405 Y-0.3482
N670 X-1.5555 Y-0.3376
N675 X-1.5714 Y-0.328
N680 X-1.5881 Y-0.3195
N685 X-1.6056 Y-0.3121
N690 X-1.6237 Y-0.306
N695 X-1.6424 Y-0.3011
N700 X-1.6616 Y-0.2975
N705 X-1.6812 Y-0.2953
N710 X-1.7011 Y-0.2945
N715 X-1.7211 Y-0.2952
N720 X-1.7413 Y-0.2973
N725 X-1.7614 Y-0.3009
N730 X-1.7813 Y-0.3059
N735 X-1.801 Y-0.3124
N740 X-1.8202 Y-0.3204
N745 X-1.839 Y-0.3298
N750 X-1.8571 Y-0.3406
N755 X-1.8745 Y-0.3526
N760 X-1.891 Y-0.366
N765 X-1.9066 Y-0.3806
N770 X-1.9212 Y-0.3963
N775 X-1.9346 Y-0.4131
N780 X-1.9468 Y-0.4309
N785 X-1.9577 Y-0.4495
N790 X-1.9673 Y-0.4689
N795 X-1.9755 Y-0.489
N800 X-1.9823 Y-0.5097
N805 X-1.9875 Y-0.5308
N810 X-1.9912 Y-0.5523
N815 X-1.9934 Y-0.5741
N820 X-1.994 Y-0.5959
N825 X-1.993 Y-0.6178
N830 X-1.9904 Y-0.6396
N835 X-1.9863 Y-0.6611
N840 X-1.9807 Y-0.6823
N845 X-1.9735 Y-0.7031
N850 X-1.9648 Y-0.7233
N855 X-1.9547 Y-0.7428
N860 X-1.9433 Y-0.7616
N865 X-1.9305 Y-0.7795
N870 X-1.9164 Y-0.7965
N875 X-1.9011 Y-0.8123
N880 X-1.8848 Y-0.8271
N885 X-1.8674 Y-0.8407
N890 X-1.8491 Y-0.8529
N895 X-1.8299 Y-0.8639
N900 X-1.81 Y-0.8734
N905 X-1.7895 Y-0.8815
N910 X-1.7684 Y-0.888
N915 X-1.747 Y-0.8931
N920 X-1.7252 Y-0.8965
N925 X-1.7032 Y-0.8985
N930 X-1.6811 Y-0.8988
N935 X-1.6591 Y-0.8975
N940 X-1.6372 Y-0.8947
N945 X-1.6156 Y-0.8902
N950 X-1.5943 Y-0.8843
N955 X-1.5735 Y-0.8768
N960 X-1.5533 Y-0.8679
N965 X-1.5338 Y-0.8575
N970 X-1.5151 Y-0.8457
N975 X-1.4973 Y-0.8326
N980 X-1.479 Y-0.8171
N985 X-1.4611 Y-0.7995
N990 X-1.4431 Y-0.7789
N995 X-1.426 Y-0.7566
N1000 X-1.4107 Y-0.733
N1005 X-1.3972 Y-0.7086
N1010 X-1.3857 Y-0.6838
N1015 X-1.3762 Y-0.6588
N1020 X-1.3687 Y-0.6336
N1025 X-1.3631 Y-0.6085
N1030 X-1.3595 Y-0.5834
N1035 X-1.3576 Y-0.5586
N1040 Y-0.5341
N1045 X-1.3593 Y-0.5099
N1050 X-1.3627 Y-0.486
N1055 X-1.3678 Y-0.4626
N1060 X-1.3745 Y-0.4396
N1065 X-1.3829 Y-0.4172
N1070 X-1.3928 Y-0.3955
N1075 X-1.4044 Y-0.3745
N1080 X-1.4174 Y-0.3543
N1085 X-1.4319 Y-0.335
N1090 X-1.4479 Y-0.3167
N1095 X-1.4652 Y-0.2996
N1100 X-1.4838 Y-0.2836
N1105 X-1.5036 Y-0.2689
N1110 X-1.5246 Y-0.2556
N1115 X-1.5466 Y-0.2438
N1120 X-1.5696 Y-0.2335
N1125 X-1.5934 Y-0.2248
N1130 X-1.618 Y-0.2178
N1135 X-1.6432 Y-0.2126
N1140 X-1.6689 Y-0.2091
N1145 X-1.6949 Y-0.2075
N1150 X-1.7212 Y-0.2078
N1155 X-1.7475 Y-0.21
N1160 X-1.7738 Y-0.2141
N1165 X-1.7999 Y-0.2201
N1170 X-1.8256 Y-0.228
N1175 X-1.8508 Y-0.2378
N1180 X-1.8753 Y-0.2494
N1185 X-1.8991 Y-0.2628
N1190 X-1.9219 Y-0.278
N1195 X-1.9437 Y-0.2948
N1200 X-1.9642 Y-0.3132
N1205 X-1.9835 Y-0.3331
N1210 X-2.0013 Y-0.3544
N1215 X-2.0175 Y-0.377
N1220 X-2.0322 Y-0.4007
N1225 X-2.0451 Y-0.4255
N1230 X-2.0562 Y-0.4512
N1235 X-2.0655 Y-0.4777
N1240 X-2.0729 Y-0.5048
N1245 X-2.0783 Y-0.5324
N1250 X-2.0817 Y-0.5604
N1255 X-2.0831 Y-0.5886
N1260 X-2.0824 Y-0.6169
N1265 X-2.0797 Y-0.645
N1270 X-2.075 Y-0.6729
N1275 X-2.0683 Y-0.7005
N1280 X-2.0596 Y-0.7274
N1285 X-2.049 Y-0.7538
N1290 X-2.0366 Y-0.7793
N1295 X-2.0223 Y-0.8038
N1300 X-2.0063 Y-0.8273
N1305 X-1.9886 Y-0.8495
N1310 X-1.9694 Y-0.8705
N1315 X-1.9487 Y-0.89
N1320 X-1.9266 Y-0.908
N1325 X-1.9033 Y-0.9243
N1330 X-1.8789 Y-0.939
N1335 X-1.8535 Y-0.9518
N1340 X-1.8272 Y-0.9628
N1345 X-1.8002 Y-0.9719
N1350 X-1.7726 Y-0.979
N1355 X-1.7446 Y-0.9841
N1360 X-1.7163 Y-0.9872
N1365 X-1.6878 Y-0.9882
N1370 X-1.6593 Y-0.9872
N1375 X-1.631 Y-0.9842
N1380 X-1.6029 Y-0.9791
N1385 X-1.5753 Y-0.972
N1390 X-1.5483 Y-0.9629
N1395 X-1.5216 Y-0.9518
N1400 X-1.4954 Y-0.9385
N1405 X-1.4695 Y-0.923
N1410 X-1.4443 Y-0.9054
N1415 X-1.4199 Y-0.8856
N1420 X-1.3966 Y-0.8636
N1425 X-1.3746 Y-0.8397
N1430 X-1.3541 Y-0.8139
N1435 X-1.3355 Y-0.7866
N1440 X-1.3189 Y-0.7581
N1445 X-1.3044 Y-0.7286
N1450 X-1.2922 Y-0.6984
N1455 X-1.2823 Y-0.6675
N1460 X-1.2746 Y-0.6364
N1465 X-1.2693 Y-0.6051
N1470 X-1.2663 Y-0.5737
N1475 X-1.2656 Y-0.5424
N1480 X-1.2671 Y-0.5114
N1485 X-1.2708 Y-0.4806
N1490 X-1.2767 Y-0.4503
N1495 X-1.2847 Y-0.4206
N1500 X-1.2948 Y-0.3916
N1505 X-1.3071 Y-0.3633
N1510 X-1.3213 Y-0.336
N1515 X-1.3374 Y-0.3097
N1520 X-1.3555 Y-0.2847
N1525 X-1.3754 Y-0.2609
N1530 X-1.3969 Y-0.2385
N1535 X-1.4106 Y-0.2263
N1540 X-1.4111 Y-0.2259
N1545 X-1.4126 Y-0.2245
N1550 X-1.4179 Y-0.2204
N1555 X-1.4218 Y-0.2177
N1560 X-1.4322 Y-0.2112
N1565 X-1.4772 Y-0.1837
N1570 X-1.4862 Y-0.1795
N1575 X-1.523 Y-0.1642
N1580 X-1.5414 Y-0.1566
N1585 X-1.5428 Y-0.1561
N1590 X-1.5506 Y-0.1537
N1595 X-1.5598 Y-0.1514
N1600 X-1.5966 Y-0.1426
N1605 X-1.6058 Y-0.1404
N1610 X-1.6334 Y-0.1368
N1615 X-1.6426 Y-0.1358
N1620 X-1.661 Y-0.1344
N1625 X-1.6702 Y-0.1338
N1630 X-1.6978 Y-0.1334
N1635 X-1.707 Y-0.1339
N1640 X-1.7254 Y-0.1353
N1645 X-1.7346 Y-0.1361
N1650 X-1.7622 Y-0.1389
N1655 X-1.7714 Y-0.1409
N1660 X-1.8174 Y-0.1519
N1665 X-1.8266 Y-0.1542
N1670 X-1.8316 Y-0.1561
N1675 X-1.8545 Y-0.1653
N1680 X-1.8634 Y-0.169
N1685 X-1.8818 Y-0.1766
N1690 X-1.891 Y-0.1805
N1695 X-1.9002 Y-0.1851
N1700 X-1.9462 Y-0.2133
N1705 X-1.9554 Y-0.2195
N1710 X-1.983 Y-0.2422
N1715 X-1.9898 Y-0.2479
N1720 X-2.0106 Y-0.267
N1725 X-2.0192 Y-0.2755
N1730 X-2.0474 Y-0.3086
N1735 X-2.0504 Y-0.3122
N1740 X-2.0694 Y-0.3398
N1745 X-2.0752 Y-0.349
N1750 X-2.0865 Y-0.3673
N1755 X-2.0917 Y-0.3765
N1760 X-2.1046 Y-0.4041
N1765 X-2.1085 Y-0.4132
N1770 X-2.1161 Y-0.4316
N1775 X-2.1195 Y-0.4408
N1780 X-2.1279 Y-0.4683
N1785 X-2.1346 Y-0.4959
N1790 X-2.1365 Y-0.5051
N1795 X-2.1397 Y-0.5234
N1800 X-2.1412 Y-0.5326
N1805 X-2.1433 Y-0.5602
N1810 X-2.1439 Y-0.5694
N1815 X-2.145 Y-0.5877
N1820 X-2.1452 Y-0.5969
N1825 X-2.1409 Y-0.652
N1830 X-2.1397 Y-0.6612
N1835 X-2.1337 Y-0.6887
N1840 X-2.1271 Y-0.7163
N1845 X-2.1244 Y-0.7255
N1850 X-2.1179 Y-0.7438
N1855 X-2.1147 Y-0.753
N1860 X-2.1026 Y-0.7821
N1865 X-2.0988 Y-0.7898
N1870 X-2.0893 Y-0.8081
N1875 X-2.0842 Y-0.8174
N1880 X-2.0674 Y-0.8449
N1885 X-2.0658 Y-0.8474
N1890 X-2.0543 Y-0.8632
N1895 X-2.0474 Y-0.8725
N1900 X-2.0162 Y-0.9091
N1905 X-2.0106 Y-0.9145
N1910 X-2.0014 Y-0.9231
N1915 X-1.9964 Y-0.9275
N1920 X-1.983 Y-0.9389
N1925 X-1.9738 Y-0.9466
N1930 X-1.9554 Y-0.9617
N1935 X-1.952 Y-0.9642
N1940 X-1.922 Y-0.9826
N1945 X-1.8902 Y-1.001
N1950 X-1.8818 Y-1.0045
N1955 X-1.8634 Y-1.0121
N1960 X-1.8542 Y-1.0159
N1965 X-1.8358 Y-1.0233
N1970 X-1.8266 Y-1.0269
N1975 X-1.8174 Y-1.0292
N1980 X-1.7714 Y-1.0402
N1985 X-1.7622 Y-1.0422
N1990 X-1.7346 Y-1.045
N1995 X-1.7254 Y-1.0458
N2000 X-1.707 Y-1.0472
N2005 X-1.6978 Y-1.0477
N2010 X-1.6702 Y-1.0473
N2015 X-1.6634 Y-1.0469
N2020 X-1.6426 Y-1.0453
N2025 X-1.6334 Y-1.0443
N2030 X-1.6058 Y-1.0407
N2035 X-1.5932 Y-1.0377
N2040 X-1.5782 Y-1.0341
N2045 X-1.569 Y-1.0318
N2050 X-1.5506 Y-1.027
N2055 X-1.5414 Y-1.0245
N2060 X-1.4954 Y-1.0055
N2065 X-1.4847 Y-1.001
N2070 X-1.477 Y-0.9974
N2075 X-1.438 Y-0.9734
N2080 X-1.4218 Y-0.9631
N2085 X-1.4126 Y-0.9566
N2090 X-1.385 Y-0.933
N2095 X-1.3666 Y-0.9164
N2100 X-1.3588 Y-0.9091
N2105 X-1.3275 Y-0.8724
N2110 X-1.3206 Y-0.8642
N2115 X-1.3114 Y-0.8507
N2120 X-1.3076 Y-0.8449
N2125 X-1.2907 Y-0.8173
N2130 X-1.2857 Y-0.8081
N2135 X-1.2746 Y-0.7868
N2140 X-1.2717 Y-0.7806
N2145 X-1.2603 Y-0.753
N2150 X-1.2568 Y-0.7438
N2155 X-1.2506 Y-0.7255
N2160 X-1.2479 Y-0.7163
N2165 X-1.2413 Y-0.6887
N2170 X-1.2353 Y-0.6612
N2175 X-1.2341 Y-0.652
N2180 X-1.2298 Y-0.5969
N2185 X-1.23 Y-0.5877
N2190 X-1.2311 Y-0.5694
N2195 X-1.2317 Y-0.5602
N2200 X-1.2338 Y-0.5326
N2205 X-1.2353 Y-0.5234
N2210 X-1.2385 Y-0.5051
N2215 X-1.2404 Y-0.4959
N2220 X-1.2471 Y-0.4683
N2225 X-1.2562 Y-0.4383
N2230 X-1.2589 Y-0.4316
N2235 X-1.2665 Y-0.4132
N2240 X-1.2704 Y-0.4041
N2245 X-1.2838 Y-0.3753
N2250 X-1.2885 Y-0.3673
N2255 X-1.3022 Y-0.3449
N2260 X-1.3055 Y-0.3398
N2265 X-1.3206 Y-0.3169
N2270 X-1.3244 Y-0.3122
N2275 X-1.3482 Y-0.2844
N2280 X-1.3561 Y-0.2755
N2285 X-1.3666 Y-0.2643
N2290 X-1.3745 Y-0.2571
N2295 X-1.4111 Y-0.2259
N2300 X-1.414 Y-0.2242 Z-0.1248
N2305 X-1.4169 Y-0.2226 Z-0.1243
N2310 X-1.4197 Y-0.221 Z-0.1234
N2315 X-1.4231 Y-0.2203 Z-0.1219
N2320 X-1.4263 Y-0.2197 Z-0.1201
N2325 X-1.4293 Y-0.2191 Z-0.1178
N2330 X-1.4306 Z-0.1168
N2335 X-1.4333 Y-0.2195 Z-0.1139
N2340 X-1.4356 Y-0.2199 Z-0.1106
N2345 X-1.4375 Y-0.2202 Z-0.1071
N2350 X-1.4389 Y-0.2204 Z-0.1034
N2355 X-1.4398 Y-0.2205 Z-0.0995
N2360 X-1.4403 Y-0.2206 Z-0.0955
N2365 Z-0.0941
N2370 G0 Z0.2
N2375 X-3.3796 Y1.7396
N2380 Z-0.0625
N2385 G1 Z-0.0937 F25.
N2390 X-3.3794 Y1.7394 Z-0.0978
N2395 X-3.3787 Y1.739 Z-0.1018
N2400 X-3.3776 Y1.7384 Z-0.1057
N2405 X-3.376 Y1.7375 Z-0.1094
N2410 X-3.374 Y1.7364 Z-0.1128
N2415 X-3.3717 Y1.7351 Z-0.1158
N2420 X-3.369 Y1.7335 Z-0.1185
N2425 X-3.366 Y1.7319 Z-0.1208
N2430 X-3.3629 Y1.7301 Z-0.1226
N2435 X-3.3595 Y1.7282 Z-0.1239
N2440 X-3.356 Y1.7262 Z-0.1247
N2445 X-3.3524 Y1.7242 Z-0.125
N2450 G3 X-3.1947 Y1.656 I0.3933 J0.6941
N2455 G1 X-3.179 Y1.6518
N2460 X-3.1698 Y1.6491
N2465 X-3.1606 Y1.6448
N2470 X-3.1514 Y1.6402
N2475 X-3.1422 Y1.6354
N2480 X-3.1146 Y1.6171
N2485 X-3.1061 Y1.6117
N2490 X-3.091 Y1.6036
N2495 X-3.0717 Y1.5949
N2500 X-3.0467 Y1.5858
N2505 X-3.0131 Y1.5762
N2510 X-2.9832 Y1.5699
N2515 X-2.9697 Y1.5682
N2520 X-2.9561 Y1.5687
N2525 X-2.9428 Y1.5715
N2530 X-2.9301 Y1.5763
N2535 X-2.9183 Y1.5832
N2540 X-2.9078 Y1.5919
N2545 X-2.903 Y1.5966
N2550 X-2.9017 Y1.5979
N2555 X-2.8938 Y1.6049
N2560 X-2.8846 Y1.612
N2565 X-2.8785 Y1.6162
N2570 X-2.8605 Y1.6283
N2575 G3 X-2.8535 Y1.6719 Z-0.117 I-0.0183 J0.0253
N2580 X-2.8805 Y1.6848 I-0.0254 J-0.0183
N2585 G1 X-3.0974 Y1.6732
N2590 G3 X-3.1206 Y1.6609 I0.0017 J-0.0312
N2595 X-3.1269 Y1.642 Z-0.1203 I0.0249 J-0.0189
N2600 X-3.1146 Y1.6171 Z-0.125 I0.0312 J0.
N2605 G1 X-3.1006 Y1.6071
N2610 X-3.0962 Y1.6033
N2615 X-3.087 Y1.5951
N2620 X-3.0837 Y1.5919
N2625 X-3.0811 Y1.5887
N2630 X-3.067 Y1.5703
N2635 X-3.06 Y1.5612
N2640 X-3.0564 Y1.5564
N2645 X-3.0507 Y1.5499
N2650 X-3.0449 Y1.5443
N2655 X-3.0383 Y1.5387
N2660 X-3.0313 Y1.5335
N2665 X-3.0193 Y1.5276
N2670 X-3.0064 Y1.524
N2675 X-2.9931 Y1.523
N2680 X-2.9798 Y1.5245
N2685 X-2.967 Y1.5286
N2690 X-2.9553 Y1.5351
N2695 X-2.945 Y1.5436
N2700 X-2.9366 Y1.554
N2705 X-2.9319 Y1.5612
N2710 X-2.9306 Y1.5628
N2715 X-2.9111 Y1.5887
N2720 X-2.9078 Y1.5919
N2725 G3 X-2.9089 Y1.6361 Z-0.117 I-0.0226 J0.0216
N2730 X-2.9408 Y1.643 I-0.0216 J-0.0226
N2735 G1 X-3.0437 Y1.607
N2740 X-3.0468 Y1.6057
N2745 X-3.0497 Y1.6041
N2750 G3 X-3.06 Y1.5612 Z-0.125 I0.0164 J-0.0266
N2755 G1 X-3.054 Y1.552
N2760 X-3.0422 Y1.5336
N2765 X-3.041 Y1.5316
N2770 X-3.0374 Y1.5244
N2775 X-3.0361 Y1.5216
N2780 X-3.0333 Y1.5163
N2785 X-3.0264 Y1.5085
N2790 X-3.0179 Y1.5024
N2795 X-3.0083 Y1.4984
N2800 X-2.9979 Y1.4967
N2805 X-2.9875 Y1.4975
N2810 X-2.9776 Y1.5007
N2815 X-2.9686 Y1.5061
N2820 X-2.9611 Y1.5134
N2825 X-2.9555 Y1.5222
N2830 G3 X-2.9565 Y1.5586 Z-0.1189 I-0.0392 J0.0172
N2835 X-2.9629 Y1.568 Z-0.117 I-0.0392 J-0.0197
N2840 X-3.0289 Y1.5676 I-0.0328 J-0.0292
N2845 X-3.0361 Y1.5216 Z-0.125 I0.0332 J-0.0288
N2850 G1 X-3.0331 Y1.5152
N2855 X-3.0294 Y1.5061
N2860 X-3.0274 Y1.4987
N2865 X-3.0254 Y1.493
N2870 X-3.0193 Y1.4854
N2875 X-3.0113 Y1.4798
N2880 X-3.002 Y1.4768
N2885 X-2.9922 Y1.4766
N2890 X-2.9828 Y1.4792
N2895 X-2.9745 Y1.4843
N2900 X-2.9681 Y1.4917
N2905 X-2.964 Y1.5006
N2910 G3 X-2.9645 Y1.5167 I-0.0281 J0.0071
N2915 X-3.0274 Y1.4987 I-0.0311 J-0.0101
N2920 G1 X-3.0268 Y1.4969
N2925 X-3.0223 Y1.4785
N2930 X-3.0207 Y1.4727
N2935 X-3.0177 Y1.4675
N2940 X-3.0109 Y1.462
N2945 X-3.0028 Y1.4589
N2950 X-2.9941 Y1.4583
N2955 X-2.9857 Y1.4605
N2960 X-2.9783 Y1.4651
N2965 X-2.9727 Y1.4718
N2970 X-2.9694 Y1.4798
N2975 X-2.9674 Y1.4882
N2980 X-2.9651 Y1.4969
N2985 X-2.964 Y1.5006
N2990 G3 X-2.9745 Y1.5197 I-0.0155 J0.0039
N2995 X-3.0223 Y1.4785 I-0.0115 J-0.0349
N3000 G1 X-3.0203 Y1.4693
N3005 X-3.0186 Y1.4601
N3010 X-3.0172 Y1.4543
N3015 X-3.014 Y1.4492
N3020 X-3.008 Y1.4448
N3025 X-3.0009 Y1.4424
N3030 X-2.9934 Y1.4423
N3035 X-2.9862 Y1.4445
N3040 X-2.98 Y1.4487
N3045 X-2.9755 Y1.4547
N3050 X-2.973 Y1.4618
N3055 X-2.9698 Y1.4785
N3060 X-2.9694 Y1.4798
N3065 G3 X-2.9788 Y1.4953 I-0.013 J0.0026
N3070 X-3.0186 Y1.4601 I-0.0086 J-0.0303
N3075 G1 X-3.0168 Y1.451
N3080 X-3.016 Y1.4447
N3085 X-3.0149 Y1.4387
N3090 X-3.0118 Y1.4336
N3095 X-3.0053 Y1.4292
N3100 X-2.9977 Y1.4275
N3105 X-2.9899 Y1.4286
N3110 X-2.9831 Y1.4325
N3115 X-2.9781 Y1.4386
N3120 X-2.9757 Y1.446
N3125 X-2.9756 Y1.448
N3130 X-2.9758 Y1.45
N3135 G3 X-3.016 Y1.4447 I-0.02 J-0.0034
N3140 G1 X-3.0156 Y1.4418
N3145 X-3.0148 Y1.4311
N3150 X-3.0141 Y1.4251
N3155 X-3.0112 Y1.4198
N3160 X-3.0049 Y1.4155
N3165 X-2.9976 Y1.4138
N3170 X-2.9901 Y1.415
N3175 X-2.9835 Y1.4189
N3180 X-2.9789 Y1.4249
N3185 X-2.977 Y1.4322
N3190 Y1.4338
N3195 G3 X-3.0148 Y1.4311 I-0.0189 J-0.0019
N3200 G1 X-3.0142 Y1.4234
N3205 Y1.4184
N3210 X-3.0139 Y1.4124
N3215 X-3.0113 Y1.4069
N3220 X-3.0061 Y1.4029
N3225 X-2.9998 Y1.4008
N3230 X-2.9932 Y1.401
N3235 X-2.9871 Y1.4034
N3240 X-2.9821 Y1.4077
N3245 X-2.9788 Y1.4134
N3250 X-2.9776 Y1.4199
N3255 X-2.9778 Y1.4214
N3260 G3 X-3.0142 Y1.4184 I-0.018 J-0.0035
N3265 G1 Y1.4142
N3270 X-3.0149 Y1.4069
N3275 X-3.0151 Y1.4009
N3280 X-3.0131 Y1.3953
N3285 X-3.0094 Y1.3905
N3290 X-3.0025 Y1.387
N3295 X-2.9948 Y1.3864
N3300 X-2.9874 Y1.3887
N3305 X-2.9815 Y1.3937
N3310 X-2.9779 Y1.4005
N3315 X-2.9771 Y1.4082
N3320 G3 X-2.9826 Y1.4222 I-0.031 J-0.004
N3325 X-3.0073 Y1.4236 I-0.0129 J-0.0091
N3330 X-3.0149 Y1.4069 I0.0234 J-0.0207
N3335 G1 X-3.0159 Y1.3959
N3340 X-3.0163 Y1.3931
N3345 X-3.0167 Y1.3871
N3350 X-3.0147 Y1.3814
N3355 X-3.0113 Y1.3765
N3360 X-3.0049 Y1.3728
N3365 X-2.9977 Y1.3714
N3370 X-2.9904 Y1.3725
N3375 X-2.9839 Y1.376
N3380 X-2.979 Y1.3815
N3385 X-2.9762 Y1.3883
N3390 X-2.9759 Y1.3957
N3395 G3 X-2.9813 Y1.4087 I-0.0308 J-0.0051
N3400 X-3.0058 Y1.4117 I-0.0136 J-0.0097
N3405 X-3.0163 Y1.3931 I0.0204 J-0.0237
N3410 G1 X-3.0171 Y1.3867
N3415 X-3.0184 Y1.3804
N3420 X-3.0193 Y1.3744
N3425 X-3.0179 Y1.3686
N3430 X-3.015 Y1.3633
N3435 X-3.0109 Y1.3589
N3440 X-3.0036 Y1.3556
N3445 X-2.9956 Y1.3548
N3450 X-2.9878 Y1.3567
N3455 X-2.9811 Y1.3612
N3460 X-2.9763 Y1.3676
N3465 X-2.9738 Y1.3753
N3470 X-2.9741 Y1.3833
N3475 G3 X-2.9806 Y1.3961 I-0.0304 J-0.0073
N3480 X-3.0035 Y1.4002 I-0.0139 J-0.0117
N3485 X-3.0184 Y1.3804 I0.0155 J-0.0272
N3490 G1 X-3.0218 Y1.3638
N3495 X-3.0227 Y1.3579
N3500 X-3.0212 Y1.3521
N3505 X-3.0184 Y1.3468
N3510 X-3.0115 Y1.3412
N3515 X-3.0033 Y1.338
N3520 X-2.9944 Y1.3378
N3525 X-2.9859 Y1.3404
N3530 X-2.9787 Y1.3455
N3535 X-2.9736 Y1.3527
N3540 X-2.971 Y1.3612
N3545 X-2.9714 Y1.3701
N3550 X-2.9725 Y1.3738
N3555 X-2.9741 Y1.3774
N3560 G3 X-2.991 Y1.3877 I-0.0171 J-0.009
N3565 X-3.0218 Y1.3638 I-0.0004 J-0.0312
N3570 G1 X-3.0228 Y1.3591
N3575 X-3.025 Y1.3499
N3580 X-3.0262 Y1.344
N3585 X-3.0254 Y1.3381
N3590 X-3.0232 Y1.3325
N3595 X-3.0199 Y1.3275
N3600 X-3.0129 Y1.3221
N3605 X-3.0046 Y1.319
N3610 X-2.9958 Y1.3184
N3615 X-2.9872 Y1.3203
N3620 X-2.9795 Y1.3246
N3625 X-2.9733 Y1.331
N3630 X-2.9692 Y1.3388
N3635 X-2.9676 Y1.3475
N3640 X-2.9684 Y1.3563
N3645 G3 X-2.9859 Y1.3667 I-0.0142 J-0.0041
N3650 G1 X-2.9942 Y1.3648
N3655 X-2.9994 Y1.3636
N3660 X-3.014 Y1.3603
N3665 G3 X-3.025 Y1.3499 I0.0032 J-0.0145
N3670 G1 X-3.0273 Y1.3408
N3675 X-3.0292 Y1.3334
N3680 X-3.0304 Y1.3276
N3685 X-3.03 Y1.3216
N3690 X-3.0283 Y1.3158
N3695 X-3.0255 Y1.3105
N3700 X-3.0218 Y1.3058
N3705 X-3.0137 Y1.3001
N3710 X-3.0042 Y1.297
N3715 X-2.9943 Y1.2967
N3720 X-2.9847 Y1.2991
N3725 X-2.9762 Y1.3042
N3730 X-2.9694 Y1.3115
N3735 X-2.965 Y1.3203
N3740 X-2.9632 Y1.3301
N3745 X-2.9643 Y1.34
N3750 G3 X-3.0194 Y1.3498 I-0.03 J-0.0088
N3755 G1 X-3.0243 Y1.3432
N3760 G3 X-3.0292 Y1.3334 I0.0251 J-0.0186
N3765 G1 X-3.0297 Y1.3316
N3770 X-3.0322 Y1.3224
N3775 X-3.0345 Y1.3132
N3780 X-3.0346 Y1.3086
N3785 Y1.3072
N3790 X-3.0343 Y1.303
N3795 G3 X-3.0171 Y1.2904 I0.0162 J0.0041
N3800 X-3.0191 Y1.3233 I-0.001 J0.0164
N3805 X-3.0346 Y1.3072 I0.001 J-0.0164
N3810 G1 X-3.0345 Y1.304
N3815 X-3.034 Y1.3015
N3820 X-3.0337 Y1.3004
N3825 X-3.0335 Y1.2994
N3830 X-3.0317 Y1.2937
N3835 X-3.0288 Y1.2885
N3840 X-3.0251 Y1.2837
N3845 X-3.0208 Y1.2796
N3850 X-3.0159 Y1.2759
N3855 X-3.0078 Y1.2724
N3860 X-2.9992 Y1.2704
N3865 X-2.9904 Y1.27
N3870 G3 X-2.9858 Y1.2962 I-0.0041 J0.0142
N3875 G1 X-3.0102 Y1.314
N3880 G3 X-3.0335 Y1.2994 I-0.0087 J-0.012
N3885 G1 X-3.0323 Y1.2948
N3890 X-3.0318 Y1.2936
N3895 X-3.0297 Y1.2896
N3900 X-3.0274 Y1.2857
N3905 X-3.0264 Y1.2844
N3910 X-3.0252 Y1.2831
N3915 X-3.0226 Y1.2805
N3920 X-3.0203 Y1.2782
N3925 X-3.0191 Y1.2772
N3930 X-3.0179 Y1.2765
N3935 X-3.0134 Y1.2739
N3940 X-3.0111 Y1.2727
N3945 X-3.0088 Y1.2719
N3950 X-3.0042 Y1.2706
N3955 X-3.0019 Y1.2701
N3960 X-2.9996 Y1.2698
N3965 X-2.995
N3970 X-2.9904 Y1.27
N3975 X-2.9858 Y1.2711
N3980 X-2.9812 Y1.2725
N3985 X-2.9766 Y1.2749
N3990 X-2.974 Y1.2765
N3995 X-2.9723 Y1.2776
N4000 X-2.9707 Y1.279
N4005 X-2.9674 Y1.2822
N4010 X-2.9658 Y1.2839
N4015 X-2.9645 Y1.2857
N4020 X-2.9618 Y1.2902
N4025 X-2.9605 Y1.2925
N4030 X-2.9596 Y1.2948
N4035 X-2.9582 Y1.2997
N4040 X-2.9573 Y1.304
N4045 Y1.3086
N4050 X-2.9574 Y1.3132
N4055 X-2.9582 Y1.3172
N4060 X-2.9622 Y1.3316
N4065 X-2.9668 Y1.3499
N4070 G3 X-2.9877 Y1.3711 I-0.03 J-0.0088
N4075 G1 X-2.9916 Y1.3722 Z-0.1247
N4080 X-2.9954 Y1.3734 Z-0.1239
N4085 X-2.9991 Y1.3746 Z-0.1226
N4090 X-3.0026 Y1.3756 Z-0.1208
N4095 X-3.0059 Y1.3766 Z-0.1185
N4100 X-3.0088 Y1.3775 Z-0.1158
N4105 X-3.0114 Y1.3783 Z-0.1128
N4110 X-3.0136 Y1.379 Z-0.1094
N4115 X-3.0153 Y1.3795 Z-0.1057
N4120 X-3.0166 Y1.3799 Z-0.1018
N4125 X-3.0173 Y1.3801 Z-0.0978
N4130 X-3.0176 Y1.3802 Z-0.0937
N4135 G0 Z0.2
N4140 X-0.7671 Y1.7282
N4145 Z-0.0625
N4150 G1 Z-0.0937 F25.
N4155 X-0.7668 Y1.7281 Z-0.0978
N4160 X-0.7661 Y1.7277 Z-0.1018
N4165 X-0.7649 Y1.7271 Z-0.1057
N4170 X-0.7633 Y1.7263 Z-0.1094
N4175 X-0.7613 Y1.7253 Z-0.1128
N4180 X-0.7589 Y1.7242 Z-0.1158
N4185 X-0.7561 Y1.7228 Z-0.1185
N4190 X-0.753 Y1.7213 Z-0.1208
N4195 X-0.7497 Y1.7197 Z-0.1226
N4200 X-0.7463 Y1.718 Z-0.1239
N4205 X-0.7427 Y1.7163 Z-0.1247
N4210 X-0.739 Y1.7145 Z-0.125
N4215 G3 X-0.5773 Y1.6562 I0.3497 J0.7171
N4220 G1 X-0.5754 Y1.6558
N4225 X-0.5657 Y1.653
N4230 X-0.557 Y1.6502
N4235 X-0.5478 Y1.647
N4240 X-0.5415 Y1.6438
N4245 X-0.5202 Y1.6317
N4250 X-0.511 Y1.626
N4255 X-0.5018 Y1.6198
N4260 X-0.4862 Y1.6102
N4265 X-0.4704 Y1.602
N4270 X-0.4501 Y1.5932
N4275 X-0.4237 Y1.5839
N4280 X-0.3879 Y1.5743
N4285 X-0.3661 Y1.57
N4290 X-0.3525 Y1.5685
N4295 X-0.3388 Y1.5692
N4300 X-0.3253 Y1.5721
N4305 X-0.3126 Y1.5771
N4310 X-0.3008 Y1.584
N4315 X-0.2902 Y1.5929
N4320 X-0.2851 Y1.5979
N4325 X-0.281 Y1.6012
N4330 X-0.2612 Y1.6162
N4335 X-0.2534 Y1.6217
N4340 X-0.2442 Y1.6276
N4345 G3 X-0.2363 Y1.6711 Z-0.117 I-0.0178 J0.0257
N4350 X-0.2632 Y1.6846 I-0.0257 J-0.0178
N4355 G1 X-0.4844 Y1.6762
N4360 G3 X-0.5084 Y1.6635 I0.0012 J-0.0312
N4365 X-0.5018 Y1.6198 Z-0.125 I0.0251 J-0.0186
N4370 G1 X-0.4926 Y1.6135
N4375 X-0.4841 Y1.6071
N4380 X-0.4738 Y1.5979
N4385 X-0.465 Y1.5899
N4390 X-0.4639 Y1.5887
N4395 X-0.4563 Y1.5795
N4400 X-0.4466 Y1.566
N4405 X-0.4432 Y1.5612
N4410 X-0.4396 Y1.5563
N4415 X-0.4339 Y1.5499
N4420 X-0.4281 Y1.5443
N4425 X-0.4215 Y1.5387
N4430 X-0.4144 Y1.5336
N4435 X-0.4023 Y1.5276
N4440 X-0.3892 Y1.524
N4445 X-0.3757 Y1.5231
N4450 X-0.3623 Y1.5248
N4455 X-0.3494 Y1.529
N4460 X-0.3377 Y1.5356
N4465 X-0.3274 Y1.5444
N4470 X-0.319 Y1.555
N4475 X-0.315 Y1.5612
N4480 X-0.3083 Y1.5703
N4485 X-0.294 Y1.5887
N4490 X-0.2902 Y1.5929
N4495 G3 X-0.2941 Y1.6369 Z-0.117 I-0.0239 J0.0201
N4500 X-0.3244 Y1.6425 I-0.0201 J-0.0239
N4505 G1 X-0.4267 Y1.607
N4510 X-0.4299 Y1.6057
N4515 X-0.4328 Y1.6041
N4520 G3 X-0.4432 Y1.5612 Z-0.125 I0.0163 J-0.0266
N4525 G1 X-0.431 Y1.5428
N4530 X-0.4282 Y1.5385
N4535 X-0.4253 Y1.5336
N4540 X-0.4205 Y1.5244
N4545 X-0.419 Y1.5214
N4550 X-0.4163 Y1.5161
N4555 X-0.4084 Y1.5074
N4560 X-0.3985 Y1.5011
N4565 X-0.3874 Y1.4975
N4570 X-0.3756 Y1.4969
N4575 X-0.3642 Y1.4993
N4580 X-0.3537 Y1.5047
N4585 X-0.345 Y1.5125
N4590 X-0.3386 Y1.5223
N4595 G3 X-0.3396 Y1.5579 Z-0.119 I-0.038 J0.0167
N4600 X-0.3467 Y1.5679 Z-0.117 I-0.0389 J-0.0199
N4605 X-0.411 Y1.5673 I-0.0319 J-0.0299
N4610 X-0.419 Y1.5214 Z-0.125 I0.0325 J-0.0293
N4615 G1 X-0.4162 Y1.5152
N4620 X-0.4126 Y1.5061
N4625 X-0.4106 Y1.4987
N4630 X-0.4087 Y1.493
N4635 X-0.4057 Y1.4878
N4640 X-0.3989 Y1.4817
N4645 X-0.3907 Y1.4775
N4650 X-0.3816 Y1.4758
N4655 X-0.3725 Y1.4765
N4660 X-0.3638 Y1.4797
N4665 X-0.3564 Y1.485
N4670 X-0.3506 Y1.4922
N4675 X-0.347 Y1.5007
N4680 G3 X-0.3476 Y1.5159 I-0.0283 J0.0067
N4685 X-0.4106 Y1.4987 I-0.0312 J-0.0097
N4690 G1 X-0.4098 Y1.4959
N4695 X-0.4054 Y1.4785
N4700 X-0.4039 Y1.4727
N4705 X-0.3988 Y1.4662
N4710 X-0.392 Y1.4614
N4715 X-0.3841 Y1.4589
N4720 X-0.3758 Y1.4587
N4725 X-0.3679 Y1.461
N4730 X-0.3609 Y1.4656
N4735 X-0.3556 Y1.472
N4740 X-0.3524 Y1.4796
N4745 X-0.3481 Y1.4969
N4750 X-0.347 Y1.5007
N4755 G3 X-0.3573 Y1.5195 I-0.0156 J0.0037
N4760 X-0.4054 Y1.4785 I-0.012 J-0.0346
N4765 G1 X-0.4035 Y1.4693
N4770 X-0.4017 Y1.4601
N4775 X-0.4003 Y1.4543
N4780 X-0.397 Y1.4492
N4785 X-0.391 Y1.4449
N4790 X-0.3839 Y1.4425
N4795 X-0.3764
N4800 X-0.3692 Y1.4447
N4805 X-0.3631 Y1.449
N4810 X-0.3586 Y1.4549
N4815 X-0.3561 Y1.462
N4820 X-0.3546 Y1.4695
N4825 X-0.3527 Y1.4785
N4830 X-0.3524 Y1.4796
N4835 G3 X-0.3618 Y1.4952 I-0.0131 J0.0028
N4840 X-0.4017 Y1.4601 I-0.0088 J-0.0302
N4845 G1 X-0.3999 Y1.451
N4850 X-0.3993 Y1.4459
N4855 X-0.3982 Y1.44
N4860 X-0.3954 Y1.4347
N4865 X-0.389 Y1.43
N4870 X-0.3813 Y1.428
N4875 X-0.3734 Y1.429
N4880 X-0.3664 Y1.4329
N4885 X-0.3613 Y1.439
N4890 X-0.3588 Y1.4465
N4895 X-0.3587 Y1.4485
N4900 X-0.3588 Y1.4504
N4905 G3 X-0.3993 Y1.4459 I-0.0202 J-0.0026
N4910 G1 X-0.3988 Y1.4418
N4915 X-0.398 Y1.4311
N4920 X-0.3972 Y1.4251
N4925 X-0.3925 Y1.4197
N4930 X-0.3861 Y1.4163
N4935 X-0.379 Y1.4154
N4940 X-0.3719 Y1.417
N4945 X-0.366 Y1.421
N4950 X-0.3618 Y1.4269
N4955 X-0.36 Y1.4339
N4960 Y1.4353
N4965 X-0.3603 Y1.4367
N4970 G3 X-0.398 Y1.4311 I-0.0185 J-0.0049
N4975 G1 X-0.3974 Y1.4234
N4980 Y1.4187
N4985 X-0.397 Y1.4127
N4990 X-0.3941 Y1.4075
N4995 X-0.3878 Y1.4033
N5000 X-0.3803 Y1.4018
N5005 X-0.3729 Y1.4033
N5010 X-0.3665 Y1.4075
N5015 X-0.3623 Y1.4138
N5020 X-0.3608 Y1.4212
N5025 X-0.3609 Y1.4225
N5030 X-0.3612 Y1.4237
N5035 G3 X-0.3974 Y1.4187 I-0.0177 J-0.0055
N5040 G1 X-0.3973 Y1.4142
N5045 X-0.3979 Y1.4079
N5050 X-0.3982 Y1.4019
N5055 X-0.3961 Y1.3963
N5060 X-0.3906 Y1.3915
N5065 X-0.3837 Y1.389
N5070 X-0.3764 Y1.3892
N5075 X-0.3697 Y1.3919
N5080 X-0.3643 Y1.3969
N5085 X-0.3611 Y1.4034
N5090 X-0.3605 Y1.4107
N5095 G3 X-0.3648 Y1.4229 I-0.031 J-0.004
N5100 X-0.3893 Y1.4257 I-0.0133 J-0.0081
N5105 X-0.3979 Y1.4079 I0.0224 J-0.0218
N5110 G1 X-0.3991 Y1.3959
N5115 X-0.3993 Y1.3943
N5120 X-0.3997 Y1.3883
N5125 X-0.3974 Y1.3828
N5130 X-0.3936 Y1.3781
N5135 X-0.3874 Y1.3748
N5140 X-0.3804 Y1.3737
N5145 X-0.3734 Y1.3749
N5150 X-0.3672 Y1.3783
N5155 X-0.3625 Y1.3836
N5160 X-0.3597 Y1.3901
N5165 X-0.3592 Y1.3971
N5170 G3 X-0.3636 Y1.4095 I-0.031 J-0.004
N5175 X-0.388 Y1.4137 I-0.014 J-0.0087
N5180 X-0.3993 Y1.3943 I0.0196 J-0.0243
N5185 G1 X-0.4002 Y1.3867
N5190 X-0.4011 Y1.3824
N5195 X-0.402 Y1.3765
N5200 X-0.4006 Y1.3707
N5205 X-0.3976 Y1.3655
N5210 X-0.3935 Y1.3611
N5215 X-0.3863 Y1.3579
N5220 X-0.3785 Y1.3573
N5225 X-0.3709 Y1.3592
N5230 X-0.3644 Y1.3636
N5235 X-0.3597 Y1.3699
N5240 X-0.3574 Y1.3774
N5245 X-0.3576 Y1.3852
N5250 G3 X-0.3638 Y1.3978 I-0.0304 J-0.0073
N5255 X-0.3872 Y1.4016 I-0.0139 J-0.0114
N5260 X-0.4011 Y1.3824 I0.0165 J-0.0265
N5265 G1 X-0.4043 Y1.3668
N5270 X-0.4052 Y1.3608
N5275 X-0.404 Y1.355
N5280 X-0.4012 Y1.3497
N5285 X-0.3946 Y1.344
N5290 X-0.3864 Y1.3409
N5295 X-0.3777 Y1.3405
N5300 X-0.3694 Y1.343
N5305 X-0.3622 Y1.348
N5310 X-0.3572 Y1.3551
N5315 X-0.3546 Y1.3635
N5320 X-0.3549 Y1.3722
N5325 G3 X-0.3588 Y1.3814 I-0.0304 J-0.0073
N5330 X-0.377 Y1.3904 I-0.0163 J-0.0102
N5335 X-0.4043 Y1.3668 I0.0031 J-0.0311
N5340 G1 X-0.4059 Y1.3591
N5345 X-0.4078 Y1.3518
N5350 X-0.4089 Y1.3459
N5355 X-0.408 Y1.34
N5360 X-0.4056 Y1.3345
N5365 X-0.4021 Y1.3296
N5370 X-0.3951 Y1.3246
N5375 X-0.387 Y1.3217
N5380 X-0.3784 Y1.3213
N5385 X-0.3701 Y1.3234
N5390 X-0.3626 Y1.3277
N5395 X-0.3567 Y1.3339
N5400 X-0.3528 Y1.3416
N5405 X-0.3512 Y1.3501
N5410 X-0.3521 Y1.3586
N5415 G3 X-0.37 Y1.3689 I-0.0142 J-0.0041
N5420 G1 X-0.3779 Y1.3669
N5425 X-0.3821 Y1.3658
N5430 X-0.3971 Y1.362
N5435 G3 X-0.4078 Y1.3518 I0.0036 J-0.0144
N5440 G1 X-0.4118 Y1.3357
N5445 X-0.413 Y1.3298
N5450 X-0.4125 Y1.3238
N5455 X-0.4107 Y1.3181
N5460 X-0.4078 Y1.3129
N5465 X-0.404 Y1.3082
N5470 X-0.396 Y1.3029
N5475 X-0.3867 Y1.3
N5480 X-0.3771 Y1.2998
N5485 X-0.3678 Y1.3023
N5490 X-0.3595 Y1.3073
N5495 X-0.353 Y1.3144
N5500 X-0.3487 Y1.3231
N5505 X-0.347 Y1.3326
N5510 X-0.348 Y1.3422
N5515 G3 X-0.405 Y1.3492 I-0.03 J-0.0087
N5520 G1 X-0.4088 Y1.3428
N5525 X-0.4105 Y1.3393
N5530 X-0.4118 Y1.3357
N5535 X-0.4128 Y1.3316
N5540 X-0.4153 Y1.3224
N5545 X-0.4169 Y1.3161
N5550 X-0.4173 Y1.3145
N5555 X-0.4176 Y1.3132
N5560 X-0.4175 Y1.3072
N5565 X-0.4164 Y1.3013
N5570 X-0.4143 Y1.2957
N5575 X-0.4113 Y1.2905
N5580 X-0.4075 Y1.2859
N5585 X-0.403 Y1.2818
N5590 X-0.3981 Y1.2784
N5595 X-0.3928 Y1.2757
N5600 X-0.3926 Y1.2756
N5605 X-0.3833 Y1.2733
N5610 X-0.3737 Y1.2734
N5615 X-0.3644 Y1.2758
N5620 X-0.356 Y1.2804
N5625 X-0.3489 Y1.2869
N5630 X-0.3436 Y1.295
N5635 X-0.3405 Y1.304
N5640 G3 X-0.3693 Y1.3345 I-0.0312 J-0.0007
N5645 G1 X-0.3852 Y1.3357
N5650 G3 X-0.4176 Y1.3132 I-0.0024 J-0.0312
N5655 G1 X-0.4177 Y1.3086
N5660 Y1.304
N5665 X-0.4167 Y1.2994
N5670 X-0.4154 Y1.2948
N5675 X-0.4145 Y1.2925
N5680 X-0.4132 Y1.2902
N5685 X-0.4105 Y1.2857
N5690 X-0.4098 Y1.2847
N5695 X-0.4054 Y1.2801
N5700 X-0.4032 Y1.278
N5705 X-0.401 Y1.2765
N5710 X-0.396 Y1.2736
N5715 X-0.3937 Y1.2724
N5720 X-0.3914 Y1.2717
N5725 X-0.3868 Y1.2705
N5730 X-0.3845 Y1.27
N5735 X-0.3822 Y1.2698
N5740 X-0.3753
N5745 X-0.373 Y1.2701
N5750 X-0.3684 Y1.2713
N5755 X-0.3638 Y1.2727
N5760 X-0.3571 Y1.2765
N5765 X-0.3559 Y1.2773
N5770 X-0.3546 Y1.2783
N5775 X-0.3509 Y1.282
N5780 X-0.3491 Y1.2838
N5785 X-0.3476 Y1.2857
N5790 X-0.3454 Y1.2894
N5795 X-0.3439 Y1.2921
N5800 X-0.3427 Y1.2948
N5805 X-0.3415 Y1.2994
N5810 X-0.3405 Y1.304
N5815 X-0.3404 Y1.3086
N5820 X-0.3405 Y1.3132
N5825 X-0.3428 Y1.3224
N5830 X-0.3453 Y1.3316
N5835 G3 X-0.3665 Y1.3524 I-0.0299 J-0.0092
N5840 G1 X-0.3704 Y1.3535 Z-0.1247
N5845 X-0.3743 Y1.3546 Z-0.1239
N5850 X-0.378 Y1.3557 Z-0.1226
N5855 X-0.3815 Y1.3567 Z-0.1208
N5860 X-0.3848 Y1.3576 Z-0.1185
N5865 X-0.3877 Y1.3585 Z-0.1158
N5870 X-0.3903 Y1.3592 Z-0.1128
N5875 X-0.3925 Y1.3599 Z-0.1094
N5880 X-0.3942 Y1.3604 Z-0.1057
N5885 X-0.3955 Y1.3607 Z-0.1018
N5890 X-0.3962 Y1.361 Z-0.0978
N5895 X-0.3965 Z-0.0937
N5900 G0 Z0.2
N5905 X-0.1795 Y1.7595
N5910 Z-0.0625
N5915 G1 Z-0.0937 F25.
N5920 X-0.1793 Y1.7594 Z-0.0978
N5925 X-0.1787 Y1.7589 Z-0.1018
N5930 X-0.1776 Y1.7581 Z-0.1057
N5935 X-0.1761 Y1.7571 Z-0.1094
N5940 X-0.1743 Y1.7557 Z-0.1128
N5945 X-0.1721 Y1.7541 Z-0.1158
N5950 X-0.1696 Y1.7523 Z-0.1185
N5955 X-0.1669 Y1.7503 Z-0.1208
N5960 X-0.1639 Y1.7482 Z-0.1226
N5965 X-0.1608 Y1.7459 Z-0.1239
N5970 X-0.1575 Y1.7436 Z-0.1247
N5975 X-0.1542 Y1.7412 Z-0.125
N5980 G3 X-0.005 Y1.6558 I0.4684 J0.6459
N5985 G1 X0.0042 Y1.6522
N5990 X0.0134 Y1.6479
N5995 X0.037 Y1.6346
N6000 X0.0778 Y1.6113
N6005 X0.0996 Y1.6002
N6010 X0.1206 Y1.5914
N6015 X0.1483 Y1.582
N6020 X0.1859 Y1.5723
N6025 X0.2257 Y1.565
N6030 X0.2659 Y1.5597
N6035 X0.3062 Y1.556
N6040 X0.3466 Y1.5533
N6045 X0.387 Y1.5513
N6050 X0.4275 Y1.5498
N6055 X0.4679 Y1.5488
N6060 X0.5084 Y1.548
N6065 X0.5489 Y1.5475
N6070 X0.5894 Y1.5471
N6075 X0.6299 Y1.5468
N6080 X0.6704 Y1.5465
N6085 X0.7108 Y1.5464
N6090 X0.7918 Y1.5461
N6095 X0.9133 Y1.5459
N6100 X1.1967 Y1.5457
N6105 X2.0469 Y1.5454
N6110 X3.1804 Y1.5448
N6115 X3.2 Y1.5396
N6120 X3.2362 Y1.5214
N6125 X3.2656 Y1.4936
N6130 X3.2887 Y1.4603
N6135 X3.3065 Y1.424
N6140 X3.32 Y1.3858
N6145 X3.3302 Y1.3466
N6150 X3.3378 Y1.3069
N6155 X3.3434 Y1.2668
N6160 X3.3476 Y1.2265
N6165 X3.3506 Y1.1861
N6170 X3.3529 Y1.1457
N6175 X3.3545 Y1.1053
N6180 X3.3557 Y1.0648
N6185 X3.3566 Y1.0243
N6190 X3.3572 Y0.9838
N6195 X3.3577 Y0.9434
N6200 X3.358 Y0.9029
N6205 X3.3583 Y0.8624
N6210 X3.3584 Y0.8219
N6215 X3.3587 Y0.7409
N6220 X3.3588 Y0.6195
N6225 Y0.3766
N6230 X3.3587 Y-0.3005
N6235 X3.3601 Y-0.3154
N6240 X3.3641 Y-0.3299
N6245 X3.3706 Y-0.3434
N6250 X3.3806 Y-0.36
N6255 X3.3904 Y-0.3765
N6260 X3.3951 Y-0.3857
N6265 X3.399 Y-0.3953
N6270 X3.4058 Y-0.4132
N6275 X3.4082 Y-0.4197
N6280 X3.4188 Y-0.45
N6285 X3.4219 Y-0.4592
N6290 X3.4266 Y-0.4738
N6295 X3.4276 Y-0.4775
N6300 X3.4324 Y-0.5051
N6305 X3.4361 Y-0.5326
N6310 X3.4397 Y-0.5602
N6315 X3.4404 Y-0.5694
N6320 X3.4405 Y-0.5877
N6325 X3.4404 Y-0.5969
N6330 X3.4365 Y-0.652
N6335 X3.4358 Y-0.6575
N6340 X3.4325 Y-0.6796
N6345 X3.4304 Y-0.6887
N6350 X3.4228 Y-0.7163
N6355 X3.4174 Y-0.7354
N6360 X3.4149 Y-0.7438
N6365 X3.4057 Y-0.7714
N6370 X3.4049 Y-0.7729
N6375 X3.4025 Y-0.7784
N6380 X3.3931 Y-0.8072
N6385 X3.3834 Y-0.8465
N6390 X3.3765 Y-0.8864
N6395 X3.3715 Y-0.9266
N6400 X3.368 Y-0.9669
N6405 X3.3654 Y-1.0073
N6410 X3.3635 Y-1.0478
N6415 X3.3622 Y-1.0882
N6420 X3.3612 Y-1.1287
N6425 X3.3605 Y-1.1692
N6430 X3.36 Y-1.2097
N6435 X3.3596 Y-1.2501
N6440 X3.3593 Y-1.2906
N6445 X3.3591 Y-1.3311
N6450 X3.3589 Y-1.3716
N6455 X3.3528 Y-1.3909
N6460 X3.3335 Y-1.4265
N6465 X3.305 Y-1.4552
N6470 X3.2714 Y-1.4778
N6475 X3.2348 Y-1.4952
N6480 X3.1965 Y-1.5084
N6485 X3.1573 Y-1.5183
N6490 X3.1175 Y-1.5257
N6495 X3.0774 Y-1.5312
N6500 X3.0371 Y-1.5352
N6505 X2.9967 Y-1.5382
N6510 X2.9563 Y-1.5404
N6515 X2.9158 Y-1.542
N6520 X2.8754 Y-1.5431
N6525 X2.8349 Y-1.544
N6530 X2.7944 Y-1.5446
N6535 X2.7539 Y-1.545
N6540 X2.7134 Y-1.5454
N6545 X2.673 Y-1.5456
N6550 X2.6325 Y-1.5458
N6555 X2.5515 Y-1.546
N6560 X2.43 Y-1.5461
N6565 X2.1871 Y-1.5462
N6570 X2.0252
N6575 X0.1978 Y-1.546
N6580 X0.1826 Y-1.5474
N6585 X0.1679 Y-1.5516
N6590 X0.1542 Y-1.5584
N6595 X0.1419 Y-1.5675
N6600 X0.1316 Y-1.5788
N6605 X0.1238 Y-1.589
N6610 X0.1146 Y-1.5981
N6615 X0.1054 Y-1.6062
N6620 X0.0962 Y-1.6132
N6625 X0.0918 Y-1.6162
N6630 X0.0778 Y-1.6256
N6635 G3 X0.0691 Y-1.6689 Z-0.117 I0.0173 J-0.026
N6640 X0.1211 Y-1.6343 I0.026 J0.0173
N6645 X0.0765 Y-1.6264 I-0.026 J-0.0173
N6650 G1 X-0.0535 Y-1.7225
N6655 G3 X-0.0164 Y-1.7728 I0.0186 J-0.0251
N6660 X-0.0203 Y-1.7201 I-0.0186 J0.0251
N6665 X-0.133 Y-1.6708 I-0.375 J-0.7042
N6670 X-0.1798 Y-1.6561 Z-0.125 I-0.2622 J-0.7535
N6675 G1 X-0.1926 Y-1.653
N6680 X-0.1982 Y-1.6516
N6685 X-0.2074 Y-1.6482
N6690 X-0.2168 Y-1.6438
N6695 X-0.2258 Y-1.6395
N6700 X-0.2534 Y-1.6217
N6705 X-0.2577 Y-1.6187
N6710 X-0.269 Y-1.6116
N6715 X-0.2841 Y-1.6034
N6720 X-0.3035 Y-1.5948
N6725 X-0.3287 Y-1.5856
N6730 X-0.3625 Y-1.576
N6735 X-0.3913 Y-1.57
N6740 X-0.407 Y-1.5682
N6745 X-0.4228 Y-1.5694
N6750 X-0.4381 Y-1.5736
N6755 X-0.4523 Y-1.5805
N6760 X-0.465 Y-1.5899
N6765 X-0.4834 Y-1.6065
N6770 X-0.4841 Y-1.6071
N6775 X-0.4926 Y-1.6135
N6780 X-0.5018 Y-1.6198
N6785 X-0.511 Y-1.626
N6790 X-0.5202 Y-1.6317
N6795 G3 X-0.5288 Y-1.6751 Z-0.117 I0.0174 J-0.026
N6800 X-0.5009 Y-1.6889 I0.026 J0.0174
N6805 G1 X-0.2747 Y-1.6748
N6810 G3 X-0.2517 Y-1.6625 I-0.0019 J0.0312
N6815 X-0.2577 Y-1.6187 Z-0.125 I-0.0249 J0.0189
N6820 G1 X-0.2612 Y-1.6162
N6825 X-0.281 Y-1.6012
N6830 X-0.2851 Y-1.5979
N6835 X-0.2902 Y-1.5929
N6840 X-0.294 Y-1.5887
N6845 X-0.3086 Y-1.5699
N6850 X-0.315 Y-1.5612
N6855 X-0.3185 Y-1.5563
N6860 X-0.3243 Y-1.5498
N6865 X-0.3302 Y-1.544
N6870 X-0.3364 Y-1.5388
N6875 X-0.3439 Y-1.5334
N6880 X-0.3558 Y-1.5274
N6885 X-0.3687 Y-1.5239
N6890 X-0.3821 Y-1.5229
N6895 X-0.3954 Y-1.5245
N6900 X-0.4081 Y-1.5286
N6905 X-0.4198 Y-1.5351
N6910 X-0.43 Y-1.5437
N6915 X-0.4385 Y-1.5541
N6920 X-0.4432 Y-1.5612
N6925 X-0.4523 Y-1.5739
N6930 X-0.4563 Y-1.5795
N6935 X-0.4639 Y-1.5887
N6940 X-0.465 Y-1.5899
N6945 G3 X-0.4608 Y-1.6339 Z-0.117 I0.0241 J-0.0199
N6950 X-0.4311 Y-1.6395 I0.0199 J0.0241
N6955 G1 X-0.332 Y-1.6069
N6960 X-0.3288 Y-1.6056
N6965 X-0.3258 Y-1.604
N6970 G3 X-0.315 Y-1.5612 Z-0.125 I-0.0161 J0.0268
N6975 G1 X-0.3328 Y-1.5336
N6980 X-0.3362 Y-1.5271
N6985 X-0.3376 Y-1.5244
N6990 X-0.3389 Y-1.5216
N6995 X-0.3418 Y-1.5164
N7000 X-0.3451 Y-1.5114
N7005 X-0.3461 Y-1.5104
N7010 X-0.3543 Y-1.5031
N7015 X-0.364 Y-1.4982
N7020 X-0.3747 Y-1.4958
N7025 X-0.3856 Y-1.4961
N7030 X-0.3961 Y-1.499
N7035 X-0.4055 Y-1.5045
N7040 X-0.4133 Y-1.5121
N7045 X-0.419 Y-1.5214
N7050 X-0.4238 Y-1.5307
N7055 X-0.4253 Y-1.5336
N7060 X-0.4282 Y-1.5385
N7065 X-0.431 Y-1.5428
N7070 X-0.4385 Y-1.5541
N7075 G3 X-0.433 Y-1.5992 Z-0.117 I0.0312 J-0.0191
N7080 X-0.42 Y-1.6075 I0.0258 J0.026
N7085 X-0.3374 Y-1.5695 I0.0224 J0.0601
N7090 X-0.3389 Y-1.5216 Z-0.125 I-0.0602 J0.0221
N7095 G1 X-0.342 Y-1.5152
N7100 X-0.3456 Y-1.5061
N7105 X-0.3476 Y-1.4987
N7110 X-0.3494 Y-1.493
N7115 X-0.3554 Y-1.4851
N7120 X-0.3633 Y-1.4793
N7125 X-0.3727 Y-1.4761
N7130 X-0.3826 Y-1.4757
N7135 X-0.3921 Y-1.4783
N7140 X-0.4005 Y-1.4835
N7145 X-0.4069 Y-1.491
N7150 X-0.4109 Y-1.5
N7155 G3 X-0.4106 Y-1.5152 I0.0292 J-0.0069
N7160 X-0.3476 Y-1.4987 I0.0313 J0.009
N7165 G1 X-0.3481 Y-1.4969
N7170 X-0.3527 Y-1.4785
N7175 X-0.353 Y-1.477
N7180 X-0.3546 Y-1.4712
N7185 X-0.3577 Y-1.4661
N7190 X-0.3645 Y-1.4609
N7195 X-0.3725 Y-1.4579
N7200 X-0.381 Y-1.4575
N7205 X-0.3893 Y-1.4596
N7210 X-0.3966 Y-1.4642
N7215 X-0.4021 Y-1.4707
N7220 X-0.4054 Y-1.4785
N7225 X-0.4101 Y-1.4969
N7230 X-0.4109 Y-1.5
N7235 G3 X-0.3999 Y-1.5189 I0.0155 J-0.0037
N7240 X-0.353 Y-1.477 I0.0104 J0.0356
N7245 G1 X-0.3547 Y-1.4693
N7250 X-0.3564 Y-1.4601
N7255 X-0.3578 Y-1.4543
N7260 X-0.3608 Y-1.4491
N7265 X-0.3667 Y-1.4445
N7270 X-0.3738 Y-1.442
N7275 X-0.3813 Y-1.4417
N7280 X-0.3885 Y-1.4438
N7285 X-0.3947 Y-1.448
N7290 X-0.3993 Y-1.4539
N7295 X-0.4019 Y-1.461
N7300 X-0.4035 Y-1.4693
N7305 X-0.4054 Y-1.4785
N7310 G3 X-0.3968 Y-1.4939 I0.013 J-0.0028
N7315 X-0.3564 Y-1.4601 I0.01 J0.029
N7320 G1 X-0.3582 Y-1.451
N7325 X-0.359 Y-1.4447
N7330 X-0.3601 Y-1.4388
N7335 X-0.363 Y-1.4335
N7340 X-0.3695 Y-1.429
N7345 X-0.3772 Y-1.4272
N7350 X-0.385 Y-1.4283
N7355 X-0.3918 Y-1.4321
N7360 X-0.3968 Y-1.4382
N7365 X-0.3993 Y-1.4457
N7370 Y-1.4477
N7375 X-0.3992 Y-1.4496
N7380 G3 X-0.359 Y-1.4447 I0.02 J0.003
N7385 G1 X-0.3594 Y-1.4418
N7390 X-0.3602 Y-1.4311
N7395 X-0.3609 Y-1.4251
N7400 X-0.3637 Y-1.4198
N7405 X-0.3699 Y-1.4154
N7410 X-0.3773 Y-1.4136
N7415 X-0.3849 Y-1.4147
N7420 X-0.3914 Y-1.4186
N7425 X-0.396 Y-1.4247
N7430 X-0.398 Y-1.432
N7435 Y-1.4335
N7440 G3 X-0.3602 Y-1.4311 I0.0189 J0.0017
N7445 G1 X-0.3608 Y-1.4234
N7450 Y-1.4184
N7455 X-0.3611 Y-1.4124
N7460 X-0.3636 Y-1.4069
N7465 X-0.3688 Y-1.4028
N7470 X-0.3751 Y-1.4007
N7475 X-0.3817 Y-1.4008
N7480 X-0.3879 Y-1.4032
N7485 X-0.3929 Y-1.4075
N7490 X-0.3962 Y-1.4132
N7495 X-0.3974 Y-1.4197
N7500 X-0.3972 Y-1.421
N7505 G3 X-0.3608 Y-1.4184 I0.0181 J0.0032
N7510 G1 Y-1.4142
N7515 X-0.3599 Y-1.405
N7520 X-0.3597 Y-1.399
N7525 X-0.3623 Y-1.3937
N7530 X-0.368 Y-1.3892
N7535 X-0.375 Y-1.387
N7540 X-0.3822 Y-1.3873
N7545 X-0.3889 Y-1.3902
N7550 X-0.3941 Y-1.3953
N7555 X-0.3972 Y-1.4018
N7560 X-0.3978 Y-1.4091
N7565 G3 X-0.3943 Y-1.42 I0.031 J0.004
N7570 X-0.3699 Y-1.4241 I0.0138 J0.0075
N7575 X-0.3599 Y-1.405 I-0.0211 J0.0231
N7580 G1 X-0.3591 Y-1.3959
N7585 X-0.3587 Y-1.3931
N7590 X-0.3583 Y-1.3871
N7595 X-0.3603 Y-1.3815
N7600 X-0.3639 Y-1.3766
N7605 X-0.3642 Y-1.3764
N7610 X-0.3706 Y-1.3729
N7615 X-0.3777 Y-1.3717
N7620 X-0.3849 Y-1.3729
N7625 X-0.3912 Y-1.3764
N7630 X-0.396 Y-1.3819
N7635 X-0.3987 Y-1.3886
N7640 X-0.3991 Y-1.3959
N7645 G3 X-0.3947 Y-1.4083 I0.031 J0.004
N7650 X-0.3703 Y-1.4126 I0.0141 J0.0087
N7655 X-0.3587 Y-1.3931 I-0.0193 J0.0246
N7660 G1 X-0.3579 Y-1.3867
N7665 X-0.3566 Y-1.3804
N7670 X-0.3557 Y-1.3744
N7675 X-0.3572 Y-1.3686
N7680 X-0.3602 Y-1.3634
N7685 X-0.3643 Y-1.359
N7690 X-0.3716 Y-1.3557
N7695 X-0.3795 Y-1.355
N7700 X-0.3873 Y-1.357
N7705 X-0.3939 Y-1.3615
N7710 X-0.3987 Y-1.3679
N7715 X-0.4011 Y-1.3755
N7720 X-0.4009 Y-1.3835
N7725 G3 X-0.3946 Y-1.396 I0.0304 J0.0074
N7730 X-0.3717 Y-1.4003 I0.014 J0.0115
N7735 X-0.3566 Y-1.3804 I-0.0153 J0.0272
N7740 G1 X-0.3536 Y-1.3655
N7745 X-0.3526 Y-1.3596
N7750 X-0.3536 Y-1.3537
N7755 X-0.3562 Y-1.3483
N7760 X-0.3599 Y-1.3435
N7765 X-0.367 Y-1.3392
N7770 X-0.375 Y-1.3371
N7775 X-0.3833 Y-1.3377
N7780 X-0.3911 Y-1.3407
N7785 X-0.3975 Y-1.346
N7790 X-0.402 Y-1.353
N7795 X-0.4042 Y-1.361
N7800 X-0.4038 Y-1.3693
N7805 G3 X-0.397 Y-1.3824 I0.0304 J0.0074
N7810 X-0.3794 Y-1.389 I0.0148 J0.0128
N7815 X-0.3536 Y-1.3655 I-0.0045 J0.0309
N7820 G1 X-0.3522 Y-1.3591
N7825 X-0.3499 Y-1.3499
N7830 X-0.3488 Y-1.3441
N7835 X-0.3494 Y-1.3381
N7840 X-0.3514 Y-1.3324
N7845 X-0.3547 Y-1.3274
N7850 X-0.3587 Y-1.323
N7855 X-0.367 Y-1.3186
N7860 X-0.3763 Y-1.3168
N7865 X-0.3856 Y-1.318
N7870 X-0.3942 Y-1.3219
N7875 X-0.4011 Y-1.3283
N7880 X-0.4058 Y-1.3364
N7885 X-0.4078 Y-1.3456
N7890 X-0.407 Y-1.355
N7895 G3 X-0.3901 Y-1.3655 I0.0142 J0.0041
N7900 G1 X-0.3811 Y-1.3638
N7905 X-0.3758 Y-1.3629
N7910 X-0.3616 Y-1.3604
N7915 G3 X-0.3499 Y-1.3499 I-0.0026 J0.0146
N7920 G1 X-0.3454 Y-1.332
N7925 X-0.3443 Y-1.3262
N7930 X-0.3446 Y-1.3202
N7935 X-0.3464 Y-1.3144
N7940 X-0.3492 Y-1.3091
N7945 X-0.3529 Y-1.3044
N7950 X-0.3572 Y-1.3003
N7955 X-0.3656 Y-1.296
N7960 X-0.3749 Y-1.2942
N7965 X-0.3843 Y-1.2948
N7970 X-0.3932 Y-1.298
N7975 X-0.4009 Y-1.3033
N7980 X-0.4069 Y-1.3106
N7985 X-0.4108 Y-1.3192
N7990 X-0.4123 Y-1.3285
N7995 X-0.4113 Y-1.3379
N8000 G3 X-0.3591 Y-1.3512 I0.03 J0.0087
N8005 G1 X-0.3533 Y-1.3454
N8010 G3 X-0.3454 Y-1.332 I-0.0222 J0.022
N8015 G1 X-0.3428 Y-1.3224
N8020 X-0.3405 Y-1.3132
N8025 X-0.3404 Y-1.3086
N8030 X-0.3405 Y-1.304
N8035 X-0.3415 Y-1.2994
N8040 X-0.3427 Y-1.2948
N8045 X-0.3439 Y-1.2921
N8050 X-0.3469 Y-1.2868
N8055 X-0.3476 Y-1.2857
N8060 X-0.3491 Y-1.2838
N8065 X-0.3509 Y-1.282
N8070 X-0.3546 Y-1.2783
N8075 X-0.3559 Y-1.2773
N8080 X-0.3571 Y-1.2765
N8085 X-0.3638 Y-1.2727
N8090 X-0.3684 Y-1.2713
N8095 X-0.373 Y-1.2701
N8100 X-0.3753 Y-1.2698
N8105 X-0.3822
N8110 X-0.3845 Y-1.27
N8115 X-0.3868 Y-1.2705
N8120 X-0.3914 Y-1.2717
N8125 X-0.3937 Y-1.2724
N8130 X-0.396 Y-1.2736
N8135 X-0.401 Y-1.2765
N8140 X-0.4032 Y-1.278
N8145 X-0.4054 Y-1.2801
N8150 X-0.4098 Y-1.2847
N8155 X-0.4105 Y-1.2857
N8160 X-0.4132 Y-1.2902
N8165 X-0.4145 Y-1.2925
N8170 X-0.4154 Y-1.2948
N8175 X-0.4167 Y-1.2994
N8180 X-0.4177 Y-1.304
N8185 Y-1.3086
N8190 X-0.4176 Y-1.3132
N8195 X-0.4153 Y-1.3224
N8200 X-0.4128 Y-1.3316
N8205 X-0.4059 Y-1.3591
N8210 X-0.4037 Y-1.3698
N8215 X-0.4021 Y-1.3775
N8220 X-0.4008 Y-1.3806 Z-0.1248
N8225 X-0.3995 Y-1.3836 Z-0.1243
N8230 X-0.3983 Y-1.3866 Z-0.1234
N8235 X-0.396 Y-1.3892 Z-0.1219
N8240 X-0.3938 Y-1.3917 Z-0.1201
N8245 X-0.3919 Y-1.394 Z-0.1178
N8250 X-0.3896 Y-1.3954 Z-0.1153
N8255 X-0.3876 Y-1.3966 Z-0.1125
N8260 X-0.3859 Y-1.3976 Z-0.1095
N8265 X-0.3845 Y-1.3985 Z-0.1062
N8270 X-0.3834 Y-1.3991 Z-0.1028
N8275 X-0.3828 Y-1.3994 Z-0.0999
N8280 X-0.3824 Y-1.3995 Z-0.097
N8285 X-0.3822 Y-1.3996 Z-0.0941
N8290 G0 Z0.2
N8295 X-2.6097 Y-1.7328
N8300 Z-0.0625
N8305 G1 Z-0.0937 F25.
N8310 X-2.61 Y-1.7327 Z-0.0978
N8315 X-2.6107 Y-1.7323 Z-0.1018
N8320 X-2.6119 Y-1.7317 Z-0.1057
N8325 X-2.6135 Y-1.7309 Z-0.1094
N8330 X-2.6155 Y-1.7298 Z-0.1128
N8335 X-2.6179 Y-1.7286 Z-0.1158
N8340 X-2.6206 Y-1.7272 Z-0.1185
N8345 X-2.6236 Y-1.7256 Z-0.1208
N8350 X-2.6269 Y-1.7239 Z-0.1226
N8355 X-2.6303 Y-1.7222 Z-0.1239
N8360 X-2.6339 Y-1.7203 Z-0.1247
N8365 X-2.6375 Y-1.7184 Z-0.125
N8370 G3 X-2.7977 Y-1.6562 I-0.3673 J-0.7082
N8375 G1 X-2.8018 Y-1.6552
N8380 X-2.811 Y-1.6529
N8385 X-2.8202 Y-1.6496
N8390 X-2.8294 Y-1.6459
N8395 X-2.8386 Y-1.6416
N8400 X-2.8508 Y-1.6346
N8405 X-2.857 Y-1.6307
N8410 X-2.8754 Y-1.6183
N8415 X-2.8906 Y-1.6092
N8420 X-2.9069 Y-1.6009
N8425 X-2.9278 Y-1.592
N8430 X-2.9552 Y-1.5827
N8435 X-2.9925 Y-1.573
N8440 X-3.0103 Y-1.5697
N8445 X-3.0235 Y-1.5683
N8450 X-3.0368 Y-1.5691
N8455 X-3.0497 Y-1.5719
N8460 X-3.0621 Y-1.5767
N8465 X-3.0735 Y-1.5834
N8470 X-3.0837 Y-1.5919
N8475 X-3.087 Y-1.5951
N8480 X-3.0962 Y-1.6033
N8485 X-3.1006 Y-1.6071
N8490 X-3.1146 Y-1.6171
N8495 X-3.133 Y-1.6293
N8500 G3 X-3.1404 Y-1.6729 Z-0.117 I0.0181 J-0.0255
N8505 X-3.1133 Y-1.686 I0.0255 J0.0181
N8510 G1 X-2.8922 Y-1.6748
N8515 G3 X-2.8685 Y-1.662 I-0.0016 J0.0312
N8520 X-2.8754 Y-1.6183 Z-0.125 I-0.0253 J0.0183
N8525 G1 X-2.8785 Y-1.6162
N8530 X-2.8846 Y-1.612
N8535 X-2.8938 Y-1.6049
N8540 X-2.9017 Y-1.5979
N8545 X-2.903 Y-1.5966
N8550 X-2.9111 Y-1.5887
N8555 X-2.9306 Y-1.5628
N8560 X-2.9378 Y-1.554
N8565 X-2.9436 Y-1.5477
N8570 X-2.9495 Y-1.5423
N8575 X-2.9564 Y-1.5367
N8580 X-2.9635 Y-1.5319
N8585 X-2.9752 Y-1.5264
N8590 X-2.9878 Y-1.5233
N8595 X-3.0007 Y-1.5226
N8600 X-3.0136 Y-1.5244
N8605 X-3.0258 Y-1.5285
N8610 X-3.0371 Y-1.5349
N8615 X-3.0469 Y-1.5433
N8620 X-3.055 Y-1.5535
N8625 X-3.06 Y-1.5612
N8630 X-3.0752 Y-1.581
N8635 X-3.0811 Y-1.5887
N8640 X-3.0837 Y-1.5919
N8645 G3 X-3.0781 Y-1.6357 Z-0.117 I0.0247 J-0.0191
N8650 X-3.05 Y-1.6409 I0.0191 J0.0247
N8655 G1 X-2.9476 Y-1.6103
N8660 X-2.9446 Y-1.6092
N8665 X-2.9417 Y-1.6078
N8670 X-2.939 Y-1.6062
N8675 G3 X-2.9306 Y-1.5628 Z-0.125 I-0.0175 J0.0259
N8680 G1 X-2.9318 Y-1.5612
N8685 X-2.9398 Y-1.5491
N8690 X-2.9497 Y-1.5336
N8695 X-2.9545 Y-1.5244
N8700 X-2.9565 Y-1.5201
N8705 X-2.9594 Y-1.5148
N8710 X-2.9674 Y-1.5064
N8715 X-2.9772 Y-1.5003
N8720 X-2.9883 Y-1.4969
N8725 X-2.9999 Y-1.4965
N8730 X-3.0112 Y-1.499
N8735 X-3.0215 Y-1.5044
N8740 X-3.03 Y-1.5123
N8745 X-3.0363 Y-1.522
N8750 G3 X-3.0347 Y-1.5581 Z-0.1189 I0.0384 J-0.0164
N8755 X-3.0278 Y-1.5676 Z-0.117 I0.0384 J0.0205
N8760 X-2.9635 Y-1.5661 I0.0315 J0.03
N8765 X-2.9565 Y-1.5201 Z-0.125 I-0.0328 J0.0285
N8770 G1 X-2.9582 Y-1.5166
N8775 X-2.9624 Y-1.5061
N8780 X-2.9645 Y-1.4987
N8785 X-2.9665 Y-1.4931
N8790 X-2.9695 Y-1.4878
N8795 X-2.9761 Y-1.4816
N8800 X-2.9842 Y-1.4774
N8805 X-2.9931 Y-1.4755
N8810 X-3.0022 Y-1.4761
N8815 X-3.0108 Y-1.4792
N8820 X-3.0183 Y-1.4844
N8825 X-3.024 Y-1.4915
N8830 X-3.0277 Y-1.4998
N8835 G3 X-3.0273 Y-1.5159 I0.03 J-0.0074
N8840 X-2.9645 Y-1.4987 I0.0312 J0.0091
N8845 G1 X-2.9651 Y-1.4969
N8850 X-2.9676 Y-1.4877
N8855 X-2.9698 Y-1.4785
N8860 X-2.9712 Y-1.4727
N8865 X-2.9762 Y-1.4661
N8870 X-2.983 Y-1.4613
N8875 X-2.9908 Y-1.4587
N8880 X-2.9991 Y-1.4586
N8885 X-3.0071 Y-1.4609
N8890 X-3.014 Y-1.4654
N8895 X-3.0193 Y-1.4718
N8900 X-3.0225 Y-1.4794
N8905 X-3.0268 Y-1.4969
N8910 X-3.0277 Y-1.4998
N8915 G3 X-3.0175 Y-1.5185 I0.0153 J-0.0038
N8920 X-2.9698 Y-1.4785 I0.0119 J0.0344
N8925 G1 X-2.9733 Y-1.4601
N8930 X-2.9747 Y-1.4543
N8935 X-2.9779 Y-1.4492
N8940 X-2.9839 Y-1.4448
N8945 X-2.991 Y-1.4424
N8950 X-2.9985 Y-1.4423
N8955 X-3.0057 Y-1.4445
N8960 X-3.0118 Y-1.4488
N8965 X-3.0164 Y-1.4548
N8970 X-3.0189 Y-1.4618
N8975 X-3.0203 Y-1.4693
N8980 X-3.0223 Y-1.4785
N8985 X-3.0225 Y-1.4794
N8990 G3 X-3.0133 Y-1.495 I0.013 J-0.0028
N8995 X-2.9733 Y-1.4601 I0.009 J0.03
N9000 G1 X-2.975 Y-1.451
N9005 X-2.9759 Y-1.4447
N9010 X-2.9769 Y-1.4388
N9015 X-2.98 Y-1.4336
N9020 X-2.9865 Y-1.4292
N9025 X-2.9942 Y-1.4275
N9030 X-3.002 Y-1.4287
N9035 X-3.0088 Y-1.4326
N9040 X-3.0137 Y-1.4386
N9045 X-3.0162 Y-1.4461
N9050 X-3.0163 Y-1.4481
N9055 X-3.016 Y-1.45
N9060 G3 X-2.9759 Y-1.4447 I0.02 J0.0034
N9065 G1 X-2.9762 Y-1.4418
N9070 X-2.977 Y-1.4311
N9075 X-2.9778 Y-1.4251
N9080 X-2.9807 Y-1.4198
N9085 X-2.9869 Y-1.4155
N9090 X-2.9943 Y-1.4138
N9095 X-3.0018 Y-1.415
N9100 X-3.0083 Y-1.4189
N9105 X-3.0129 Y-1.425
N9110 X-3.0149 Y-1.4323
N9115 Y-1.4338
N9120 G3 X-2.977 Y-1.4311 I0.0189 J0.002
N9125 G1 X-2.9776 Y-1.4234
N9130 Y-1.4184
N9135 X-2.978 Y-1.4124
N9140 X-2.9806 Y-1.4069
N9145 X-2.9858 Y-1.4029
N9150 X-2.992 Y-1.4009
N9155 X-2.9986 Y-1.401
N9160 X-3.0048 Y-1.4034
N9165 X-3.0098 Y-1.4077
N9170 X-3.0131 Y-1.4134
N9175 X-3.0142 Y-1.4199
N9180 X-3.014 Y-1.4214
N9185 G3 X-2.9776 Y-1.4184 I0.018 J0.0036
N9190 G1 X-2.9777 Y-1.4142
N9195 X-2.977 Y-1.4069
N9200 X-2.9767 Y-1.4009
N9205 X-2.9788 Y-1.3953
N9210 X-2.9824 Y-1.3905
N9215 X-2.9893 Y-1.387
N9220 X-2.997 Y-1.3864
N9225 X-3.0044 Y-1.3887
N9230 X-3.0104 Y-1.3937
N9235 X-3.014 Y-1.4005
N9240 X-3.0147 Y-1.4082
N9245 G3 X-3.0093 Y-1.4222 I0.031 J0.004
N9250 X-2.9846 Y-1.4236 I0.0129 J0.0091
N9255 X-2.977 Y-1.4069 I-0.0234 J0.0207
N9260 G1 X-2.9759 Y-1.3959
N9265 X-2.9756 Y-1.3931
N9270 X-2.9751 Y-1.3871
N9275 X-2.9771 Y-1.3814
N9280 X-2.9806 Y-1.3765
N9285 X-2.9869 Y-1.3728
N9290 X-2.9942 Y-1.3714
N9295 X-3.0014 Y-1.3725
N9300 X-3.0079 Y-1.376
N9305 X-3.0128 Y-1.3815
N9310 X-3.0156 Y-1.3883
N9315 X-3.0159 Y-1.3957
N9320 G3 X-3.0106 Y-1.4087 I0.0308 J0.0051
N9325 X-2.986 Y-1.4117 I0.0136 J0.0097
N9330 X-2.9756 Y-1.3931 I-0.0204 J0.0237
N9335 G1 X-2.9748 Y-1.3867
N9340 X-2.9735 Y-1.3804
N9345 X-2.9726 Y-1.3744
N9350 X-2.9739 Y-1.3686
N9355 X-2.9769 Y-1.3634
N9360 X-2.9809 Y-1.3589
N9365 X-2.9882 Y-1.3556
N9370 X-2.9962 Y-1.3548
N9375 X-3.004 Y-1.3568
N9380 X-3.0107 Y-1.3612
N9385 X-3.0156 Y-1.3676
N9390 X-3.018 Y-1.3753
N9395 X-3.0178 Y-1.3833
N9400 G3 X-3.0113 Y-1.3961 I0.0304 J0.0073
N9405 X-2.9884 Y-1.4002 I0.0139 J0.0117
N9410 X-2.9735 Y-1.3804 I-0.0155 J0.0272
N9415 G1 X-2.9701 Y-1.3636
N9420 X-2.9691 Y-1.3577
N9425 X-2.9707 Y-1.3519
N9430 X-2.9736 Y-1.3466
N9435 X-2.9804 Y-1.341
N9440 X-2.9887 Y-1.338
N9445 X-2.9976 Y-1.3377
N9450 X-3.006 Y-1.3404
N9455 X-3.0132 Y-1.3456
N9460 X-3.0183 Y-1.3528
N9465 X-3.0208 Y-1.3613
N9470 X-3.0205 Y-1.3701
N9475 X-3.0194 Y-1.3736
N9480 X-3.0179 Y-1.3769
N9485 G3 X-3.0011 Y-1.3875 I0.0172 J0.0088
N9490 X-2.9701 Y-1.3636 I0.0007 J0.0312
N9495 G1 X-2.9691 Y-1.3591
N9500 X-2.9668 Y-1.3499
N9505 X-2.9657 Y-1.3441
N9510 X-2.9664 Y-1.3381
N9515 X-2.9686 Y-1.3325
N9520 X-2.9718 Y-1.3275
N9525 X-2.9789 Y-1.3221
N9530 X-2.9871 Y-1.319
N9535 X-2.996 Y-1.3183
N9540 X-3.0046 Y-1.3202
N9545 X-3.0123 Y-1.3245
N9550 X-3.0185 Y-1.3309
N9555 X-3.0226 Y-1.3387
N9560 X-3.0243 Y-1.3474
N9565 X-3.0235 Y-1.3562
N9570 G3 X-3.006 Y-1.3666 I0.0142 J0.0041
N9575 G1 X-2.9977 Y-1.3647
N9580 X-2.9926 Y-1.3636
N9585 X-2.9778 Y-1.3602
N9590 G3 X-2.9668 Y-1.3499 I-0.0033 J0.0144
N9595 G1 X-2.9626 Y-1.3334
N9600 X-2.9615 Y-1.3275
N9605 X-2.9618 Y-1.3216
N9610 X-2.9635 Y-1.3158
N9615 X-2.9663 Y-1.3105
N9620 X-2.97 Y-1.3058
N9625 X-2.9781 Y-1.3001
N9630 X-2.9876 Y-1.297
N9635 X-2.9975 Y-1.2966
N9640 X-3.0071 Y-1.2991
N9645 X-3.0156 Y-1.3042
N9650 X-3.0224 Y-1.3114
N9655 X-3.0268 Y-1.3203
N9660 X-3.0286 Y-1.3301
N9665 X-3.0275 Y-1.34
N9670 G3 X-2.9975 Y-1.3624 I0.03 J0.0089
N9675 X-2.9726 Y-1.35 I0. J0.0313
N9680 G1 X-2.9677 Y-1.3435
N9685 G3 X-2.9626 Y-1.3334 I-0.0249 J0.0189
N9690 G1 X-2.9622 Y-1.3316
N9695 X-2.9582 Y-1.3172
N9700 X-2.9574 Y-1.3132
N9705 X-2.9573 Y-1.3086
N9710 Y-1.3072
N9715 X-2.9575 Y-1.303
N9720 G3 X-2.9751 Y-1.2901 I-0.0164 J-0.0041
N9725 X-2.973 Y-1.3235 I0.001 J-0.0167
N9730 X-2.9573 Y-1.3072 I-0.001 J0.0167
N9735 G1 Y-1.304
N9740 X-2.9578 Y-1.3017
N9745 X-2.9582 Y-1.2997
N9750 X-2.9586 Y-1.2982
N9755 X-2.9601 Y-1.2944
N9760 X-2.9617 Y-1.2906
N9765 X-2.9637 Y-1.287
N9770 X-2.9645 Y-1.2865
N9775 X-2.9655 Y-1.2863
N9780 X-2.9665 Y-1.2864
N9785 G3 X-2.9821 Y-1.2905 I0.2192 J-0.8616
N9790 X-2.9721 Y-1.3268 I0.005 J-0.0182
N9795 X-2.959 Y-1.3137 I-0.005 J0.0182
N9800 X-2.9586 Y-1.2982 I-0.03 J0.0084
N9805 G1 X-2.9596 Y-1.2948
N9810 X-2.9605 Y-1.2925
N9815 X-2.9618 Y-1.2902
N9820 X-2.9639 Y-1.2866
N9825 X-2.9645 Y-1.2857
N9830 X-2.9652 Y-1.2847
N9835 X-2.9675 Y-1.2822
N9840 X-2.9687 Y-1.2809
N9845 G3 X-2.9894 Y-1.3021 I-0.0101 J-0.0108
N9850 G1 X-2.9877 Y-1.3039
N9855 G3 X-2.9652 Y-1.2847 I0.0105 J0.0104
N9860 G1 X-2.9658 Y-1.2839
N9865 X-2.9684 Y-1.2813
N9870 X-2.9697 Y-1.28
N9875 X-2.9707 Y-1.279
N9880 X-2.9723 Y-1.2776
N9885 X-2.974 Y-1.2765
N9890 X-2.9766 Y-1.2749
N9895 X-2.9812 Y-1.2725
N9900 X-2.9858 Y-1.2711
N9905 X-2.9904 Y-1.27
N9910 X-2.995 Y-1.2698
N9915 X-2.9996
N9920 X-3.0019 Y-1.2701
N9925 X-3.0042 Y-1.2706
N9930 X-3.0088 Y-1.2719
N9935 X-3.0111 Y-1.2727
N9940 X-3.0134 Y-1.2739
N9945 X-3.0179 Y-1.2765
N9950 X-3.0191 Y-1.2772
N9955 X-3.0203 Y-1.2782
N9960 X-3.0226 Y-1.2805
N9965 X-3.0252 Y-1.2831
N9970 X-3.0264 Y-1.2844
N9975 X-3.0274 Y-1.2857
N9980 X-3.0297 Y-1.2896
N9985 X-3.0318 Y-1.2936
N9990 X-3.0323 Y-1.2948
N9995 X-3.0335 Y-1.2994
N10000 X-3.0345 Y-1.304
N10005 X-3.0346 Y-1.3086
N10010 X-3.0345 Y-1.3132
N10015 X-3.0322 Y-1.3224
N10020 X-3.0297 Y-1.3316
N10025 G3 X-3.0084 Y-1.3523 I0.0298 J0.0093
N10030 G1 X-3.0045 Y-1.3534 Z-0.1247
N10035 X-3.0006 Y-1.3545 Z-0.1239
N10040 X-2.9969 Y-1.3556 Z-0.1226
N10045 X-2.9934 Y-1.3566 Z-0.1208
N10050 X-2.9901 Y-1.3575 Z-0.1185
N10055 X-2.9872 Y-1.3584 Z-0.1158
N10060 X-2.9846 Y-1.3591 Z-0.1128
N10065 X-2.9824 Y-1.3597 Z-0.1094
N10070 X-2.9806 Y-1.3602 Z-0.1057
N10075 X-2.9794 Y-1.3606 Z-0.1018
N10080 X-2.9786 Y-1.3608 Z-0.0978
N10085 X-2.9784 Y-1.3609 Z-0.0937
N10090 G0 Z0.2
N10095 X0.041 Y1.6608
N10100 Z-0.0625
N10105 G1 Z-0.0937 F25.
N10110 X0.0411 Y1.6605 Z-0.0978
N10115 X0.0415 Y1.6599 Z-0.1018
N10120 X0.0421 Y1.6587 Z-0.1057
N10125 X0.043 Y1.6571 Z-0.1094
N10130 X0.0441 Y1.6552 Z-0.1128
N10135 X0.0455 Y1.6528 Z-0.1158
N10140 X0.047 Y1.6501 Z-0.1185
N10145 X0.0487 Y1.6472 Z-0.1208
N10150 X0.0505 Y1.644 Z-0.1226
N10155 X0.0524 Y1.6406 Z-0.1239
N10160 X0.0543 Y1.6371 Z-0.1247
N10165 X0.0564 Y1.6336 Z-0.125
N10170 G3 X0.0778 Y1.6113 I0.0542 J0.0307
N10175 G1 X0.2617 Y1.5061
N10180 X0.2828 Y1.4953
N10185 X0.3062 Y1.4855
N10190 X0.3365 Y1.4753
N10195 X0.3757 Y1.4651
N10200 X0.4155 Y1.4577
N10205 X0.4556 Y1.4522
N10210 X0.4959 Y1.4482
N10215 X0.5363 Y1.4452
N10220 X0.5767 Y1.443
N10225 X0.6171 Y1.4413
N10230 X0.6576 Y1.4401
N10235 X0.6981 Y1.4392
N10240 X0.7386 Y1.4385
N10245 X0.7791 Y1.438
N10250 X0.8195 Y1.4376
N10255 X0.86 Y1.4373
N10260 X0.9005 Y1.4371
N10265 X0.9815 Y1.4368
N10270 X1.1029 Y1.4365
N10275 X1.3054 Y1.4363
N10280 X2.2365 Y1.4359
N10285 X3.0057 Y1.4355
N10290 X3.0462 Y1.4338
N10295 X3.0843 Y1.4201
N10300 X3.1177 Y1.3972
N10305 X3.1457 Y1.368
N10310 X3.1686 Y1.3346
N10315 X3.1869 Y1.2985
N10320 X3.2014 Y1.2607
N10325 X3.2128 Y1.2218
N10330 X3.2216 Y1.1823
N10335 X3.2283 Y1.1424
N10340 X3.2335 Y1.1023
N10345 X3.2374 Y1.062
N10350 X3.2404 Y1.0216
N10355 X3.2427 Y0.9812
N10360 X3.2444 Y0.9407
N10365 X3.2457 Y0.9002
N10370 X3.2467 Y0.8598
N10375 X3.2474 Y0.8193
N10380 X3.2479 Y0.7788
N10385 X3.2483 Y0.7383
N10390 X3.2486 Y0.6978
N10395 X3.2488 Y0.6574
N10400 X3.249 Y0.6169
N10405 X3.2492 Y0.5359
N10410 X3.2494 Y0.4145
N10415 Y0.3335
N10420 Y-0.0309
N10425 Y-0.168
N10430 X3.2506 Y-0.1819
N10435 X3.254 Y-0.1955
N10440 X3.2598 Y-0.2083
N10445 X3.2675 Y-0.2199
N10450 X3.2771 Y-0.2301
N10455 X3.2868 Y-0.2388
N10460 X3.2886 Y-0.2405
N10465 X3.3041 Y-0.2571
N10470 X3.3295 Y-0.2847
N10475 X3.3346 Y-0.2904
N10480 X3.3376 Y-0.2939
N10485 X3.3438 Y-0.3016
N10490 X3.357 Y-0.3214
N10495 X3.3622 Y-0.3294
N10500 X3.3706 Y-0.3434
N10505 X3.3795 Y-0.3581 Z-0.1222
N10510 X3.3863 Y-0.3696 Z-0.12
N10515 X3.3904 Y-0.3765 Z-0.1187
N10520 X3.3951 Y-0.3857 Z-0.117
N10525 X3.3952 Y-0.3859
N10530 X3.3988 Y-0.3949
N10535 X3.4058 Y-0.4132
N10540 X3.4082 Y-0.4197
N10545 X3.4188 Y-0.45
N10550 X3.4219 Y-0.4592
N10555 X3.4266 Y-0.4738
N10560 X3.4276 Y-0.4775
N10565 X3.4324 Y-0.5051
N10570 X3.4337 Y-0.5143
N10575 X3.4361 Y-0.5326
N10580 X3.4373 Y-0.5418
N10585 X3.4397 Y-0.5602
N10590 X3.4404 Y-0.5694
N10595 X3.4405 Y-0.5877
N10600 X3.4404 Y-0.5969
N10605 X3.4365 Y-0.652
N10610 X3.4358 Y-0.6575
N10615 X3.4325 Y-0.6796
N10620 X3.4304 Y-0.6887
N10625 X3.4253 Y-0.7071
N10630 X3.4228 Y-0.7163
N10635 X3.42 Y-0.7263
N10640 X3.4174 Y-0.7354 Z-0.1185
N10645 X3.4149 Y-0.7438 Z-0.12
N10650 X3.4148 Y-0.7441
N10655 X3.4057 Y-0.7714 Z-0.1247
N10660 X3.4049 Y-0.7729 Z-0.125
N10665 X3.399 Y-0.7848
N10670 X3.3919 Y-0.7989
N10675 X3.3871 Y-0.8081
N10680 X3.3776 Y-0.8265
N10685 X3.3726 Y-0.8357
N10690 X3.3621 Y-0.854
N10695 X3.3555 Y-0.8632
N10700 X3.3407 Y-0.8816
N10705 X3.3276 Y-0.8997
N10710 X3.3189 Y-0.9137
N10715 X3.3096 Y-0.9314
N10720 X3.2999 Y-0.9537
N10725 X3.2898 Y-0.9825
N10730 X3.2793 Y-1.0209
N10735 X3.2714 Y-1.0607
N10740 X3.2657 Y-1.1007
N10745 X3.2614 Y-1.141
N10750 X3.2582 Y-1.1814
N10755 X3.2559 Y-1.2218
N10760 X3.2448 Y-1.2607
N10765 X3.224 Y-1.2954
N10770 X3.1963 Y-1.325
N10775 X3.1639 Y-1.3493
N10780 X3.1285 Y-1.3689
N10785 X3.0912 Y-1.3845
N10790 X3.0526 Y-1.3967
N10795 X3.0132 Y-1.4062
N10800 X2.9734 Y-1.4136
N10805 X2.9333 Y-1.4192
N10810 X2.8931 Y-1.4235
N10815 X2.8527 Y-1.4268
N10820 X2.8123 Y-1.4293
N10825 X2.7719 Y-1.4312
N10830 X2.7314 Y-1.4326
N10835 X2.6909 Y-1.4337
N10840 X2.6504 Y-1.4345
N10845 X2.61 Y-1.4351
N10850 X2.5695 Y-1.4355
N10855 X2.529 Y-1.4359
N10860 X2.4885 Y-1.4361
N10865 X2.448 Y-1.4363
N10870 X2.3671 Y-1.4365
N10875 X2.2456 Y-1.4367
N10880 X2.0432 Y-1.4368
N10885 X1.7193
N10890 X0.3023 Y-1.4367
N10895 X0.2635 Y-1.4378
N10900 X0.2494 Y-1.4393
N10905 X0.2357 Y-1.4418
N10910 X0.2226 Y-1.4466
N10915 X0.2105 Y-1.4535
N10920 X0.1998 Y-1.4623
N10925 X0.1906 Y-1.4728
N10930 X0.1834 Y-1.4847
N10935 X0.1782 Y-1.4976
N10940 X0.1756 Y-1.5061
N10945 X0.1719 Y-1.5152
N10950 X0.1698 Y-1.5202
N10955 X0.1677 Y-1.5244
N10960 X0.1629 Y-1.5336
N10965 X0.1511 Y-1.552
N10970 X0.145 Y-1.5612
N10975 X0.138 Y-1.5703
N10980 X0.1316 Y-1.5788
N10985 X0.1301 Y-1.5818 Z-0.1248
N10990 X0.1286 Y-1.5847 Z-0.1243
N10995 X0.1272 Y-1.5876 Z-0.1234
N11000 X0.1267 Y-1.5909 Z-0.122
N11005 X0.1262 Y-1.594 Z-0.1203
N11010 X0.1258 Y-1.5969 Z-0.1182
N11015 X0.1263 Y-1.6 Z-0.1153
N11020 X0.1267 Y-1.6027 Z-0.112
N11025 X0.1271 Y-1.6049 Z-0.1083
N11030 X0.1274 Y-1.6066 Z-0.1043
N11035 X0.1277 Y-1.6075 Z-0.101
N11040 X0.1279 Y-1.608 Z-0.0975
N11045 Y-1.6082 Z-0.0941
N11050 G0 Z0.2
N11055 X0.2249 Y1.5555
N11060 Z-0.0625
N11065 G1 Z-0.0937 F25.
N11070 X0.225 Y1.5553 Z-0.0978
N11075 X0.2254 Y1.5546 Z-0.1018
N11080 X0.2261 Y1.5535 Z-0.1057
N11085 X0.227 Y1.5519 Z-0.1094
N11090 X0.2281 Y1.5499 Z-0.1128
N11095 X0.2294 Y1.5476 Z-0.1158
N11100 X0.2309 Y1.5449 Z-0.1185
N11105 X0.2326 Y1.5419 Z-0.1208
N11110 X0.2344 Y1.5388 Z-0.1226
N11115 X0.2363 Y1.5354 Z-0.1239
N11120 X0.2383 Y1.5319 Z-0.1247
N11125 X0.2403 Y1.5283 Z-0.125
N11130 G3 X0.2617 Y1.5061 I0.0542 J0.0307
N11135 G1 X0.4458 Y1.4008
N11140 X0.4731 Y1.3869
N11145 X0.4968 Y1.3769
N11150 X0.5276 Y1.3665
N11155 X0.5668 Y1.3564
N11160 X0.6066 Y1.3489
N11165 X0.6467 Y1.3434
N11170 X0.687 Y1.3393
N11175 X0.7273 Y1.3362
N11180 X0.7677 Y1.3339
N11185 X0.8082 Y1.3322
N11190 X0.8487 Y1.3309
N11195 X0.8891 Y1.3299
N11200 X0.9296 Y1.3292
N11205 X0.9701 Y1.3287
N11210 X1.0106 Y1.3282
N11215 X1.0511 Y1.3279
N11220 X1.0915 Y1.3277
N11225 X1.132 Y1.3275
N11230 X1.213 Y1.3272
N11235 X1.3345 Y1.327
N11240 X1.5774 Y1.3268
N11245 X2.4276 Y1.3264
N11250 X2.8729 Y1.3262
N11255 X2.9133 Y1.3246
N11260 X2.9521 Y1.313
N11265 X2.9871 Y1.2926
N11270 X3.0173 Y1.2656
N11275 X3.0425 Y1.234
N11280 X3.0632 Y1.1992
N11285 X3.0799 Y1.1623
N11290 X3.0933 Y1.1241
N11295 X3.1038 Y1.085
N11300 X3.1121 Y1.0454
N11305 X3.1186 Y1.0054
N11310 X3.1236 Y0.9652
N11315 X3.1275 Y0.9249
N11320 X3.1305 Y0.8845
N11325 X3.1327 Y0.8441
N11330 X3.1345 Y0.8037
N11335 X3.1359 Y0.7632
N11340 X3.1369 Y0.7227
N11345 X3.1377 Y0.6823
N11350 X3.1383 Y0.6418
N11355 X3.1387 Y0.6013
N11360 X3.139 Y0.5608
N11365 X3.1393 Y0.5203
N11370 X3.1395 Y0.4798
N11375 X3.1397 Y0.3989
N11380 X3.1399 Y0.2774
N11385 X3.14 Y0.075
N11390 Y-0.0465
N11395 X3.1405 Y-0.0869
N11400 X3.1426 Y-0.1178
N11405 X3.1457 Y-0.1298
N11410 X3.1515 Y-0.1407
N11415 X3.1595 Y-0.1501
N11420 X3.1695 Y-0.1574
N11425 X3.1833 Y-0.1653
N11430 X3.2058 Y-0.1785
N11435 X3.2138 Y-0.1837
N11440 X3.2522 Y-0.2112
N11445 X3.2702 Y-0.2243
N11450 X3.2766 Y-0.2296
N11455 X3.2771 Y-0.2301
N11460 G3 X3.3062 Y-0.236 I0.02 J0.024
N11465 G1 X3.3101 Y-0.2348 Z-0.1247
N11470 X3.314 Y-0.2336 Z-0.1239
N11475 X3.3177 Y-0.2325 Z-0.1226
N11480 X3.3212 Y-0.2315 Z-0.1208
N11485 X3.3244 Y-0.2305 Z-0.1185
N11490 X3.3274 Y-0.2296 Z-0.1158
N11495 X3.3299 Y-0.2288 Z-0.1128
N11500 X3.3321 Y-0.2281 Z-0.1094
N11505 X3.3338 Y-0.2276 Z-0.1057
N11510 X3.3351 Y-0.2272 Z-0.1018
N11515 X3.3359 Y-0.227 Z-0.0978
N11520 X3.3361 Y-0.2269 Z-0.0937
N11525 G0 Z0.2
N11530 X3.3954 Y-0.853
N11535 Z-0.0625
N11540 G1 Z-0.0937 F25.
N11545 X3.3951 Y-0.8531 Z-0.0978
N11550 X3.3944 Y-0.8534 Z-0.1018
N11555 X3.3931 Y-0.8538 Z-0.1057
N11560 X3.3914 Y-0.8544 Z-0.1094
N11565 X3.3893 Y-0.8552 Z-0.1128
N11570 X3.3868 Y-0.8562 Z-0.1158
N11575 X3.3839 Y-0.8573 Z-0.1185
N11580 X3.3807 Y-0.8585 Z-0.1208
N11585 X3.3773 Y-0.8597 Z-0.1226
N11590 X3.3737 Y-0.8611 Z-0.1239
N11595 X3.3699 Y-0.8625 Z-0.1247
N11600 X3.3661 Y-0.8639 Z-0.125
N11605 G3 X3.3407 Y-0.8816 I0.0218 J-0.0584
N11610 G1 X3.3333 Y-0.8908
N11615 X3.3108 Y-0.9183
N11620 X3.307 Y-0.9227
N11625 X3.3025 Y-0.9275
N11630 X3.2934 Y-0.9367
N11635 X3.2518 Y-0.9783
N11640 X3.2394 Y-0.992
N11645 X3.2305 Y-1.0034
N11650 X3.2208 Y-1.0179
N11655 X3.2108 Y-1.0354
N11660 X3.2002 Y-1.0575
N11665 X3.1853 Y-1.0952
N11670 X3.1695 Y-1.1324
N11675 X3.1476 Y-1.1665
N11680 X3.1204 Y-1.1965
N11685 X3.089 Y-1.2221
N11690 X3.0546 Y-1.2434
N11695 X3.0181 Y-1.2609
N11700 X2.9802 Y-1.2751
N11705 X2.9413 Y-1.2865
N11710 X2.9019 Y-1.2956
N11715 X2.862 Y-1.3027
N11720 X2.8219 Y-1.3083
N11725 X2.7817 Y-1.3127
N11730 X2.7414 Y-1.3161
N11735 X2.701 Y-1.3187
N11740 X2.6605 Y-1.3208
N11745 X2.6201 Y-1.3224
N11750 X2.5796 Y-1.3236
N11755 X2.5391 Y-1.3245
N11760 X2.4986 Y-1.3252
N11765 X2.4582 Y-1.3257
N11770 X2.4177 Y-1.3262
N11775 X2.3772 Y-1.3265
N11780 X2.3367 Y-1.3267
N11785 X2.2962 Y-1.3269
N11790 X2.2153 Y-1.3271
N11795 X2.0938 Y-1.3273
N11800 X1.8914 Y-1.3274
N11805 X1.4056
N11810 X0.4339 Y-1.3273
N11815 X0.3934 Y-1.3274
N11820 X0.3529 Y-1.328
N11825 X0.3165 Y-1.33
N11830 X0.2903 Y-1.3333
N11835 X0.2679 Y-1.3379
N11840 X0.2482 Y-1.3433
N11845 X0.2463 Y-1.344
N11850 X0.2335 Y-1.3498
N11855 X0.2219 Y-1.3576
N11860 X0.2118 Y-1.3673
N11865 X0.2034 Y-1.3786
N11870 X0.1971 Y-1.3911
N11875 X0.1929 Y-1.4045
N11880 X0.191 Y-1.4184
N11885 X0.1908 Y-1.4234
N11890 X0.1895 Y-1.4418
N11895 X0.1882 Y-1.4512
N11900 X0.1847 Y-1.4693
N11905 X0.1828 Y-1.4785
N11910 X0.1809 Y-1.4877
N11915 X0.1787 Y-1.496
N11920 X0.1782 Y-1.4976
N11925 G3 X0.1849 Y-1.5265 I0.0302 J-0.0082
N11930 G1 X0.1876 Y-1.5295 Z-0.1247
N11935 X0.1903 Y-1.5325 Z-0.1239
N11940 X0.1929 Y-1.5354 Z-0.1226
N11945 X0.1953 Y-1.5382 Z-0.1208
N11950 X0.1976 Y-1.5407 Z-0.1185
N11955 X0.1996 Y-1.543 Z-0.1158
N11960 X0.2014 Y-1.545 Z-0.1128
N11965 X0.2029 Y-1.5467 Z-0.1094
N11970 X0.2041 Y-1.5481 Z-0.1057
N11975 X0.205 Y-1.5491 Z-0.1018
N11980 X0.2055 Y-1.5497 Z-0.0978
N11985 X0.2057 Y-1.5499 Z-0.0937
N11990 G0 Z0.2
N11995 X0.409 Y1.4503
N12000 Z-0.0625
N12005 G1 Z-0.0937 F25.
N12010 X0.4091 Y1.45 Z-0.0978
N12015 X0.4095 Y1.4493 Z-0.1018
N12020 X0.4101 Y1.4482 Z-0.1057
N12025 X0.411 Y1.4466 Z-0.1094
N12030 X0.4121 Y1.4446 Z-0.1128
N12035 X0.4135 Y1.4423 Z-0.1158
N12040 X0.415 Y1.4396 Z-0.1185
N12045 X0.4167 Y1.4367 Z-0.1208
N12050 X0.4185 Y1.4335 Z-0.1226
N12055 X0.4204 Y1.4301 Z-0.1239
N12060 X0.4223 Y1.4266 Z-0.1247
N12065 X0.4244 Y1.4231 Z-0.125
N12070 G3 X0.4458 Y1.4008 I0.0542 J0.0307
N12075 G1 X0.639 Y1.2902
N12080 X0.6634 Y1.2778
N12085 X0.6873 Y1.2678
N12090 X0.7182 Y1.2573
N12095 X0.7574 Y1.2472
N12100 X0.7972 Y1.2397
N12105 X0.8373 Y1.2341
N12110 X0.8776 Y1.23
N12115 X0.918 Y1.2269
N12120 X0.9584 Y1.2246
N12125 X0.9988 Y1.2229
N12130 X1.0393 Y1.2216
N12135 X1.0798 Y1.2206
N12140 X1.1202 Y1.2198
N12145 X1.1607 Y1.2193
N12150 X1.2012 Y1.2188
N12155 X1.2417 Y1.2185
N12160 X1.2822 Y1.2183
N12165 X1.3227 Y1.2181
N12170 X1.4036 Y1.2178
N12175 X1.5251 Y1.2176
N12180 X1.7275 Y1.2174
N12185 X2.6182 Y1.217
N12190 X2.7396 Y1.2169
N12195 X2.7801 Y1.2166
N12200 X2.8198 Y1.2084
N12205 X2.8565 Y1.1913
N12210 X2.8889 Y1.167
N12215 X2.9165 Y1.1374
N12220 X2.9396 Y1.1042
N12225 X2.9586 Y1.0684
N12230 X2.9739 Y1.0309
N12235 X2.9862 Y0.9924
N12240 X2.996 Y0.9531
N12245 X3.0037 Y0.9133
N12250 X3.0098 Y0.8733
N12255 X3.0145 Y0.8331
N12260 X3.0182 Y0.7928
N12265 X3.0211 Y0.7524
N12270 X3.0233 Y0.712
N12275 X3.025 Y0.6715
N12280 X3.0263 Y0.6311
N12285 X3.0274 Y0.5906
N12290 X3.0281 Y0.5501
N12295 X3.0287 Y0.5096
N12300 X3.0292 Y0.4692
N12305 X3.0296 Y0.4287
N12310 X3.0298 Y0.3882
N12315 X3.03 Y0.3477
N12320 X3.0303 Y0.2667
N12325 X3.0305 Y0.1858
N12330 X3.0306 Y0.0643
N12335 X3.0307 Y0.0238
N12340 X3.0314 Y-0.0167
N12345 X3.0327 Y-0.0361
N12350 X3.0347 Y-0.0497
N12355 X3.0389 Y-0.0627
N12360 X3.0452 Y-0.0749
N12365 X3.0534 Y-0.0858
N12370 X3.0632 Y-0.0953
N12375 X3.0745 Y-0.1031
N12380 X3.1695 Y-0.1574
N12385 G3 X3.1991 Y-0.1571 I0.0146 J0.0277
N12390 G1 X3.2027 Y-0.1551 Z-0.1247
N12395 X3.2062 Y-0.1532 Z-0.1239
N12400 X3.2096 Y-0.1513 Z-0.1226
N12405 X3.2128 Y-0.1495 Z-0.1208
N12410 X3.2158 Y-0.1479 Z-0.1185
N12415 X3.2185 Y-0.1464 Z-0.1158
N12420 X3.2208 Y-0.1451 Z-0.1128
N12425 X3.2228 Y-0.144 Z-0.1094
N12430 X3.2244 Y-0.1431 Z-0.1057
N12435 X3.2256 Y-0.1425 Z-0.1018
N12440 X3.2263 Y-0.1421 Z-0.0978
N12445 X3.2265 Y-0.142 Z-0.0937
N12450 G0 Z0.2
N12455 X3.3092 Y-0.9558
N12460 Z-0.0625
N12465 G1 Z-0.0937 F25.
N12470 X3.309 Y-0.9559 Z-0.0978
N12475 X3.3082 Y-0.9561 Z-0.1018
N12480 X3.3069 Y-0.9564 Z-0.1057
N12485 X3.3052 Y-0.9568 Z-0.1094
N12490 X3.303 Y-0.9574 Z-0.1128
N12495 X3.3003 Y-0.9581 Z-0.1158
N12500 X3.2974 Y-0.9588 Z-0.1185
N12505 X3.2941 Y-0.9596 Z-0.1208
N12510 X3.2905 Y-0.9606 Z-0.1226
N12515 X3.2868 Y-0.9615 Z-0.1239
N12520 X3.2829 Y-0.9625 Z-0.1247
N12525 X3.2789 Y-0.9635 Z-0.125
N12530 G3 X3.2518 Y-0.9783 I0.0154 J-0.0604
N12535 G1 X3.2108 Y-1.0193
N12540 X3.2006 Y-1.0285
N12545 X3.1966 Y-1.0318
N12550 X3.1874 Y-1.0387
N12555 X3.1782 Y-1.0449
N12560 X3.1598 Y-1.057
N12565 X3.1506 Y-1.0629
N12570 X3.1462 Y-1.0653
N12575 X3.1115 Y-1.0862
N12580 X3.0759 Y-1.1055
N12585 X3.0396 Y-1.1235
N12590 X3.0024 Y-1.1395
N12595 X2.9644 Y-1.1534
N12600 X2.9257 Y-1.1653
N12605 X2.8865 Y-1.1753
N12610 X2.8469 Y-1.1837
N12615 X2.807 Y-1.1905
N12620 X2.7669 Y-1.1961
N12625 X2.7267 Y-1.2007
N12630 X2.6864 Y-1.2043
N12635 X2.646 Y-1.2072
N12640 X2.6056 Y-1.2096
N12645 X2.5651 Y-1.2114
N12650 X2.5247 Y-1.2129
N12655 X2.4842 Y-1.214
N12660 X2.4437 Y-1.2149
N12665 X2.4032 Y-1.2156
N12670 X2.3627 Y-1.2162
N12675 X2.3223 Y-1.2166
N12680 X2.2818 Y-1.2169
N12685 X2.2413 Y-1.2172
N12690 X2.2008 Y-1.2174
N12695 X2.1198 Y-1.2177
N12700 X2.0389 Y-1.2178
N12705 X1.9174 Y-1.218
N12710 X1.6745
N12715 X1.1887
N12720 X0.5409 Y-1.2179
N12725 X0.5004 Y-1.218
N12730 X0.46 Y-1.2182
N12735 X0.4195 Y-1.2189
N12740 X0.379 Y-1.2207
N12745 X0.3387 Y-1.2242
N12750 X0.3077 Y-1.229
N12755 X0.2836 Y-1.2345
N12760 X0.2638 Y-1.2406
N12765 X0.2453 Y-1.2477
N12770 X0.2391 Y-1.2507
N12775 X0.2256 Y-1.2586
N12780 X0.2138 Y-1.269
N12785 X0.2042 Y-1.2814
N12790 X0.1971 Y-1.2954
N12795 X0.1927 Y-1.3104
N12800 X0.1913 Y-1.326
N12805 Y-1.4142
N12810 X0.191 Y-1.4184
N12815 Y-1.4188
N12820 Y-1.4189
N12825 X0.1916 Y-1.4222 Z-0.1248
N12830 X0.1921 Y-1.4254 Z-0.1242
N12835 X0.1926 Y-1.4286 Z-0.1232
N12840 X0.1942 Y-1.4317 Z-0.1217
N12845 X0.1957 Y-1.4346 Z-0.1198
N12850 X0.1971 Y-1.4373 Z-0.1175
N12855 X0.1991 Y-1.4393 Z-0.1148
N12860 X0.2008 Y-1.441 Z-0.1117
N12865 X0.2022 Y-1.4424 Z-0.1084
N12870 X0.2033 Y-1.4435 Z-0.1049
N12875 X0.2041 Y-1.4443 Z-0.1012
N12880 X0.2046 Y-1.4446 Z-0.0976
N12885 X0.2048 Y-1.4447 Z-0.0941
N12890 G0 Z0.2
N12895 X0.6022 Y1.3397
N12900 Z-0.0625
N12905 G1 Z-0.0937 F25.
N12910 X0.6023 Y1.3395 Z-0.0978
N12915 X0.6027 Y1.3388 Z-0.1018
N12920 X0.6033 Y1.3377 Z-0.1057
N12925 X0.6042 Y1.3361 Z-0.1094
N12930 X0.6053 Y1.3341 Z-0.1128
N12935 X0.6067 Y1.3318 Z-0.1158
N12940 X0.6082 Y1.3291 Z-0.1185
N12945 X0.6099 Y1.3261 Z-0.1208
N12950 X0.6117 Y1.3229 Z-0.1226
N12955 X0.6136 Y1.3196 Z-0.1239
N12960 X0.6155 Y1.3161 Z-0.1247
N12965 X0.6176 Y1.3125 Z-0.125
N12970 G3 X0.639 Y1.2902 I0.0542 J0.0307
N12975 G1 X0.8322 Y1.1797
N12980 X0.8543 Y1.1685
N12985 X0.8782 Y1.1585
N12990 X0.9092 Y1.148
N12995 X0.9484 Y1.1378
N13000 X0.9881 Y1.1303
N13005 X1.0282 Y1.1248
N13010 X1.0685 Y1.1206
N13015 X1.1089 Y1.1175
N13020 X1.1493 Y1.1152
N13025 X1.1897 Y1.1135
N13030 X1.2302 Y1.1121
N13035 X1.2707 Y1.1112
N13040 X1.3112 Y1.1104
N13045 X1.3516 Y1.1098
N13050 X1.3921 Y1.1094
N13055 X1.4326 Y1.1091
N13060 X1.4731 Y1.1088
N13065 X1.5136 Y1.1086
N13070 X1.5945 Y1.1084
N13075 X1.716 Y1.1081
N13080 X1.9184 Y1.1079
N13085 X2.6067 Y1.1076
N13090 X2.6472
N13095 X2.6874 Y1.103
N13100 X2.7256 Y1.0897
N13105 X2.7602 Y1.0686
N13110 X2.7903 Y1.0416
N13115 X2.8158 Y1.0101
N13120 X2.837 Y0.9756
N13125 X2.8544 Y0.9391
N13130 X2.8684 Y0.9011
N13135 X2.8797 Y0.8622
N13140 X2.8887 Y0.8227
N13145 X2.8958 Y0.7829
N13150 X2.9014 Y0.7428
N13155 X2.9059 Y0.7025
N13160 X2.9093 Y0.6622
N13165 X2.912 Y0.6218
N13170 X2.9141 Y0.5814
N13175 X2.9157 Y0.5409
N13180 X2.917 Y0.5005
N13185 X2.918 Y0.46
N13190 X2.9188 Y0.4195
N13195 X2.9193 Y0.379
N13200 X2.9198 Y0.3385
N13205 X2.9201 Y0.2981
N13210 X2.9204 Y0.2576
N13215 X2.9206 Y0.2171
N13220 X2.9209 Y0.1361
N13225 X2.9212 Y0.0956
N13230 X2.9221 Y0.0552
N13235 X2.9244 Y0.0217
N13240 X2.9247 Y0.0196
N13245 X2.9282 Y0.0049
N13250 X2.9343 Y-0.0089
N13255 X2.9428 Y-0.0215
N13260 X2.9534 Y-0.0322
N13265 X2.9658 Y-0.0409
N13270 X3.0745 Y-0.1031
N13275 G3 X3.1042 Y-0.1028 I0.0146 J0.0277
N13280 G1 X3.1077 Y-0.1008 Z-0.1247
N13285 X3.1112 Y-0.0989 Z-0.1239
N13290 X3.1146 Y-0.097 Z-0.1226
N13295 X3.1178 Y-0.0952 Z-0.1208
N13300 X3.1208 Y-0.0936 Z-0.1185
N13305 X3.1235 Y-0.0921 Z-0.1158
N13310 X3.1259 Y-0.0908 Z-0.1128
N13315 X3.1279 Y-0.0897 Z-0.1094
N13320 X3.1294 Y-0.0888 Z-0.1057
N13325 X3.1306 Y-0.0882 Z-0.1018
N13330 X3.1313 Y-0.0878 Z-0.0978
N13335 X3.1315 Y-0.0877 Z-0.0937
N13340 G0 Z0.2
N13345 X3.2076 Y-1.0603
N13350 Z-0.0625
N13355 G1 Z-0.0937 F25.
N13360 X3.2074 Z-0.0978
N13365 X3.2066 Y-1.0602 Z-0.1018
N13370 X3.2053 Z-0.1057
N13375 X3.2035 Y-1.0601 Z-0.1094
N13380 X3.2012 Y-1.06 Z-0.1128
N13385 X3.1985 Y-1.0599 Z-0.1158
N13390 X3.1954 Y-1.0597 Z-0.1185
N13395 X3.192 Y-1.0596 Z-0.1208
N13400 X3.1884 Y-1.0594 Z-0.1226
N13405 X3.1845 Y-1.0593 Z-0.1239
N13410 X3.1805 Y-1.0591 Z-0.1247
N13415 X3.1764 Y-1.0589 Z-0.125
N13420 G3 X3.1462 Y-1.0653 I-0.0027 J-0.0622
N13425 G1 X3.1414 Y-1.0678
N13430 X3.1322 Y-1.0719
N13435 X3.1262 Y-1.0744
N13440 X3.123 Y-1.0756
N13445 X3.0954 Y-1.083
N13450 X3.0678 Y-1.0885
N13455 X3.0586 Y-1.0895
N13460 X3.0402 Y-1.0912
N13465 X3.031 Y-1.0914
N13470 X2.8654
N13475 X2.825 Y-1.0935
N13480 X2.7845 Y-1.094
N13485 X2.744 Y-1.0951
N13490 X2.7035 Y-1.0966
N13495 X2.6631 Y-1.0982
N13500 X2.6226 Y-1.0997
N13505 X2.5822 Y-1.1011
N13510 X2.5417 Y-1.1023
N13515 X2.5012 Y-1.1034
N13520 X2.4608 Y-1.1044
N13525 X2.4203 Y-1.1052
N13530 X2.3798 Y-1.1058
N13535 X2.3393 Y-1.1064
N13540 X2.2988 Y-1.1068
N13545 X2.2584 Y-1.1072
N13550 X2.2179 Y-1.1075
N13555 X2.1774 Y-1.1078
N13560 X2.0964 Y-1.1081
N13565 X2.0154 Y-1.1083
N13570 X1.894 Y-1.1085
N13575 X1.6916 Y-1.1086
N13580 X1.1248
N13585 X0.8819
N13590 X0.5985
N13595 X0.558 Y-1.1087
N13600 X0.5175 Y-1.109
N13605 X0.477 Y-1.1097
N13610 X0.4366 Y-1.1112
N13615 X0.3962 Y-1.114
N13620 X0.3559 Y-1.1184
N13625 X0.3173 Y-1.125
N13630 X0.2883 Y-1.1321
N13635 X0.2662 Y-1.1393
N13640 X0.2466 Y-1.1472
N13645 X0.2378 Y-1.1516
N13650 X0.2246 Y-1.1596
N13655 X0.2132 Y-1.17
N13660 X0.2038 Y-1.1823
N13665 X0.1969 Y-1.1961
N13670 X0.1927 Y-1.211
N13675 X0.1913 Y-1.2263
N13680 Y-1.326
N13685 G3 X0.2062 Y-1.3516 I0.0312 J0.0011
N13690 G1 X0.2097 Y-1.3538 Z-0.1247
N13695 X0.2132 Y-1.3559 Z-0.1239
N13700 X0.2165 Y-1.3579 Z-0.1226
N13705 X0.2196 Y-1.3598 Z-0.1208
N13710 X0.2225 Y-1.3615 Z-0.1185
N13715 X0.2251 Y-1.3631 Z-0.1158
N13720 X0.2274 Y-1.3645 Z-0.1128
N13725 X0.2294 Y-1.3657 Z-0.1094
N13730 X0.2309 Y-1.3667 Z-0.1057
N13735 X0.232 Y-1.3673 Z-0.1018
N13740 X0.2327 Y-1.3677 Z-0.0978
N13745 X0.2329 Y-1.3679 Z-0.0937
N13750 G0 Z0.2
N13755 X2.9219 Y-1.1161
N13760 Z-0.0625
N13765 G1 Z-0.0937 F25.
N13770 X2.9217 Y-1.116 Z-0.0978
N13775 X2.921 Y-1.1156 Z-0.1018
N13780 X2.9199 Y-1.1149 Z-0.1057
N13785 X2.9183 Y-1.114 Z-0.1094
N13790 X2.9164 Y-1.1128 Z-0.1128
N13795 X2.914 Y-1.1115 Z-0.1158
N13800 X2.9114 Y-1.1099 Z-0.1185
N13805 X2.9085 Y-1.1081 Z-0.1208
N13810 X2.9053 Y-1.1063 Z-0.1226
N13815 X2.902 Y-1.1043 Z-0.1239
N13820 X2.8986 Y-1.1022 Z-0.1247
N13825 X2.8951 Y-1.1002 Z-0.125
N13830 G3 X2.8654 Y-1.0914 I-0.0318 J-0.0536
N13835 G1 X0.2894
N13840 X0.2802 Y-1.092
N13845 X0.271 Y-1.093
N13850 X0.2618 Y-1.094
N13855 X0.2572 Y-1.0946
N13860 X0.2526 Y-1.096
N13865 X0.2402 Y-1.1003
N13870 X0.2386 Y-1.1011
N13875 X0.237 Y-1.102
N13880 X0.225 Y-1.1096
N13885 X0.2229 Y-1.1112
N13890 X0.2136 Y-1.1204
N13895 X0.2113 Y-1.1227
N13900 X0.2095 Y-1.1249
N13905 X0.2066 Y-1.1296
N13910 X0.2009 Y-1.1387
N13915 X0.1974 Y-1.1482
N13920 X0.1944 Y-1.1571
N13925 X0.1933 Y-1.1663
N13930 X0.1925 Y-1.1755
N13935 X0.1913 Y-1.203
N13940 Y-1.2122
N13945 Y-1.2263
N13950 G3 X0.2062 Y-1.2519 I0.0312 J0.0011
N13955 G1 X0.2097 Y-1.2541 Z-0.1247
N13960 X0.2132 Y-1.2561 Z-0.1239
N13965 X0.2165 Y-1.2582 Z-0.1226
N13970 X0.2196 Y-1.2601 Z-0.1208
N13975 X0.2225 Y-1.2618 Z-0.1185
N13980 X0.2251 Y-1.2634 Z-0.1158
N13985 X0.2274 Y-1.2648 Z-0.1128
N13990 X0.2294 Y-1.266 Z-0.1094
N13995 X0.2309 Y-1.2669 Z-0.1057
N14000 X0.232 Y-1.2676 Z-0.1018
N14005 X0.2327 Y-1.268 Z-0.0978
N14010 X0.2329 Y-1.2682 Z-0.0937
N14015 G0 Z0.2
N14020 X0.7954 Y1.2292
N14025 Z-0.0625
N14030 G1 Z-0.0937 F25.
N14035 X0.7955 Y1.229 Z-0.0978
N14040 X0.7959 Y1.2283 Z-0.1018
N14045 X0.7965 Y1.2271 Z-0.1057
N14050 X0.7974 Y1.2256 Z-0.1094
N14055 X0.7985 Y1.2236 Z-0.1128
N14060 X0.7999 Y1.2212 Z-0.1158
N14065 X0.8014 Y1.2186 Z-0.1185
N14070 X0.8031 Y1.2156 Z-0.1208
N14075 X0.8049 Y1.2124 Z-0.1226
N14080 X0.8068 Y1.209 Z-0.1239
N14085 X0.8087 Y1.2056 Z-0.1247
N14090 X0.8108 Y1.202 Z-0.125
N14095 G3 X0.8322 Y1.1797 I0.0542 J0.0307
N14100 G1 X1.0162 Y1.0744
N14105 X1.0465 Y1.059
N14110 X1.0704 Y1.049
N14115 X1.1014 Y1.0385
N14120 X1.1406 Y1.0284
N14125 X1.1804 Y1.0209
N14130 X1.2205 Y1.0153
N14135 X1.2608 Y1.0112
N14140 X1.3011 Y1.0081
N14145 X1.3415 Y1.0058
N14150 X1.382 Y1.004
N14155 X1.4224 Y1.0027
N14160 X1.4629 Y1.0017
N14165 X1.5034 Y1.001
N14170 X1.5439 Y1.0004
N14175 X1.5844 Y0.9999
N14180 X1.6248 Y0.9996
N14185 X1.6653 Y0.9994
N14190 X1.7058 Y0.9992
N14195 X1.7868 Y0.9989
N14200 X1.9082 Y0.9987
N14205 X2.1107 Y0.9985
N14210 X2.5155 Y0.9983
N14215 X2.556 Y0.9966
N14220 X2.5953 Y0.9872
N14225 X2.6318 Y0.9696
N14230 X2.6642 Y0.9453
N14235 X2.692 Y0.9159
N14240 X2.7154 Y0.8828
N14245 X2.7348 Y0.8473
N14250 X2.7506 Y0.81
N14255 X2.7634 Y0.7716
N14260 X2.7736 Y0.7324
N14265 X2.7818 Y0.6928
N14270 X2.7883 Y0.6528
N14275 X2.7935 Y0.6127
N14280 X2.7975 Y0.5724
N14285 X2.8007 Y0.532
N14290 X2.8032 Y0.4916
N14295 X2.8051 Y0.4512
N14300 X2.8066 Y0.4107
N14305 X2.8078 Y0.3702
N14310 X2.8087 Y0.3298
N14315 X2.8095 Y0.2893
N14320 X2.81 Y0.2488
N14325 X2.8105 Y0.2083
N14330 X2.8111 Y0.1678
N14335 X2.8121 Y0.1274
N14340 X2.8144 Y0.0899
N14345 X2.8154 Y0.0828
N14350 X2.8188 Y0.0679
N14355 X2.8249 Y0.0539
N14360 X2.8334 Y0.0412
N14365 X2.8441 Y0.0303
N14370 X2.8566 Y0.0216
N14375 X2.9658 Y-0.0409
N14380 G3 X2.9955 Y-0.0406 I0.0146 J0.0277
N14385 G1 X2.9991 Y-0.0386 Z-0.1247
N14390 X3.0026 Y-0.0367 Z-0.1239
N14395 X3.006 Y-0.0348 Z-0.1226
N14400 X3.0092 Y-0.033 Z-0.1208
N14405 X3.0122 Y-0.0314 Z-0.1185
N14410 X3.0148 Y-0.0299 Z-0.1158
N14415 X3.0172 Y-0.0286 Z-0.1128
N14420 X3.0192 Y-0.0275 Z-0.1094
N14425 X3.0208 Y-0.0266 Z-0.1057
N14430 X3.0219 Y-0.026 Z-0.1018
N14435 X3.0226 Y-0.0256 Z-0.0978
N14440 X3.0229 Y-0.0255 Z-0.0937
N14445 G0 Z0.2
N14450 X0.9794 Y1.1239
N14455 Z-0.0625
N14460 G1 Z-0.0937 F25.
N14465 X0.9795 Y1.1237 Z-0.0978
N14470 X0.9799 Y1.123 Z-0.1018
N14475 X0.9805 Y1.1219 Z-0.1057
N14480 X0.9814 Y1.1203 Z-0.1094
N14485 X0.9825 Y1.1183 Z-0.1128
N14490 X0.9839 Y1.116 Z-0.1158
N14495 X0.9854 Y1.1133 Z-0.1185
N14500 X0.9871 Y1.1103 Z-0.1208
N14505 X0.9889 Y1.1072 Z-0.1226
N14510 X0.9908 Y1.1038 Z-0.1239
N14515 X0.9927 Y1.1003 Z-0.1247
N14520 X0.9948 Y1.0967 Z-0.125
N14525 G3 X1.0162 Y1.0744 I0.0542 J0.0307
N14530 G1 X1.2088 Y0.9642
N14535 X1.2376 Y0.9496
N14540 X1.2615 Y0.9396
N14545 X1.2925 Y0.9291
N14550 X1.3317 Y0.919
N14555 X1.3715 Y0.9115
N14560 X1.4116 Y0.9059
N14565 X1.4519 Y0.9018
N14570 X1.4922 Y0.8987
N14575 X1.5327 Y0.8963
N14580 X1.5731 Y0.8946
N14585 X1.6136 Y0.8933
N14590 X1.654 Y0.8923
N14595 X1.6945 Y0.8915
N14600 X1.735 Y0.8909
N14605 X1.7755 Y0.8905
N14610 X1.816 Y0.8902
N14615 X1.8564 Y0.8899
N14620 X1.8969 Y0.8897
N14625 X1.9779 Y0.8894
N14630 X2.0994 Y0.8892
N14635 X2.3018 Y0.889
N14640 X2.3828
N14645 X2.4232 Y0.8887
N14650 X2.4634 Y0.8835
N14655 X2.5015 Y0.87
N14660 X2.5362 Y0.849
N14665 X2.5665 Y0.8222
N14670 X2.5923 Y0.791
N14675 X2.6139 Y0.7567
N14680 X2.6317 Y0.7204
N14685 X2.6462 Y0.6826
N14690 X2.6579 Y0.6438
N14695 X2.6673 Y0.6044
N14700 X2.6748 Y0.5646
N14705 X2.6807 Y0.5246
N14710 X2.6854 Y0.4844
N14715 X2.6891 Y0.4441
N14720 X2.692 Y0.4037
N14725 X2.6943 Y0.3633
N14730 X2.6962 Y0.3228
N14735 X2.6976 Y0.2824
N14740 X2.699 Y0.2419
N14745 X2.7005 Y0.2015
N14750 X2.7029 Y0.161
N14755 X2.7047 Y0.1469
N14760 X2.708 Y0.1318
N14765 X2.714 Y0.1176
N14770 X2.7226 Y0.1048
N14775 X2.7334 Y0.0937
N14780 X2.746 Y0.0849
N14785 X2.8566 Y0.0216
N14790 G3 X2.8863 Y0.0219 I0.0146 J0.0277
N14795 G1 X2.8898 Y0.0239 Z-0.1247
N14800 X2.8934 Y0.0258 Z-0.1239
N14805 X2.8967 Y0.0277 Z-0.1226
N14810 X2.9 Y0.0294 Z-0.1208
N14815 X2.9029 Y0.0311 Z-0.1185
N14820 X2.9056 Y0.0326 Z-0.1158
N14825 X2.908 Y0.0339 Z-0.1128
N14830 X2.91 Y0.035 Z-0.1094
N14835 X2.9115 Y0.0358 Z-0.1057
N14840 X2.9127 Y0.0365 Z-0.1018
N14845 X2.9134 Y0.0369 Z-0.0978
N14850 X2.9136 Y0.037 Z-0.0937
N14855 G0 Z0.2
N14860 X1.172 Y1.0137
N14865 Z-0.0625
N14870 G1 Z-0.0937 F25.
N14875 X1.1721 Y1.0135 Z-0.0978
N14880 X1.1725 Y1.0128 Z-0.1018
N14885 X1.1732 Y1.0117 Z-0.1057
N14890 X1.1741 Y1.0101 Z-0.1094
N14895 X1.1752 Y1.0081 Z-0.1128
N14900 X1.1765 Y1.0058 Z-0.1158
N14905 X1.178 Y1.0031 Z-0.1185
N14910 X1.1797 Y1.0001 Z-0.1208
N14915 X1.1815 Y0.9969 Z-0.1226
N14920 X1.1834 Y0.9936 Z-0.1239
N14925 X1.1854 Y0.9901 Z-0.1247
N14930 X1.1874 Y0.9865 Z-0.125
N14935 G3 X1.2088 Y0.9642 I0.0542 J0.0307
N14940 G1 X1.4015 Y0.854
N14945 X1.4287 Y0.8402
N14950 X1.4527 Y0.8301
N14955 X1.4837 Y0.8197
N14960 X1.5229 Y0.8095
N14965 X1.5626 Y0.802
N14970 X1.6027 Y0.7965
N14975 X1.643 Y0.7923
N14980 X1.6834 Y0.7892
N14985 X1.7238 Y0.7869
N14990 X1.7643 Y0.7851
N14995 X1.8047 Y0.7838
N15000 X1.8452 Y0.7828
N15005 X1.8857 Y0.782
N15010 X1.9261 Y0.7815
N15015 X1.9666 Y0.781
N15020 X2.0071 Y0.7807
N15025 X2.0476 Y0.7805
N15030 X2.0881 Y0.7803
N15035 X2.1691 Y0.78
N15040 X2.2905 Y0.7797
N15045 X2.331 Y0.7779
N15050 X2.3704 Y0.7688
N15055 X2.4071 Y0.7517
N15060 X2.4398 Y0.7279
N15065 X2.4681 Y0.6989
N15070 X2.492 Y0.6663
N15075 X2.5119 Y0.631
N15080 X2.5282 Y0.5939
N15085 X2.5415 Y0.5557
N15090 X2.5522 Y0.5167
N15095 X2.5608 Y0.4771
N15100 X2.5676 Y0.4372
N15105 X2.5731 Y0.3971
N15110 X2.5774 Y0.3568
N15115 X2.5811 Y0.3165
N15120 X2.5843 Y0.2761
N15125 X2.5877 Y0.2358
N15130 X2.5907 Y0.2119
N15135 X2.5941 Y0.1969
N15140 X2.6001 Y0.1827
N15145 X2.6087 Y0.1699
N15150 X2.6194 Y0.1589
N15155 X2.632 Y0.1501
N15160 X2.746 Y0.0849
N15165 G3 X2.7757 Y0.0851 I0.0146 J0.0277
N15170 G1 X2.7793 Y0.0871 Z-0.1247
N15175 X2.7828 Y0.0891 Z-0.1239
N15180 X2.7861 Y0.0909 Z-0.1226
N15185 X2.7894 Y0.0927 Z-0.1208
N15190 X2.7923 Y0.0943 Z-0.1185
N15195 X2.795 Y0.0958 Z-0.1158
N15200 X2.7974 Y0.0971 Z-0.1128
N15205 X2.7994 Y0.0982 Z-0.1094
N15210 X2.801 Y0.0991 Z-0.1057
N15215 X2.8021 Y0.0997 Z-0.1018
N15220 X2.8028 Y0.1001 Z-0.0978
N15225 X2.803 Y0.1003 Z-0.0937
N15230 G0 Z0.2
N15235 X1.3646 Y0.9035
N15240 Z-0.0625
N15245 G1 Z-0.0937 F25.
N15250 X1.3648 Y0.9033 Z-0.0978
N15255 X1.3652 Y0.9026 Z-0.1018
N15260 X1.3658 Y0.9015 Z-0.1057
N15265 X1.3667 Y0.8999 Z-0.1094
N15270 X1.3678 Y0.8979 Z-0.1128
N15275 X1.3691 Y0.8956 Z-0.1158
N15280 X1.3707 Y0.8929 Z-0.1185
N15285 X1.3723 Y0.8899 Z-0.1208
N15290 X1.3741 Y0.8867 Z-0.1226
N15295 X1.376 Y0.8834 Z-0.1239
N15300 X1.378 Y0.8799 Z-0.1247
N15305 X1.38 Y0.8763 Z-0.125
N15310 G3 X1.4015 Y0.854 I0.0542 J0.0307
N15315 G1 X1.5941 Y0.7438
N15320 X1.6199 Y0.7307
N15325 X1.6438 Y0.7207
N15330 X1.6748 Y0.7102
N15335 X1.714 Y0.7001
N15340 X1.7538 Y0.6926
N15345 X1.7939 Y0.687
N15350 X1.8342 Y0.6828
N15355 X1.8745 Y0.6797
N15360 X1.915 Y0.6774
N15365 X1.9554 Y0.6757
N15370 X1.9959 Y0.6743
N15375 X2.0364 Y0.6733
N15380 X2.0768 Y0.6726
N15385 X2.1173 Y0.672
N15390 X2.1578 Y0.6716
N15395 X2.1983 Y0.671
N15400 X2.2384 Y0.666
N15405 X2.2768 Y0.6531
N15410 X2.3118 Y0.6328
N15415 X2.3426 Y0.6065
N15420 X2.369 Y0.5757
N15425 X2.3911 Y0.5418
N15430 X2.4094 Y0.5057
N15435 X2.4244 Y0.4681
N15440 X2.4366 Y0.4295
N15445 X2.4465 Y0.3902
N15450 X2.4548 Y0.3506
N15455 X2.462 Y0.3108
N15460 X2.4682 Y0.2776
N15465 X2.4721 Y0.2637
N15470 X2.4783 Y0.2507
N15475 X2.4866 Y0.2389
N15480 X2.4969 Y0.2288
N15485 X2.5087 Y0.2206
N15490 X2.632 Y0.1501
N15495 G3 X2.6617 Y0.1504 I0.0146 J0.0277
N15500 G1 X2.6653 Y0.1523 Z-0.1247
N15505 X2.6688 Y0.1543 Z-0.1239
N15510 X2.6722 Y0.1561 Z-0.1226
N15515 X2.6754 Y0.1579 Z-0.1208
N15520 X2.6783 Y0.1596 Z-0.1185
N15525 X2.681 Y0.161 Z-0.1158
N15530 X2.6834 Y0.1623 Z-0.1128
N15535 X2.6854 Y0.1634 Z-0.1094
N15540 X2.687 Y0.1643 Z-0.1057
N15545 X2.6881 Y0.165 Z-0.1018
N15550 X2.6888 Y0.1653 Z-0.0978
N15555 X2.689 Y0.1655 Z-0.0937
N15560 G0 Z0.2
N15565 X1.5573 Y0.7933
N15570 Z-0.0625
N15575 G1 Z-0.0937 F25.
N15580 X1.5574 Y0.7931 Z-0.0978
N15585 X1.5578 Y0.7924 Z-0.1018
N15590 X1.5584 Y0.7913 Z-0.1057
N15595 X1.5593 Y0.7897 Z-0.1094
N15600 X1.5605 Y0.7877 Z-0.1128
N15605 X1.5618 Y0.7854 Z-0.1158
N15610 X1.5633 Y0.7827 Z-0.1185
N15615 X1.565 Y0.7797 Z-0.1208
N15620 X1.5668 Y0.7765 Z-0.1226
N15625 X1.5687 Y0.7732 Z-0.1239
N15630 X1.5706 Y0.7697 Z-0.1247
N15635 X1.5727 Y0.7661 Z-0.125
N15640 G3 X1.5941 Y0.7438 I0.0542 J0.0307
N15645 G1 X1.7867 Y0.6336
N15650 X1.8111 Y0.6213
N15655 X1.835 Y0.6112
N15660 X1.866 Y0.6008
N15665 X1.9052 Y0.5906
N15670 X1.945 Y0.5831
N15675 X1.9851 Y0.5775
N15680 X2.0254 Y0.5734
N15685 X2.0657 Y0.5703
N15690 X2.1061 Y0.5668
N15695 X2.1454 Y0.5572
N15700 X2.1822 Y0.5403
N15705 X2.2153 Y0.517
N15710 X2.244 Y0.4885
N15715 X2.2686 Y0.4563
N15720 X2.2892 Y0.4215
N15725 X2.3067 Y0.385
N15730 X2.3218 Y0.348
N15735 X2.328 Y0.3357
N15740 X2.3362 Y0.3245
N15745 X2.3462 Y0.3149
N15750 X2.3576 Y0.3071
N15755 X2.5087 Y0.2206
N15760 G3 X2.5384 Y0.2209 I0.0146 J0.0277
N15765 G1 X2.542 Y0.2229 Z-0.1247
N15770 X2.5455 Y0.2248 Z-0.1239
N15775 X2.5489 Y0.2267 Z-0.1226
N15780 X2.5521 Y0.2284 Z-0.1208
N15785 X2.5551 Y0.2301 Z-0.1185
N15790 X2.5578 Y0.2316 Z-0.1158
N15795 X2.5601 Y0.2329 Z-0.1128
N15800 X2.5621 Y0.234 Z-0.1094
N15805 X2.5637 Y0.2348 Z-0.1057
N15810 X2.5648 Y0.2355 Z-0.1018
N15815 X2.5655 Y0.2359 Z-0.0978
N15820 X2.5658 Y0.236 Z-0.0937
N15825 G0 Z0.2
N15830 X1.7499 Y0.6831
N15835 Z-0.0625
N15840 G1 Z-0.0937 F25.
N15845 X1.75 Y0.6829 Z-0.0978
N15850 X1.7504 Y0.6822 Z-0.1018
N15855 X1.7511 Y0.6811 Z-0.1057
N15860 X1.752 Y0.6795 Z-0.1094
N15865 X1.7531 Y0.6775 Z-0.1128
N15870 X1.7544 Y0.6752 Z-0.1158
N15875 X1.7559 Y0.6725 Z-0.1185
N15880 X1.7576 Y0.6695 Z-0.1208
N15885 X1.7594 Y0.6663 Z-0.1226
N15890 X1.7613 Y0.663 Z-0.1239
N15895 X1.7633 Y0.6595 Z-0.1247
N15900 X1.7653 Y0.6559 Z-0.125
N15905 G3 X1.7867 Y0.6336 I0.0542 J0.0307
N15910 G1 X2.3576 Y0.3071
N15915 X2.3607 Y0.306 Z-0.1248
N15920 X2.3638 Y0.3049 Z-0.1243
N15925 X2.3669 Y0.3039 Z-0.1234
N15930 X2.3696 Y0.3037 Z-0.1223
N15935 X2.3721 Y0.3035 Z-0.121
N15940 X2.3749 Y0.3039 Z-0.1192
N15945 X2.3775 Y0.3043 Z-0.1172
N15950 X2.3798 Y0.3047 Z-0.1148
N15955 X2.3819 Y0.305 Z-0.1122
N15960 X2.3837 Y0.3059 Z-0.109
N15965 X2.3853 Y0.3065 Z-0.1054
N15970 X2.3864 Y0.307 Z-0.1018
N15975 X2.387 Y0.3073 Z-0.098
N15980 X2.3872 Y0.3074 Z-0.0941
N15985 G0 Z0.2
N15990 X-1.8308 Y-0.5214
N15995 Z-0.025
N16000 G3 X-1.7502 Y-0.7369 Z-0.0475 I0.1433 J-0.0692 F13.333
N16005 X-1.5401 Y-0.6473 Z-0.07 I0.0623 J0.1452
N16010 X-1.6383 Y-0.443 Z-0.0925 I-0.1468 J0.0552
N16015 X-1.8365 Y-0.5495 Z-0.115 I-0.0482 J-0.148
N16020 X-1.7221 Y-0.7412 Z-0.1375 I0.1489 J-0.0412
N16025 X-1.5371 Y-0.6192 Z-0.16 I0.0342 J0.1494
N16030 X-1.6662 Y-0.4413 Z-0.1825 I-0.1496 J0.0272
N16035 X-1.8369 Y-0.5773 Z-0.205 I-0.0203 J-0.1496
N16040 X-1.6945 Y-0.7403 Z-0.2275 I0.1491 J-0.0135
N16045 X-1.5392 Y-0.5919 Z-0.25 I0.0067 J0.1484
N16050 X-1.8364 I-0.1486 J0.
N16055 X-1.5392 I0.1486 J0.
N16060 G1 X-1.539 Y-0.5818 F25.
N16065 X-1.5335 Y-0.5417
N16070 X-1.5317 Y-0.537
N16075 X-1.5301 Y-0.5312
N16080 X-1.529 Y-0.5253
N16085 X-1.5283 Y-0.5193
N16090 X-1.5281 Y-0.513
N16095 X-1.5284 Y-0.5062
N16100 X-1.5292 Y-0.499
N16105 X-1.5307 Y-0.4913
N16110 X-1.5328 Y-0.4834
N16115 X-1.5356 Y-0.4752
N16120 X-1.5391 Y-0.4668
N16125 X-1.5435 Y-0.4582
N16130 X-1.5487 Y-0.4497
N16135 X-1.5548 Y-0.4411
N16140 X-1.5617 Y-0.4327
N16145 X-1.5695 Y-0.4246
N16150 X-1.5781 Y-0.4168
N16155 X-1.5875 Y-0.4093
N16160 X-1.5978 Y-0.4024
N16165 X-1.6088 Y-0.3961
N16170 X-1.6205 Y-0.3904
N16175 X-1.6329 Y-0.3855
N16180 X-1.6458 Y-0.3815
N16185 X-1.6592 Y-0.3783
N16190 X-1.673 Y-0.376
N16195 X-1.6872 Y-0.3747
N16200 X-1.7016 Y-0.3745
N16205 X-1.7162 Y-0.3753
N16210 X-1.7308 Y-0.3771
N16215 X-1.7454 Y-0.3801
N16220 X-1.7599 Y-0.3841
N16225 X-1.7742 Y-0.3892
N16230 X-1.7881 Y-0.3953
N16235 X-1.8017 Y-0.4025
N16240 X-1.8148 Y-0.4106
N16245 X-1.8273 Y-0.4197
N16250 X-1.8392 Y-0.4298
N16255 X-1.8504 Y-0.4407
N16260 X-1.8608 Y-0.4524
N16265 X-1.8703 Y-0.4649
N16270 X-1.879 Y-0.4781
N16275 X-1.8867 Y-0.4919
N16280 X-1.8934 Y-0.5063
N16285 X-1.899 Y-0.5211
N16290 X-1.9036 Y-0.5363
N16295 X-1.9071 Y-0.5518
N16300 X-1.9095 Y-0.5676
N16305 X-1.9107 Y-0.5835
N16310 X-1.9108 Y-0.5994
N16315 X-1.9097 Y-0.6154
N16320 X-1.9075 Y-0.6312
N16325 X-1.9042 Y-0.6469
N16330 X-1.8997 Y-0.6622
N16335 X-1.8941 Y-0.6773
N16340 X-1.8875 Y-0.6919
N16345 X-1.8798 Y-0.7059
N16350 X-1.8712 Y-0.7194
N16355 X-1.8616 Y-0.7323
N16360 X-1.8511 Y-0.7444
N16365 X-1.8397 Y-0.7557
N16370 X-1.8275 Y-0.7662
N16375 X-1.8147 Y-0.7758
N16380 X-1.8011 Y-0.7845
N16385 X-1.787 Y-0.7921
N16390 X-1.7724 Y-0.7988
N16395 X-1.7573 Y-0.8043
N16400 X-1.7418 Y-0.8088
N16405 X-1.7261 Y-0.8121
N16410 X-1.7102 Y-0.8143
N16415 X-1.6941 Y-0.8153
N16420 X-1.6781 Y-0.8152
N16425 X-1.662 Y-0.8139
N16430 X-1.6462 Y-0.8115
N16435 X-1.6305 Y-0.8079
N16440 X-1.6151 Y-0.8033
N16445 X-1.6001 Y-0.7975
N16450 X-1.5855 Y-0.7907
N16455 X-1.5715 Y-0.7828
N16460 X-1.5581 Y-0.7739
N16465 X-1.5453 Y-0.7641
N16470 X-1.5333 Y-0.7535
N16475 X-1.5221 Y-0.7419
N16480 X-1.5117 Y-0.7296
N16485 X-1.5023 Y-0.7166
N16490 X-1.4936 Y-0.7027
N16495 X-1.4783 Y-0.6736
N16500 X-1.4659 Y-0.6452
N16505 X-1.4576 Y-0.6218
N16510 X-1.4519 Y-0.6008
N16515 X-1.448 Y-0.581
N16520 X-1.4456 Y-0.5622
N16525 X-1.4447 Y-0.5442
N16530 X-1.445 Y-0.5265
N16535 X-1.4466 Y-0.5092
N16540 X-1.4494 Y-0.4922
N16545 X-1.4534 Y-0.4757
N16550 X-1.4586 Y-0.4594
N16555 X-1.4649 Y-0.4436
N16560 X-1.4723 Y-0.4282
N16565 X-1.481 Y-0.4133
N16570 X-1.4907 Y-0.3989
N16575 X-1.5016 Y-0.3851
N16580 X-1.5135 Y-0.372
N16585 X-1.5265 Y-0.3597
N16590 X-1.5405 Y-0.3482
N16595 X-1.5555 Y-0.3376
N16600 X-1.5714 Y-0.328
N16605 X-1.5881 Y-0.3195
N16610 X-1.6056 Y-0.3121
N16615 X-1.6237 Y-0.306
N16620 X-1.6424 Y-0.3011
N16625 X-1.6616 Y-0.2975
N16630 X-1.6812 Y-0.2953
N16635 X-1.7011 Y-0.2945
N16640 X-1.7211 Y-0.2952
N16645 X-1.7413 Y-0.2973
N16650 X-1.7614 Y-0.3009
N16655 X-1.7813 Y-0.3059
N16660 X-1.801 Y-0.3124
N16665 X-1.8202 Y-0.3204
N16670 X-1.839 Y-0.3298
N16675 X-1.8571 Y-0.3406
N16680 X-1.8745 Y-0.3526
N16685 X-1.891 Y-0.366
N16690 X-1.9066 Y-0.3806
N16695 X-1.9212 Y-0.3963
N16700 X-1.9346 Y-0.4131
N16705 X-1.9468 Y-0.4309
N16710 X-1.9577 Y-0.4495
N16715 X-1.9673 Y-0.4689
N16720 X-1.9755 Y-0.489
N16725 X-1.9823 Y-0.5097
N16730 X-1.9875 Y-0.5308
N16735 X-1.9912 Y-0.5523
N16740 X-1.9934 Y-0.5741
N16745 X-1.994 Y-0.5959
N16750 X-1.993 Y-0.6178
N16755 X-1.9904 Y-0.6396
N16760 X-1.9863 Y-0.6611
N16765 X-1.9807 Y-0.6823
N16770 X-1.9735 Y-0.7031
N16775 X-1.9648 Y-0.7233
N16780 X-1.9547 Y-0.7428
N16785 X-1.9433 Y-0.7616
N16790 X-1.9305 Y-0.7795
N16795 X-1.9164 Y-0.7965
N16800 X-1.9011 Y-0.8123
N16805 X-1.8848 Y-0.8271
N16810 X-1.8674 Y-0.8407
N16815 X-1.8491 Y-0.8529
N16820 X-1.8299 Y-0.8639
N16825 X-1.81 Y-0.8734
N16830 X-1.7895 Y-0.8815
N16835 X-1.7684 Y-0.888
N16840 X-1.747 Y-0.8931
N16845 X-1.7252 Y-0.8965
N16850 X-1.7032 Y-0.8985
N16855 X-1.6811 Y-0.8988
N16860 X-1.6591 Y-0.8975
N16865 X-1.6372 Y-0.8947
N16870 X-1.6156 Y-0.8902
N16875 X-1.5943 Y-0.8843
N16880 X-1.5735 Y-0.8768
N16885 X-1.5533 Y-0.8679
N16890 X-1.5338 Y-0.8575
N16895 X-1.5151 Y-0.8457
N16900 X-1.4973 Y-0.8326
N16905 X-1.479 Y-0.8171
N16910 X-1.4611 Y-0.7995
N16915 X-1.4431 Y-0.7789
N16920 X-1.426 Y-0.7566
N16925 X-1.4107 Y-0.733
N16930 X-1.3972 Y-0.7086
N16935 X-1.3857 Y-0.6838
N16940 X-1.3762 Y-0.6588
N16945 X-1.3687 Y-0.6336
N16950 X-1.3631 Y-0.6085
N16955 X-1.3595 Y-0.5834
N16960 X-1.3576 Y-0.5586
N16965 Y-0.5341
N16970 X-1.3593 Y-0.5099
N16975 X-1.3627 Y-0.486
N16980 X-1.3678 Y-0.4626
N16985 X-1.3745 Y-0.4396
N16990 X-1.3829 Y-0.4172
N16995 X-1.3928 Y-0.3955
N17000 X-1.4044 Y-0.3745
N17005 X-1.4174 Y-0.3543
N17010 X-1.4319 Y-0.335
N17015 X-1.4479 Y-0.3167
N17020 X-1.4652 Y-0.2996
N17025 X-1.4838 Y-0.2836
N17030 X-1.5036 Y-0.2689
N17035 X-1.5246 Y-0.2556
N17040 X-1.5466 Y-0.2438
N17045 X-1.5696 Y-0.2335
N17050 X-1.5934 Y-0.2248
N17055 X-1.618 Y-0.2178
N17060 X-1.6432 Y-0.2126
N17065 X-1.6689 Y-0.2091
N17070 X-1.6949 Y-0.2075
N17075 X-1.7212 Y-0.2078
N17080 X-1.7475 Y-0.21
N17085 X-1.7738 Y-0.2141
N17090 X-1.7999 Y-0.2201
N17095 X-1.8256 Y-0.228
N17100 X-1.8508 Y-0.2378
N17105 X-1.8753 Y-0.2494
N17110 X-1.8991 Y-0.2628
N17115 X-1.9219 Y-0.278
N17120 X-1.9437 Y-0.2948
N17125 X-1.9642 Y-0.3132
N17130 X-1.9835 Y-0.3331
N17135 X-2.0013 Y-0.3544
N17140 X-2.0175 Y-0.377
N17145 X-2.0322 Y-0.4007
N17150 X-2.0451 Y-0.4255
N17155 X-2.0562 Y-0.4512
N17160 X-2.0655 Y-0.4777
N17165 X-2.0729 Y-0.5048
N17170 X-2.0783 Y-0.5324
N17175 X-2.0817 Y-0.5604
N17180 X-2.0831 Y-0.5886
N17185 X-2.0824 Y-0.6169
N17190 X-2.0797 Y-0.645
N17195 X-2.075 Y-0.6729
N17200 X-2.0683 Y-0.7005
N17205 X-2.0596 Y-0.7274
N17210 X-2.049 Y-0.7538
N17215 X-2.0366 Y-0.7793
N17220 X-2.0223 Y-0.8038
N17225 X-2.0063 Y-0.8273
N17230 X-1.9886 Y-0.8495
N17235 X-1.9694 Y-0.8705
N17240 X-1.9487 Y-0.89
N17245 X-1.9266 Y-0.908
N17250 X-1.9033 Y-0.9243
N17255 X-1.8789 Y-0.939
N17260 X-1.8535 Y-0.9518
N17265 X-1.8272 Y-0.9628
N17270 X-1.8002 Y-0.9719
N17275 X-1.7726 Y-0.979
N17280 X-1.7446 Y-0.9841
N17285 X-1.7163 Y-0.9872
N17290 X-1.6878 Y-0.9882
N17295 X-1.6593 Y-0.9872
N17300 X-1.631 Y-0.9842
N17305 X-1.6029 Y-0.9791
N17310 X-1.5753 Y-0.972
N17315 X-1.5483 Y-0.9629
N17320 X-1.5216 Y-0.9518
N17325 X-1.4954 Y-0.9385
N17330 X-1.4695 Y-0.923
N17335 X-1.4443 Y-0.9054
N17340 X-1.4199 Y-0.8856
N17345 X-1.3966 Y-0.8636
N17350 X-1.3746 Y-0.8397
N17355 X-1.3541 Y-0.8139
N17360 X-1.3355 Y-0.7866
N17365 X-1.3189 Y-0.7581
N17370 X-1.3044 Y-0.7286
N17375 X-1.2922 Y-0.6984
N17380 X-1.2823 Y-0.6675
N17385 X-1.2746 Y-0.6364
N17390 X-1.2693 Y-0.6051
N17395 X-1.2663 Y-0.5737
N17400 X-1.2656 Y-0.5424
N17405 X-1.2671 Y-0.5114
N17410 X-1.2708 Y-0.4806
N17415 X-1.2767 Y-0.4503
N17420 X-1.2847 Y-0.4206
N17425 X-1.2948 Y-0.3916
N17430 X-1.3071 Y-0.3633
N17435 X-1.3213 Y-0.336
N17440 X-1.3374 Y-0.3097
N17445 X-1.3555 Y-0.2847
N17450 X-1.3754 Y-0.2609
N17455 X-1.3969 Y-0.2385
N17460 X-1.4106 Y-0.2263
N17465 X-1.4111 Y-0.2259
N17470 X-1.4126 Y-0.2245
N17475 X-1.4179 Y-0.2204
N17480 X-1.4218 Y-0.2177
N17485 X-1.4322 Y-0.2112
N17490 X-1.4772 Y-0.1837
N17495 X-1.4862 Y-0.1795
N17500 X-1.523 Y-0.1642
N17505 X-1.5414 Y-0.1566
N17510 X-1.5428 Y-0.1561
N17515 X-1.5506 Y-0.1537
N17520 X-1.5598 Y-0.1514
N17525 X-1.5966 Y-0.1426
N17530 X-1.6058 Y-0.1404
N17535 X-1.6334 Y-0.1368
N17540 X-1.6426 Y-0.1358
N17545 X-1.661 Y-0.1344
N17550 X-1.6702 Y-0.1338
N17555 X-1.6978 Y-0.1334
N17560 X-1.707 Y-0.1339
N17565 X-1.7254 Y-0.1353
N17570 X-1.7346 Y-0.1361
N17575 X-1.7622 Y-0.1389
N17580 X-1.7714 Y-0.1409
N17585 X-1.8174 Y-0.1519
N17590 X-1.8266 Y-0.1542
N17595 X-1.8316 Y-0.1561
N17600 X-1.8545 Y-0.1653
N17605 X-1.8634 Y-0.169
N17610 X-1.8818 Y-0.1766
N17615 X-1.891 Y-0.1805
N17620 X-1.9002 Y-0.1851
N17625 X-1.9462 Y-0.2133
N17630 X-1.9554 Y-0.2195
N17635 X-1.983 Y-0.2422
N17640 X-1.9898 Y-0.2479
N17645 X-2.0106 Y-0.267
N17650 X-2.0192 Y-0.2755
N17655 X-2.0474 Y-0.3086
N17660 X-2.0504 Y-0.3122
N17665 X-2.0694 Y-0.3398
N17670 X-2.0752 Y-0.349
N17675 X-2.0865 Y-0.3673
N17680 X-2.0917 Y-0.3765
N17685 X-2.1046 Y-0.4041
N17690 X-2.1085 Y-0.4132
N17695 X-2.1161 Y-0.4316
N17700 X-2.1195 Y-0.4408
N17705 X-2.1279 Y-0.4683
N17710 X-2.1346 Y-0.4959
N17715 X-2.1365 Y-0.5051
N17720 X-2.1397 Y-0.5234
N17725 X-2.1412 Y-0.5326
N17730 X-2.1433 Y-0.5602
N17735 X-2.1439 Y-0.5694
N17740 X-2.145 Y-0.5877
N17745 X-2.1452 Y-0.5969
N17750 X-2.1409 Y-0.652
N17755 X-2.1397 Y-0.6612
N17760 X-2.1337 Y-0.6887
N17765 X-2.1271 Y-0.7163
N17770 X-2.1244 Y-0.7255
N17775 X-2.1179 Y-0.7438
N17780 X-2.1147 Y-0.753
N17785 X-2.1026 Y-0.7821
N17790 X-2.0988 Y-0.7898
N17795 X-2.0893 Y-0.8081
N17800 X-2.0842 Y-0.8174
N17805 X-2.0674 Y-0.8449
N17810 X-2.0658 Y-0.8474
N17815 X-2.0543 Y-0.8632
N17820 X-2.0474 Y-0.8725
N17825 X-2.0162 Y-0.9091
N17830 X-2.0106 Y-0.9145
N17835 X-2.0014 Y-0.9231
N17840 X-1.9964 Y-0.9275
N17845 X-1.983 Y-0.9389
N17850 X-1.9738 Y-0.9466
N17855 X-1.9554 Y-0.9617
N17860 X-1.952 Y-0.9642
N17865 X-1.922 Y-0.9826
N17870 X-1.8902 Y-1.001
N17875 X-1.8818 Y-1.0045
N17880 X-1.8634 Y-1.0121
N17885 X-1.8542 Y-1.0159
N17890 X-1.8358 Y-1.0233
N17895 X-1.8266 Y-1.0269
N17900 X-1.8174 Y-1.0292
N17905 X-1.7714 Y-1.0402
N17910 X-1.7622 Y-1.0422
N17915 X-1.7346 Y-1.045
N17920 X-1.7254 Y-1.0458
N17925 X-1.707 Y-1.0472
N17930 X-1.6978 Y-1.0477
N17935 X-1.6702 Y-1.0473
N17940 X-1.6634 Y-1.0469
N17945 X-1.6426 Y-1.0453
N17950 X-1.6334 Y-1.0443
N17955 X-1.6058 Y-1.0407
N17960 X-1.5932 Y-1.0377
N17965 X-1.5782 Y-1.0341
N17970 X-1.569 Y-1.0318
N17975 X-1.5506 Y-1.027
N17980 X-1.5414 Y-1.0245
N17985 X-1.4954 Y-1.0055
N17990 X-1.4847 Y-1.001
N17995 X-1.477 Y-0.9974
N18000 X-1.438 Y-0.9734
N18005 X-1.4218 Y-0.9631
N18010 X-1.4126 Y-0.9566
N18015 X-1.385 Y-0.933
N18020 X-1.3666 Y-0.9164
N18025 X-1.3588 Y-0.9091
N18030 X-1.3275 Y-0.8724
N18035 X-1.3206 Y-0.8642
N18040 X-1.3114 Y-0.8507
N18045 X-1.3076 Y-0.8449
N18050 X-1.2907 Y-0.8173
N18055 X-1.2857 Y-0.8081
N18060 X-1.2746 Y-0.7868
N18065 X-1.2717 Y-0.7806
N18070 X-1.2603 Y-0.753
N18075 X-1.2568 Y-0.7438
N18080 X-1.2506 Y-0.7255
N18085 X-1.2479 Y-0.7163
N18090 X-1.2413 Y-0.6887
N18095 X-1.2353 Y-0.6612
N18100 X-1.2341 Y-0.652
N18105 X-1.2298 Y-0.5969
N18110 X-1.23 Y-0.5877
N18115 X-1.2311 Y-0.5694
N18120 X-1.2317 Y-0.5602
N18125 X-1.2338 Y-0.5326
N18130 X-1.2353 Y-0.5234
N18135 X-1.2385 Y-0.5051
N18140 X-1.2404 Y-0.4959
N18145 X-1.2471 Y-0.4683
N18150 X-1.2562 Y-0.4383
N18155 X-1.2589 Y-0.4316
N18160 X-1.2665 Y-0.4132
N18165 X-1.2704 Y-0.4041
N18170 X-1.2838 Y-0.3753
N18175 X-1.2885 Y-0.3673
N18180 X-1.3022 Y-0.3449
N18185 X-1.3055 Y-0.3398
N18190 X-1.3206 Y-0.3169
N18195 X-1.3244 Y-0.3122
N18200 X-1.3482 Y-0.2844
N18205 X-1.3561 Y-0.2755
N18210 X-1.3666 Y-0.2643
N18215 X-1.3745 Y-0.2571
N18220 X-1.4111 Y-0.2259
N18225 X-1.414 Y-0.2242 Z-0.2498
N18230 X-1.4169 Y-0.2226 Z-0.2493
N18235 X-1.4197 Y-0.221 Z-0.2484
N18240 X-1.4231 Y-0.2203 Z-0.2469
N18245 X-1.4263 Y-0.2197 Z-0.2451
N18250 X-1.4293 Y-0.2191 Z-0.2428
N18255 X-1.4306 Z-0.2418
N18260 X-1.4333 Y-0.2195 Z-0.2389
N18265 X-1.4356 Y-0.2199 Z-0.2356
N18270 X-1.4375 Y-0.2202 Z-0.2321
N18275 X-1.4389 Y-0.2204 Z-0.2284
N18280 X-1.4398 Y-0.2205 Z-0.2245
N18285 X-1.4403 Y-0.2206 Z-0.2205
N18290 Z-0.2191
N18295 G0 Z0.2
N18300 X-3.3796 Y1.7396
N18305 Z-0.1345
N18310 G1 Z-0.1657 F25.
N18315 X-3.3794 Y1.7394 Z-0.1698
N18320 X-3.3787 Y1.739 Z-0.1738
N18325 X-3.3776 Y1.7384 Z-0.1777
N18330 X-3.376 Y1.7375 Z-0.1814
N18335 X-3.374 Y1.7364 Z-0.1848
N18340 X-3.3717 Y1.7351 Z-0.1878
N18345 X-3.369 Y1.7335 Z-0.1905
N18350 X-3.366 Y1.7319 Z-0.1928
N18355 X-3.3629 Y1.7301 Z-0.1946
N18360 X-3.3595 Y1.7282 Z-0.1959
N18365 X-3.356 Y1.7262 Z-0.1967
N18370 X-3.3524 Y1.7242 Z-0.197
N18375 G3 X-3.1947 Y1.656 I0.3933 J0.6941
N18380 G1 X-3.179 Y1.6518
N18385 X-3.1698 Y1.6491
N18390 X-3.1606 Y1.6448
N18395 X-3.1514 Y1.6402
N18400 X-3.1422 Y1.6354
N18405 X-3.1146 Y1.6171
N18410 X-3.1061 Y1.6117
N18415 X-3.091 Y1.6036
N18420 X-3.0717 Y1.5949
N18425 X-3.0467 Y1.5858
N18430 X-3.0131 Y1.5762
N18435 X-2.9832 Y1.5699
N18440 X-2.9697 Y1.5682
N18445 X-2.9561 Y1.5687
N18450 X-2.9428 Y1.5715
N18455 X-2.9301 Y1.5763
N18460 X-2.9183 Y1.5832
N18465 X-2.9078 Y1.5919
N18470 X-2.903 Y1.5966
N18475 X-2.9017 Y1.5979
N18480 X-2.8938 Y1.6049
N18485 X-2.8846 Y1.612
N18490 X-2.8785 Y1.6162
N18495 X-2.8605 Y1.6283
N18500 G3 X-2.8535 Y1.6719 Z-0.189 I-0.0183 J0.0253
N18505 X-2.8805 Y1.6848 I-0.0254 J-0.0183
N18510 G1 X-3.0974 Y1.6732
N18515 G3 X-3.1206 Y1.6609 I0.0017 J-0.0312
N18520 X-3.1269 Y1.642 Z-0.1923 I0.0249 J-0.0189
N18525 X-3.1146 Y1.6171 Z-0.197 I0.0312 J0.
N18530 G1 X-3.1006 Y1.6071
N18535 X-3.0962 Y1.6033
N18540 X-3.087 Y1.5951
N18545 X-3.0837 Y1.5919
N18550 X-3.0811 Y1.5887
N18555 X-3.067 Y1.5703
N18560 X-3.06 Y1.5612
N18565 X-3.0564 Y1.5564
N18570 X-3.0507 Y1.5499
N18575 X-3.0449 Y1.5443
N18580 X-3.0383 Y1.5387
N18585 X-3.0313 Y1.5335
N18590 X-3.0193 Y1.5276
N18595 X-3.0064 Y1.524
N18600 X-2.9931 Y1.523
N18605 X-2.9798 Y1.5245
N18610 X-2.967 Y1.5286
N18615 X-2.9553 Y1.5351
N18620 X-2.945 Y1.5436
N18625 X-2.9366 Y1.554
N18630 X-2.9319 Y1.5612
N18635 X-2.9306 Y1.5628
N18640 X-2.9111 Y1.5887
N18645 X-2.9078 Y1.5919
N18650 G3 X-2.9089 Y1.6361 Z-0.189 I-0.0226 J0.0216
N18655 X-2.9408 Y1.643 I-0.0216 J-0.0226
N18660 G1 X-3.0437 Y1.607
N18665 X-3.0468 Y1.6057
N18670 X-3.0497 Y1.6041
N18675 G3 X-3.06 Y1.5612 Z-0.197 I0.0164 J-0.0266
N18680 G1 X-3.054 Y1.552
N18685 X-3.0422 Y1.5336
N18690 X-3.041 Y1.5316
N18695 X-3.0374 Y1.5244
N18700 X-3.0361 Y1.5216
N18705 X-3.0333 Y1.5163
N18710 X-3.0264 Y1.5085
N18715 X-3.0179 Y1.5024
N18720 X-3.0083 Y1.4984
N18725 X-2.9979 Y1.4967
N18730 X-2.9875 Y1.4975
N18735 X-2.9776 Y1.5007
N18740 X-2.9686 Y1.5061
N18745 X-2.9611 Y1.5134
N18750 X-2.9555 Y1.5222
N18755 G3 X-2.9565 Y1.5586 Z-0.1909 I-0.0392 J0.0172
N18760 X-2.9629 Y1.568 Z-0.189 I-0.0392 J-0.0197
N18765 X-3.0289 Y1.5676 I-0.0328 J-0.0292
N18770 X-3.0361 Y1.5216 Z-0.197 I0.0332 J-0.0288
N18775 G1 X-3.0331 Y1.5152
N18780 X-3.0294 Y1.5061
N18785 X-3.0274 Y1.4987
N18790 X-3.0254 Y1.493
N18795 X-3.0193 Y1.4854
N18800 X-3.0113 Y1.4798
N18805 X-3.002 Y1.4768
N18810 X-2.9922 Y1.4766
N18815 X-2.9828 Y1.4792
N18820 X-2.9745 Y1.4843
N18825 X-2.9681 Y1.4917
N18830 X-2.964 Y1.5006
N18835 G3 X-2.9645 Y1.5167 I-0.0281 J0.0071
N18840 X-3.0274 Y1.4987 I-0.0311 J-0.0101
N18845 G1 X-3.0268 Y1.4969
N18850 X-3.0223 Y1.4785
N18855 X-3.0207 Y1.4727
N18860 X-3.0177 Y1.4675
N18865 X-3.0109 Y1.462
N18870 X-3.0028 Y1.4589
N18875 X-2.9941 Y1.4583
N18880 X-2.9857 Y1.4605
N18885 X-2.9783 Y1.4651
N18890 X-2.9727 Y1.4718
N18895 X-2.9694 Y1.4798
N18900 X-2.9674 Y1.4882
N18905 X-2.9651 Y1.4969
N18910 X-2.964 Y1.5006
N18915 G3 X-2.9745 Y1.5197 I-0.0155 J0.0039
N18920 X-3.0223 Y1.4785 I-0.0115 J-0.0349
N18925 G1 X-3.0203 Y1.4693
N18930 X-3.0186 Y1.4601
N18935 X-3.0172 Y1.4543
N18940 X-3.014 Y1.4492
N18945 X-3.008 Y1.4448
N18950 X-3.0009 Y1.4424
N18955 X-2.9934 Y1.4423
N18960 X-2.9862 Y1.4445
N18965 X-2.98 Y1.4487
N18970 X-2.9755 Y1.4547
N18975 X-2.973 Y1.4618
N18980 X-2.9698 Y1.4785
N18985 X-2.9694 Y1.4798
N18990 G3 X-2.9788 Y1.4953 I-0.013 J0.0026
N18995 X-3.0186 Y1.4601 I-0.0086 J-0.0303
N19000 G1 X-3.0168 Y1.451
N19005 X-3.016 Y1.4447
N19010 X-3.0149 Y1.4387
N19015 X-3.0118 Y1.4336
N19020 X-3.0053 Y1.4292
N19025 X-2.9977 Y1.4275
N19030 X-2.9899 Y1.4286
N19035 X-2.9831 Y1.4325
N19040 X-2.9781 Y1.4386
N19045 X-2.9757 Y1.446
N19050 X-2.9756 Y1.448
N19055 X-2.9758 Y1.45
N19060 G3 X-3.016 Y1.4447 I-0.02 J-0.0034
N19065 G1 X-3.0156 Y1.4418
N19070 X-3.0148 Y1.4311
N19075 X-3.0141 Y1.4251
N19080 X-3.0112 Y1.4198
N19085 X-3.0049 Y1.4155
N19090 X-2.9976 Y1.4138
N19095 X-2.9901 Y1.415
N19100 X-2.9835 Y1.4189
N19105 X-2.9789 Y1.4249
N19110 X-2.977 Y1.4322
N19115 Y1.4338
N19120 G3 X-3.0148 Y1.4311 I-0.0189 J-0.0019
N19125 G1 X-3.0142 Y1.4234
N19130 Y1.4184
N19135 X-3.0139 Y1.4124
N19140 X-3.0113 Y1.4069
N19145 X-3.0061 Y1.4029
N19150 X-2.9998 Y1.4008
N19155 X-2.9932 Y1.401
N19160 X-2.9871 Y1.4034
N19165 X-2.9821 Y1.4077
N19170 X-2.9788 Y1.4134
N19175 X-2.9776 Y1.4199
N19180 X-2.9778 Y1.4214
N19185 G3 X-3.0142 Y1.4184 I-0.018 J-0.0035
N19190 G1 Y1.4142
N19195 X-3.0149 Y1.4069
N19200 X-3.0151 Y1.4009
N19205 X-3.0131 Y1.3953
N19210 X-3.0094 Y1.3905
N19215 X-3.0025 Y1.387
N19220 X-2.9948 Y1.3864
N19225 X-2.9874 Y1.3887
N19230 X-2.9815 Y1.3937
N19235 X-2.9779 Y1.4005
N19240 X-2.9771 Y1.4082
N19245 G3 X-2.9826 Y1.4222 I-0.031 J-0.004
N19250 X-3.0073 Y1.4236 I-0.0129 J-0.0091
N19255 X-3.0149 Y1.4069 I0.0234 J-0.0207
N19260 G1 X-3.0159 Y1.3959
N19265 X-3.0163 Y1.3931
N19270 X-3.0167 Y1.3871
N19275 X-3.0147 Y1.3814
N19280 X-3.0113 Y1.3765
N19285 X-3.0049 Y1.3728
N19290 X-2.9977 Y1.3714
N19295 X-2.9904 Y1.3725
N19300 X-2.9839 Y1.376
N19305 X-2.979 Y1.3815
N19310 X-2.9762 Y1.3883
N19315 X-2.9759 Y1.3957
N19320 G3 X-2.9813 Y1.4087 I-0.0308 J-0.0051
N19325 X-3.0058 Y1.4117 I-0.0136 J-0.0097
N19330 X-3.0163 Y1.3931 I0.0204 J-0.0237
N19335 G1 X-3.0171 Y1.3867
N19340 X-3.0184 Y1.3804
N19345 X-3.0193 Y1.3744
N19350 X-3.0179 Y1.3686
N19355 X-3.015 Y1.3633
N19360 X-3.0109 Y1.3589
N19365 X-3.0036 Y1.3556
N19370 X-2.9956 Y1.3548
N19375 X-2.9878 Y1.3567
N19380 X-2.9811 Y1.3612
N19385 X-2.9763 Y1.3676
N19390 X-2.9738 Y1.3753
N19395 X-2.9741 Y1.3833
N19400 G3 X-2.9806 Y1.3961 I-0.0304 J-0.0073
N19405 X-3.0035 Y1.4002 I-0.0139 J-0.0117
N19410 X-3.0184 Y1.3804 I0.0155 J-0.0272
N19415 G1 X-3.0218 Y1.3638
N19420 X-3.0227 Y1.3579
