%
(HEMA-P016-M.250)
(T2 D=0.25 CR=0. - ZMIN=-0.375 - FLAT END MILL)
N10 G90 G94 G17 G91.1
N15 G20
N20 G53 G0 Z0.
(2D CONTOUR1)
N25 T2 M6
N30 S5000 M3
N35 G17 G90 G94
N40 G54
N45 G64 P0.0004 Q0.0004
N50 M8
N55 G0 X0.215 Y-1.9778
N60 G43 Z0.9 H2
N65 G0 Z0.2
N70 G1 Z0.0394 F10.
N75 Z-0.085
N80 G18 G3 X0.19 Z-0.11 I-0.025 K0. F15.
N85 G1 X0.165
N90 G17 G3 X0.14 Y-2.0028 I0. J-0.025
N95 G1 Y-3.8583
N100 G2 X-0.0787 Y-4.077 I-0.2187 J0.
N105 G1 X-3.8583
N110 G2 X-4.077 Y-3.8583 I0. J0.2187
N115 G1 Y-2.8622
N120 G3 X-4.437 Y-2.5022 I-0.36 J0.
N125 G1 X-7.4059
N130 G2 X-7.7861 Y-1.5939 I0. J0.5337
N135 G1 X-6.1419 Y0.0748
N140 G2 X-5.9861 Y0.14 I0.1558 J-0.1535
N145 G1 X-0.0787
N150 G2 X0.14 Y-0.0787 I0. J-0.2187
N155 G1 Y-2.0028
N160 G3 X0.165 Y-2.0278 I0.025 J0.
N165 G1 X0.19
N170 G18 G2 X0.215 Z-0.085 I0. K0.025
N175 G0 Z0.5
N180 Y-1.9778
N185 Z0.2
N190 G1 Z-0.0706 F10.
N195 Z-0.195
N200 G3 X0.19 Z-0.22 I-0.025 K0. F15.
N205 G1 X0.165
N210 G17 G3 X0.14 Y-2.0028 I0. J-0.025
N215 G1 Y-3.8583
N220 G2 X-0.0787 Y-4.077 I-0.2187 J0.
N225 G1 X-3.8583
N230 G2 X-4.077 Y-3.8583 I0. J0.2187
N235 G1 Y-2.8622
N240 G3 X-4.437 Y-2.5022 I-0.36 J0.
N245 G1 X-7.4059
N250 G2 X-7.7861 Y-1.5939 I0. J0.5337
N255 G1 X-6.1419 Y0.0748
N260 G2 X-5.9861 Y0.14 I0.1558 J-0.1535
N265 G1 X-0.0787
N270 G2 X0.14 Y-0.0787 I0. J-0.2187
N275 G1 Y-2.0028
N280 G3 X0.165 Y-2.0278 I0.025 J0.
N285 G1 X0.19
N290 G18 G2 X0.215 Z-0.195 I0. K0.025
N295 G0 Z0.5
N300 Y-1.9778
N305 Z0.2
N310 G1 Z-0.1806 F10.
N315 Z-0.305
N320 G3 X0.19 Z-0.33 I-0.025 K0. F15.
N325 G1 X0.165
N330 G17 G3 X0.14 Y-2.0028 I0. J-0.025
N335 G1 Y-3.8583
N340 G2 X-0.0787 Y-4.077 I-0.2187 J0.
N345 G1 X-3.8583
N350 G2 X-4.077 Y-3.8583 I0. J0.2187
N355 G1 Y-2.8622
N360 G3 X-4.437 Y-2.5022 I-0.36 J0.
N365 G1 X-7.4059
N370 G2 X-7.7861 Y-1.5939 I0. J0.5337
N375 G1 X-6.1419 Y0.0748
N380 G2 X-5.9861 Y0.14 I0.1558 J-0.1535
N385 G1 X-0.0787
N390 G2 X0.14 Y-0.0787 I0. J-0.2187
N395 G1 Y-2.0028
N400 G3 X0.165 Y-2.0278 I0.025 J0.
N405 G1 X0.19
N410 G18 G2 X0.215 Z-0.305 I0. K0.025
N415 G0 Z0.9
N420 G17
(2D CONTOUR1 2)
N425 G0 X0.2 Y-1.6673
N430 Z0.9
N435 Z0.2
N440 G1 Z0.0394 F10.
N445 Z-0.305
N450 G18 G3 X0.175 Z-0.33 I-0.025 K0. F15.
N455 G1 X0.15
N460 G17 G3 X0.125 Y-1.6923 I0. J-0.025
N465 G1 Y-3.8583
N470 G2 X-0.0787 Y-4.062 I-0.2037 J0.
N475 G1 X-3.8583
N480 G2 X-4.062 Y-3.8583 I0. J0.2037
N485 G1 Y-2.8622
N490 G3 X-4.437 Y-2.4872 I-0.375 J0.
N495 G1 X-7.4059
N500 G2 X-7.7754 Y-1.6044 I0. J0.5187
N505 G1 X-6.1312 Y0.0643
N510 G2 X-5.9861 Y0.125 I0.1451 J-0.143
N515 G1 X-0.0787
N520 G2 X0.125 Y-0.0787 I0. J-0.2037
N525 G1 Y-1.6923
N530 G3 X0.15 Y-1.7173 I0.025 J0.
N535 G1 X0.175
N540 G18 G2 X0.2 Z-0.305 I0. K0.025
N545 G0 Z0.9
N550 G17
(2D POCKET1)
N555 G64 P0.004 Q0.004
N560 G0 X-2.7589 Y-2.0619
N565 Z0.9
N570 Z0.2
N575 G1 Z0.1246 F10.
N580 X-2.7577 Y-2.061 Z0.1161 F13.333
N585 X-2.7544 Y-2.0582 Z0.1086
N590 X-2.7495 Y-2.0537 Z0.103
N595 X-2.7439 Y-2.0478 Z0.1
N600 G3 X-2.9206 Y-1.8892 Z0.0342 I-0.0884 J0.0793
N605 X-2.7439 Y-2.0478 Z-0.0316 I0.0884 J-0.0793
N610 X-2.9206 Y-1.8892 Z-0.0973 I-0.0884 J0.0793
N615 X-2.7439 Y-2.0478 Z-0.1631 I0.0884 J-0.0793
N620 X-2.9206 Y-1.8892 Z-0.2289 I-0.0884 J0.0793
N625 X-2.7439 Y-2.0478 Z-0.2947 I0.0884 J-0.0793
N630 X-2.7135 Y-1.9685 Z-0.31 I-0.0884 J0.0793
N635 X-2.7983 I-0.0424 J0. F15.
N640 X-2.5635 I0.1174 J0.
N645 X-2.9483 I-0.1924 J0.
N650 X-2.4135 I0.2674 J0.
N655 X-3.0983 I-0.3424 J0.
N660 X-2.2635 I0.4174 J0.
N665 X-3.2483 I-0.4924 J0.
N670 X-2.1135 I0.5674 J0.
N675 X-3.3983 I-0.6424 J0.
N680 X-2.1135 I0.6424 J0.
N685 G1 X-2.1139 Y-1.9647 Z-0.3094
N690 X-2.1149 Y-1.9609 Z-0.3088
N695 X-2.1163 Y-1.9578 Z-0.307
N700 X-2.1182 Y-1.9548 Z-0.3052
N705 X-2.1199 Y-1.9527 Z-0.3025
N710 X-2.1219 Y-1.9507 Z-0.2997
N715 X-2.1247 Y-1.9486 Z-0.2927
N720 X-2.1258 Y-1.948 Z-0.285
N725 G0 Z0.9
(BORE1)
N730 G64 P0.0004 Q0.0004
N735 G0 X-3.6601 Y-3.6551
N740 Z0.9
N745 Z0.08
N750 G1 Z0.025 F15.
N755 G18 G2 X-3.6351 Z0. I0.025 K0.
N760 G1 X-3.6226
N765 G17 G3 X-3.6064 Y-3.6388 I0. J0.0162
N770 X-3.6713 Z-0.0055 I-0.0325 J0.
N775 X-3.6064 Z-0.011 I0.0325 J0.
N780 X-3.6713 Z-0.0165 I-0.0325 J0.
N785 X-3.6064 Z-0.022 I0.0325 J0.
N790 X-3.6713 Z-0.0275 I-0.0325 J0.
N795 X-3.6064 Z-0.033 I0.0325 J0.
N800 X-3.6713 Z-0.0385 I-0.0325 J0.
N805 X-3.6064 Z-0.044 I0.0325 J0.
N810 X-3.6713 Z-0.0495 I-0.0325 J0.
N815 X-3.6064 Z-0.055 I0.0325 J0.
N820 X-3.6713 Z-0.0605 I-0.0325 J0.
N825 X-3.6064 Z-0.066 I0.0325 J0.
N830 X-3.6713 Z-0.0715 I-0.0325 J0.
N835 X-3.6064 Z-0.077 I0.0325 J0.
N840 X-3.6713 Z-0.0825 I-0.0325 J0.
N845 X-3.6064 Z-0.088 I0.0325 J0.
N850 X-3.6713 Z-0.0935 I-0.0325 J0.
N855 X-3.6064 Z-0.099 I0.0325 J0.
N860 X-3.6713 Z-0.1045 I-0.0325 J0.
N865 X-3.6064 Z-0.11 I0.0325 J0.
N870 X-3.6713 Z-0.1155 I-0.0325 J0.
N875 X-3.6064 Z-0.121 I0.0325 J0.
N880 X-3.6713 Z-0.1265 I-0.0325 J0.
N885 X-3.6064 Z-0.132 I0.0325 J0.
N890 X-3.6713 Z-0.1375 I-0.0325 J0.
N895 X-3.6064 Z-0.143 I0.0325 J0.
N900 X-3.6713 Z-0.1485 I-0.0325 J0.
N905 X-3.6064 Z-0.154 I0.0325 J0.
N910 X-3.6713 Z-0.1595 I-0.0325 J0.
N915 X-3.6064 Z-0.165 I0.0325 J0.
N920 X-3.6713 Z-0.1705 I-0.0325 J0.
N925 X-3.6064 Z-0.176 I0.0325 J0.
N930 X-3.6713 Z-0.1815 I-0.0325 J0.
N935 X-3.6064 Z-0.187 I0.0325 J0.
N940 X-3.6713 Z-0.1925 I-0.0325 J0.
N945 X-3.6064 Z-0.198 I0.0325 J0.
N950 X-3.6713 Z-0.2035 I-0.0325 J0.
N955 X-3.6064 Z-0.209 I0.0325 J0.
N960 X-3.6713 Z-0.2145 I-0.0325 J0.
N965 X-3.6064 Z-0.22 I0.0325 J0.
N970 X-3.6713 Z-0.2255 I-0.0325 J0.
N975 X-3.6064 Z-0.231 I0.0325 J0.
N980 X-3.6713 Z-0.2365 I-0.0325 J0.
N985 X-3.6064 Z-0.242 I0.0325 J0.
N990 X-3.6713 Z-0.2475 I-0.0325 J0.
N995 X-3.6064 Z-0.253 I0.0325 J0.
N1000 X-3.6713 Z-0.2585 I-0.0325 J0.
N1005 X-3.6064 Z-0.264 I0.0325 J0.
N1010 X-3.6713 Z-0.2695 I-0.0325 J0.
N1015 X-3.6064 Z-0.275 I0.0325 J0.
N1020 X-3.6713 Z-0.2805 I-0.0325 J0.
N1025 X-3.6064 Z-0.286 I0.0325 J0.
N1030 X-3.6713 Z-0.2915 I-0.0325 J0.
N1035 X-3.6064 Z-0.297 I0.0325 J0.
N1040 X-3.6713 Z-0.3025 I-0.0325 J0.
N1045 X-3.6064 Z-0.308 I0.0325 J0.
N1050 X-3.6713 Z-0.3135 I-0.0325 J0.
N1055 X-3.6064 Z-0.319 I0.0325 J0.
N1060 X-3.6713 Z-0.3245 I-0.0325 J0.
N1065 X-3.6064 Z-0.33 I0.0325 J0.
N1070 X-3.6713 Z-0.3355 I-0.0325 J0.
N1075 X-3.6064 Z-0.341 I0.0325 J0.
N1080 X-3.6713 Z-0.3465 I-0.0325 J0.
N1085 X-3.6064 Z-0.352 I0.0325 J0.
N1090 X-3.6713 Z-0.3575 I-0.0325 J0.
N1095 X-3.6064 Z-0.363 I0.0325 J0.
N1100 X-3.6713 Z-0.3685 I-0.0325 J0.
N1105 X-3.6064 Z-0.374 I0.0325 J0.
N1110 X-3.612 Y-3.6206 Z-0.375 I-0.0325 J0.
N1115 X-3.6657 Y-3.6571 I-0.0269 J-0.0183
N1120 X-3.612 Y-3.6206 I0.0269 J0.0183
N1125 X-3.6345 Y-3.6163 I-0.0134 J-0.0091
N1130 G1 X-3.6449 Y-3.6233
N1135 X-3.6481 Y-3.6255 Z-0.3747
N1140 X-3.6513 Y-3.6276 Z-0.3738
N1145 X-3.6543 Y-3.6297 Z-0.3723
N1150 X-3.657 Y-3.6316 Z-0.3702
N1155 X-3.6595 Y-3.6332 Z-0.3677
N1160 X-3.6616 Y-3.6347 Z-0.3647
N1165 X-3.6633 Y-3.6358 Z-0.3613
N1170 X-3.6645 Y-3.6367 Z-0.3577
N1175 X-3.6653 Y-3.6372 Z-0.3539
N1180 X-3.6655 Y-3.6374 Z-0.35
N1185 G0 Z0.5
N1190 X-0.3194 Y-3.6551
N1195 Z0.08
N1200 G1 Z0.025 F15.
N1205 G18 G2 X-0.2944 Z0. I0.025 K0.
N1210 G1 X-0.2819
N1215 G17 G3 X-0.2657 Y-3.6388 I0. J0.0162
N1220 X-0.3307 Z-0.0055 I-0.0325 J0.
N1225 X-0.2657 Z-0.011 I0.0325 J0.
N1230 X-0.3307 Z-0.0165 I-0.0325 J0.
N1235 X-0.2657 Z-0.022 I0.0325 J0.
N1240 X-0.3307 Z-0.0275 I-0.0325 J0.
N1245 X-0.2657 Z-0.033 I0.0325 J0.
N1250 X-0.3307 Z-0.0385 I-0.0325 J0.
N1255 X-0.2657 Z-0.044 I0.0325 J0.
N1260 X-0.3307 Z-0.0495 I-0.0325 J0.
N1265 X-0.2657 Z-0.055 I0.0325 J0.
N1270 X-0.3307 Z-0.0605 I-0.0325 J0.
N1275 X-0.2657 Z-0.066 I0.0325 J0.
N1280 X-0.3307 Z-0.0715 I-0.0325 J0.
N1285 X-0.2657 Z-0.077 I0.0325 J0.
N1290 X-0.3307 Z-0.0825 I-0.0325 J0.
N1295 X-0.2657 Z-0.088 I0.0325 J0.
N1300 X-0.3307 Z-0.0935 I-0.0325 J0.
N1305 X-0.2657 Z-0.099 I0.0325 J0.
N1310 X-0.3307 Z-0.1045 I-0.0325 J0.
N1315 X-0.2657 Z-0.11 I0.0325 J0.
N1320 X-0.3307 Z-0.1155 I-0.0325 J0.
N1325 X-0.2657 Z-0.121 I0.0325 J0.
N1330 X-0.3307 Z-0.1265 I-0.0325 J0.
N1335 X-0.2657 Z-0.132 I0.0325 J0.
N1340 X-0.3307 Z-0.1375 I-0.0325 J0.
N1345 X-0.2657 Z-0.143 I0.0325 J0.
N1350 X-0.3307 Z-0.1485 I-0.0325 J0.
N1355 X-0.2657 Z-0.154 I0.0325 J0.
N1360 X-0.3307 Z-0.1595 I-0.0325 J0.
N1365 X-0.2657 Z-0.165 I0.0325 J0.
N1370 X-0.3307 Z-0.1705 I-0.0325 J0.
N1375 X-0.2657 Z-0.176 I0.0325 J0.
N1380 X-0.3307 Z-0.1815 I-0.0325 J0.
N1385 X-0.2657 Z-0.187 I0.0325 J0.
N1390 X-0.3307 Z-0.1925 I-0.0325 J0.
N1395 X-0.2657 Z-0.198 I0.0325 J0.
N1400 X-0.3307 Z-0.2035 I-0.0325 J0.
N1405 X-0.2657 Z-0.209 I0.0325 J0.
N1410 X-0.3307 Z-0.2145 I-0.0325 J0.
N1415 X-0.2657 Z-0.22 I0.0325 J0.
N1420 X-0.3307 Z-0.2255 I-0.0325 J0.
N1425 X-0.2657 Z-0.231 I0.0325 J0.
N1430 X-0.3307 Z-0.2365 I-0.0325 J0.
N1435 X-0.2657 Z-0.242 I0.0325 J0.
N1440 X-0.3307 Z-0.2475 I-0.0325 J0.
N1445 X-0.2657 Z-0.253 I0.0325 J0.
N1450 X-0.3307 Z-0.2585 I-0.0325 J0.
N1455 X-0.2657 Z-0.264 I0.0325 J0.
N1460 X-0.3307 Z-0.2695 I-0.0325 J0.
N1465 X-0.2657 Z-0.275 I0.0325 J0.
N1470 X-0.3307 Z-0.2805 I-0.0325 J0.
N1475 X-0.2657 Z-0.286 I0.0325 J0.
N1480 X-0.3307 Z-0.2915 I-0.0325 J0.
N1485 X-0.2657 Z-0.297 I0.0325 J0.
N1490 X-0.3307 Z-0.3025 I-0.0325 J0.
N1495 X-0.2657 Z-0.308 I0.0325 J0.
N1500 X-0.3307 Z-0.3135 I-0.0325 J0.
N1505 X-0.2657 Z-0.319 I0.0325 J0.
N1510 X-0.3307 Z-0.3245 I-0.0325 J0.
N1515 X-0.2657 Z-0.33 I0.0325 J0.
N1520 X-0.3307 Z-0.3355 I-0.0325 J0.
N1525 X-0.2657 Z-0.341 I0.0325 J0.
N1530 X-0.3307 Z-0.3465 I-0.0325 J0.
N1535 X-0.2657 Z-0.352 I0.0325 J0.
N1540 X-0.3307 Z-0.3575 I-0.0325 J0.
N1545 X-0.2657 Z-0.363 I0.0325 J0.
N1550 X-0.3307 Z-0.3685 I-0.0325 J0.
N1555 X-0.2657 Z-0.374 I0.0325 J0.
N1560 X-0.2713 Y-3.6206 Z-0.375 I-0.0325 J0.
N1565 X-0.325 Y-3.6571 I-0.0269 J-0.0183
N1570 X-0.2713 Y-3.6206 I0.0269 J0.0183
N1575 X-0.2939 Y-3.6163 I-0.0134 J-0.0091
N1580 G1 X-0.3042 Y-3.6233
N1585 X-0.3074 Y-3.6255 Z-0.3747
N1590 X-0.3106 Y-3.6276 Z-0.3738
N1595 X-0.3136 Y-3.6297 Z-0.3723
N1600 X-0.3164 Y-3.6316 Z-0.3702
N1605 X-0.3188 Y-3.6332 Z-0.3677
N1610 X-0.3209 Y-3.6347 Z-0.3647
N1615 X-0.3226 Y-3.6358 Z-0.3613
N1620 X-0.3239 Y-3.6367 Z-0.3577
N1625 X-0.3246 Y-3.6372 Z-0.3539
N1630 X-0.3249 Y-3.6374 Z-0.35
N1635 G0 Z0.5
N1640 X-0.3194 Y-0.3144
N1645 Z0.08
N1650 G1 Z0.025 F15.
N1655 G18 G2 X-0.2944 Z0. I0.025 K0.
N1660 G1 X-0.2819
N1665 G17 G3 X-0.2657 Y-0.2982 I0. J0.0162
N1670 X-0.3307 Z-0.0055 I-0.0325 J0.
N1675 X-0.2657 Z-0.011 I0.0325 J0.
N1680 X-0.3307 Z-0.0165 I-0.0325 J0.
N1685 X-0.2657 Z-0.022 I0.0325 J0.
N1690 X-0.3307 Z-0.0275 I-0.0325 J0.
N1695 X-0.2657 Z-0.033 I0.0325 J0.
N1700 X-0.3307 Z-0.0385 I-0.0325 J0.
N1705 X-0.2657 Z-0.044 I0.0325 J0.
N1710 X-0.3307 Z-0.0495 I-0.0325 J0.
N1715 X-0.2657 Z-0.055 I0.0325 J0.
N1720 X-0.3307 Z-0.0605 I-0.0325 J0.
N1725 X-0.2657 Z-0.066 I0.0325 J0.
N1730 X-0.3307 Z-0.0715 I-0.0325 J0.
N1735 X-0.2657 Z-0.077 I0.0325 J0.
N1740 X-0.3307 Z-0.0825 I-0.0325 J0.
N1745 X-0.2657 Z-0.088 I0.0325 J0.
N1750 X-0.3307 Z-0.0935 I-0.0325 J0.
N1755 X-0.2657 Z-0.099 I0.0325 J0.
N1760 X-0.3307 Z-0.1045 I-0.0325 J0.
N1765 X-0.2657 Z-0.11 I0.0325 J0.
N1770 X-0.3307 Z-0.1155 I-0.0325 J0.
N1775 X-0.2657 Z-0.121 I0.0325 J0.
N1780 X-0.3307 Z-0.1265 I-0.0325 J0.
N1785 X-0.2657 Z-0.132 I0.0325 J0.
N1790 X-0.3307 Z-0.1375 I-0.0325 J0.
N1795 X-0.2657 Z-0.143 I0.0325 J0.
N1800 X-0.3307 Z-0.1485 I-0.0325 J0.
N1805 X-0.2657 Z-0.154 I0.0325 J0.
N1810 X-0.3307 Z-0.1595 I-0.0325 J0.
N1815 X-0.2657 Z-0.165 I0.0325 J0.
N1820 X-0.3307 Z-0.1705 I-0.0325 J0.
N1825 X-0.2657 Z-0.176 I0.0325 J0.
N1830 X-0.3307 Z-0.1815 I-0.0325 J0.
N1835 X-0.2657 Z-0.187 I0.0325 J0.
N1840 X-0.3307 Z-0.1925 I-0.0325 J0.
N1845 X-0.2657 Z-0.198 I0.0325 J0.
N1850 X-0.3307 Z-0.2035 I-0.0325 J0.
N1855 X-0.2657 Z-0.209 I0.0325 J0.
N1860 X-0.3307 Z-0.2145 I-0.0325 J0.
N1865 X-0.2657 Z-0.22 I0.0325 J0.
N1870 X-0.3307 Z-0.2255 I-0.0325 J0.
N1875 X-0.2657 Z-0.231 I0.0325 J0.
N1880 X-0.3307 Z-0.2365 I-0.0325 J0.
N1885 X-0.2657 Z-0.242 I0.0325 J0.
N1890 X-0.3307 Z-0.2475 I-0.0325 J0.
N1895 X-0.2657 Z-0.253 I0.0325 J0.
N1900 X-0.3307 Z-0.2585 I-0.0325 J0.
N1905 X-0.2657 Z-0.264 I0.0325 J0.
N1910 X-0.3307 Z-0.2695 I-0.0325 J0.
N1915 X-0.2657 Z-0.275 I0.0325 J0.
N1920 X-0.3307 Z-0.2805 I-0.0325 J0.
N1925 X-0.2657 Z-0.286 I0.0325 J0.
N1930 X-0.3307 Z-0.2915 I-0.0325 J0.
N1935 X-0.2657 Z-0.297 I0.0325 J0.
N1940 X-0.3307 Z-0.3025 I-0.0325 J0.
N1945 X-0.2657 Z-0.308 I0.0325 J0.
N1950 X-0.3307 Z-0.3135 I-0.0325 J0.
N1955 X-0.2657 Z-0.319 I0.0325 J0.
N1960 X-0.3307 Z-0.3245 I-0.0325 J0.
N1965 X-0.2657 Z-0.33 I0.0325 J0.
N1970 X-0.3307 Z-0.3355 I-0.0325 J0.
N1975 X-0.2657 Z-0.341 I0.0325 J0.
N1980 X-0.3307 Z-0.3465 I-0.0325 J0.
N1985 X-0.2657 Z-0.352 I0.0325 J0.
N1990 X-0.3307 Z-0.3575 I-0.0325 J0.
N1995 X-0.2657 Z-0.363 I0.0325 J0.
N2000 X-0.3307 Z-0.3685 I-0.0325 J0.
N2005 X-0.2657 Z-0.374 I0.0325 J0.
N2010 X-0.2713 Y-0.2799 Z-0.375 I-0.0325 J0.
N2015 X-0.325 Y-0.3164 I-0.0269 J-0.0183
N2020 X-0.2713 Y-0.2799 I0.0269 J0.0183
N2025 X-0.2939 Y-0.2756 I-0.0134 J-0.0091
N2030 G1 X-0.3042 Y-0.2826
N2035 X-0.3074 Y-0.2848 Z-0.3747
N2040 X-0.3106 Y-0.287 Z-0.3738
N2045 X-0.3136 Y-0.289 Z-0.3723
N2050 X-0.3164 Y-0.2909 Z-0.3702
N2055 X-0.3188 Y-0.2926 Z-0.3677
N2060 X-0.3209 Y-0.294 Z-0.3647
N2065 X-0.3226 Y-0.2952 Z-0.3613
N2070 X-0.3239 Y-0.296 Z-0.3577
N2075 X-0.3246 Y-0.2965 Z-0.3539
N2080 X-0.3249 Y-0.2967 Z-0.35
N2085 G0 Z0.5
N2090 X-3.6601 Y-0.3144
N2095 Z0.08
N2100 G1 Z0.025 F15.
N2105 G18 G2 X-3.6351 Z0. I0.025 K0.
N2110 G1 X-3.6226
N2115 G17 G3 X-3.6064 Y-0.2982 I0. J0.0162
N2120 X-3.6713 Z-0.0055 I-0.0325 J0.
N2125 X-3.6064 Z-0.011 I0.0325 J0.
N2130 X-3.6713 Z-0.0165 I-0.0325 J0.
N2135 X-3.6064 Z-0.022 I0.0325 J0.
N2140 X-3.6713 Z-0.0275 I-0.0325 J0.
N2145 X-3.6064 Z-0.033 I0.0325 J0.
N2150 X-3.6713 Z-0.0385 I-0.0325 J0.
N2155 X-3.6064 Z-0.044 I0.0325 J0.
N2160 X-3.6713 Z-0.0495 I-0.0325 J0.
N2165 X-3.6064 Z-0.055 I0.0325 J0.
N2170 X-3.6713 Z-0.0605 I-0.0325 J0.
N2175 X-3.6064 Z-0.066 I0.0325 J0.
N2180 X-3.6713 Z-0.0715 I-0.0325 J0.
N2185 X-3.6064 Z-0.077 I0.0325 J0.
N2190 X-3.6713 Z-0.0825 I-0.0325 J0.
N2195 X-3.6064 Z-0.088 I0.0325 J0.
N2200 X-3.6713 Z-0.0935 I-0.0325 J0.
N2205 X-3.6064 Z-0.099 I0.0325 J0.
N2210 X-3.6713 Z-0.1045 I-0.0325 J0.
N2215 X-3.6064 Z-0.11 I0.0325 J0.
N2220 X-3.6713 Z-0.1155 I-0.0325 J0.
N2225 X-3.6064 Z-0.121 I0.0325 J0.
N2230 X-3.6713 Z-0.1265 I-0.0325 J0.
N2235 X-3.6064 Z-0.132 I0.0325 J0.
N2240 X-3.6713 Z-0.1375 I-0.0325 J0.
N2245 X-3.6064 Z-0.143 I0.0325 J0.
N2250 X-3.6713 Z-0.1485 I-0.0325 J0.
N2255 X-3.6064 Z-0.154 I0.0325 J0.
N2260 X-3.6713 Z-0.1595 I-0.0325 J0.
N2265 X-3.6064 Z-0.165 I0.0325 J0.
N2270 X-3.6713 Z-0.1705 I-0.0325 J0.
N2275 X-3.6064 Z-0.176 I0.0325 J0.
N2280 X-3.6713 Z-0.1815 I-0.0325 J0.
N2285 X-3.6064 Z-0.187 I0.0325 J0.
N2290 X-3.6713 Z-0.1925 I-0.0325 J0.
N2295 X-3.6064 Z-0.198 I0.0325 J0.
N2300 X-3.6713 Z-0.2035 I-0.0325 J0.
N2305 X-3.6064 Z-0.209 I0.0325 J0.
N2310 X-3.6713 Z-0.2145 I-0.0325 J0.
N2315 X-3.6064 Z-0.22 I0.0325 J0.
N2320 X-3.6713 Z-0.2255 I-0.0325 J0.
N2325 X-3.6064 Z-0.231 I0.0325 J0.
N2330 X-3.6713 Z-0.2365 I-0.0325 J0.
N2335 X-3.6064 Z-0.242 I0.0325 J0.
N2340 X-3.6713 Z-0.2475 I-0.0325 J0.
N2345 X-3.6064 Z-0.253 I0.0325 J0.
N2350 X-3.6713 Z-0.2585 I-0.0325 J0.
N2355 X-3.6064 Z-0.264 I0.0325 J0.
N2360 X-3.6713 Z-0.2695 I-0.0325 J0.
N2365 X-3.6064 Z-0.275 I0.0325 J0.
N2370 X-3.6713 Z-0.2805 I-0.0325 J0.
N2375 X-3.6064 Z-0.286 I0.0325 J0.
N2380 X-3.6713 Z-0.2915 I-0.0325 J0.
N2385 X-3.6064 Z-0.297 I0.0325 J0.
N2390 X-3.6713 Z-0.3025 I-0.0325 J0.
N2395 X-3.6064 Z-0.308 I0.0325 J0.
N2400 X-3.6713 Z-0.3135 I-0.0325 J0.
N2405 X-3.6064 Z-0.319 I0.0325 J0.
N2410 X-3.6713 Z-0.3245 I-0.0325 J0.
N2415 X-3.6064 Z-0.33 I0.0325 J0.
N2420 X-3.6713 Z-0.3355 I-0.0325 J0.
N2425 X-3.6064 Z-0.341 I0.0325 J0.
N2430 X-3.6713 Z-0.3465 I-0.0325 J0.
N2435 X-3.6064 Z-0.352 I0.0325 J0.
N2440 X-3.6713 Z-0.3575 I-0.0325 J0.
N2445 X-3.6064 Z-0.363 I0.0325 J0.
N2450 X-3.6713 Z-0.3685 I-0.0325 J0.
N2455 X-3.6064 Z-0.374 I0.0325 J0.
N2460 X-3.612 Y-0.2799 Z-0.375 I-0.0325 J0.
N2465 X-3.6657 Y-0.3164 I-0.0269 J-0.0183
N2470 X-3.612 Y-0.2799 I0.0269 J0.0183
N2475 X-3.6345 Y-0.2756 I-0.0134 J-0.0091
N2480 G1 X-3.6449 Y-0.2826
N2485 X-3.6481 Y-0.2848 Z-0.3747
N2490 X-3.6513 Y-0.287 Z-0.3738
N2495 X-3.6543 Y-0.289 Z-0.3723
N2500 X-3.657 Y-0.2909 Z-0.3702
N2505 X-3.6595 Y-0.2926 Z-0.3677
N2510 X-3.6616 Y-0.294 Z-0.3647
N2515 X-3.6633 Y-0.2952 Z-0.3613
N2520 X-3.6645 Y-0.296 Z-0.3577
N2525 X-3.6653 Y-0.2965 Z-0.3539
N2530 X-3.6655 Y-0.2967 Z-0.35
N2535 G0 Z0.9
N2540 M5
N2545 M9
N2550 G53 G0 Z0.
N2555 M30
%
