%
(HEMA-P040-M.250)
(T2 D=0.25 CR=0. - ZMIN=-0.165 - FLAT END MILL)
N10 G90 G94 G17 G91.1
N15 G20
N20 G53 G0 Z0.
(2D CONTOUR1)
N25 T2 M6
N30 S5000 M3
N35 G17 G90 G94
N40 G54
N45 G64 P0.0004 Q0.0004
N50 M8
N55 G0 X-1.8399 Y0.21
N60 G43 Z0.6 H2
N65 G0 Z0.2
N70 G1 Z0.0394 F10.
N75 Z-0.14
N80 G19 G2 Y0.185 Z-0.165 J-0.025 K0. F12.
N85 G1 Y0.16
N90 G17 G3 X-1.8149 Y0.135 I0.025 J0.
N95 G1 X-0.0787
N100 G2 X0.135 Y-0.0787 I0. J-0.2137
N105 G1 Y-1.4173
N110 G2 X0.0312 Y-1.6006 I-0.2137 J0.
N115 G1 X-0.7562 Y-2.073
N120 G2 X-0.8661 Y-2.1035 I-0.11 J0.1833
N125 G1 X-5.2362
N130 G2 X-5.45 Y-1.8898 I0. J0.2137
N135 G1 Y-1.2257
N140 G2 X-5.3462 Y-1.0424 I0.2137 J0.
N145 G1 X-3.4346 Y0.1045
N150 G2 X-3.3246 Y0.135 I0.11 J-0.1833
N155 G1 X-1.8149
N160 X-1.813 Y0.1348
N165 X-1.8112 Y0.1341
N170 X-1.8097 Y0.1331
N175 X-1.8084 Y0.1317
N180 X-1.8074 Y0.13
N185 X-1.8065 Y0.1283
N190 X-1.8052 Y0.1269
N195 X-1.8036 Y0.1259
N200 X-1.8018 Y0.1252
N205 X-1.7999 Y0.125
N210 X-0.0787 F20.
N215 G2 X0.125 Y-0.0787 I0. J-0.2037
N220 G1 Y-1.4173
N225 G2 X0.0261 Y-1.592 I-0.2037 J0.
N230 G1 X-0.7613 Y-2.0645
N235 G2 X-0.8661 Y-2.0935 I-0.1048 J0.1747
N240 G1 X-5.2362
N245 G2 X-5.44 Y-1.8898 I0. J0.2037
N250 G1 Y-1.2257
N255 G2 X-5.341 Y-1.051 I0.2037 J0.
N260 G1 X-3.4295 Y0.096
N265 G2 X-3.3246 Y0.125 I0.1048 J-0.1747
N270 G1 X-1.7999
N275 X-1.2999
N280 G3 X-1.2749 Y0.15 I0. J0.025 F12.
N285 G1 Y0.175
N290 G19 G3 Y0.2 Z-0.14 J0. K0.025
N295 G0 Z0.2
N300 X-7.8884 Y0.21
N305 G1 Z0.0394 F10.
N310 Z-0.14
N315 G2 Y0.185 Z-0.165 J-0.025 K0. F12.
N320 G1 Y0.16
N325 G17 G3 X-7.8634 Y0.135 I0.025 J0.
N330 G1 X-5.3449
N335 G2 X-5.1312 Y-0.0787 I0. J-0.2137
N340 G1 Y-0.7428
N345 G2 X-5.235 Y-0.9261 I-0.2137 J0.
N350 G1 X-7.1465 Y-2.073
N355 G2 X-7.2565 Y-2.1035 I-0.11 J0.1833
N360 G1 X-10.5024
N365 G2 X-10.7161 Y-1.8898 I0. J0.2137
N370 G1 Y-0.5512
N375 G2 X-10.6124 Y-0.3679 I0.2137 J0.
N380 G1 X-9.825 Y0.1045
N385 G2 X-9.715 Y0.135 I0.11 J-0.1833
N390 G1 X-7.8634
N395 X-7.8615 Y0.1348
N400 X-7.8597 Y0.1341
N405 X-7.8581 Y0.1331
N410 X-7.8568 Y0.1317
N415 X-7.8559 Y0.13
N420 X-7.855 Y0.1283
N425 X-7.8537 Y0.1269
N430 X-7.8521 Y0.1259
N435 X-7.8503 Y0.1252
N440 X-7.8484 Y0.125
N445 X-5.3449 F20.
N450 G2 X-5.1412 Y-0.0787 I0. J-0.2037
N455 G1 Y-0.7428
N460 G2 X-5.2401 Y-0.9175 I-0.2037 J0.
N465 G1 X-7.1517 Y-2.0645
N470 G2 X-7.2565 Y-2.0935 I-0.1048 J0.1747
N475 G1 X-10.5024
N480 G2 X-10.7061 Y-1.8898 I0. J0.2037
N485 G1 Y-0.5512
N490 G2 X-10.6072 Y-0.3765 I0.2037 J0.
N495 G1 X-9.8198 Y0.096
N500 G2 X-9.715 Y0.125 I0.1048 J-0.1747
N505 G1 X-7.8484
N510 X-7.3484
N515 G3 X-7.3234 Y0.15 I0. J0.025 F12.
N520 G1 Y0.175
N525 G19 G3 Y0.2 Z-0.14 J0. K0.025
N530 G0 Z0.6
N535 G17
N540 M5
N545 M9
N550 G53 G0 Z0.
N555 M30
%
