%
(HEMA-P027)
(T1 D=0.1875 CR=0. - ZMIN=-0.8268 - FLAT END MILL)
N10 G90 G94 G17 G91.1
N15 G20
N20 G53 G0 Z0.
(ADAPTIVE1)
N25 T1 M6
N30 S5000 M3
N35 G17 G90 G94
N40 G54
N45 G64 P0.0039 Q0.0039
N50 M8
N55 G0 X0.0609 Y-0.4887
N60 G43 Z0.5906 H1
N65 G0 Z0.1969
N70 Z-0.1928
N75 G1 Z-0.2116 F39.37
N80 X0.0606 Z-0.2148
N85 X0.0598 Y-0.4884 Z-0.218
N90 X0.0584 Y-0.4881 Z-0.2209
N95 X0.0566 Y-0.4876 Z-0.2236
N100 X0.0544 Y-0.487 Z-0.2259
N105 X0.0518 Y-0.4863 Z-0.2278
N110 X0.049 Y-0.4855 Z-0.2292
N115 X0.0459 Y-0.4847 Z-0.23
N120 X0.0428 Y-0.4838 Z-0.2303
N125 G3 X-0.0591 Y-0.4677 I-0.1253 J-0.462
N130 G1 X-0.0766 Y-0.4674
N135 X-0.0837 Y-0.4667
N140 X-0.0977 Y-0.4644
N145 X-0.1048 Y-0.4631
N150 X-0.1189 Y-0.4603
N155 X-0.1259 Y-0.4587
N160 X-0.133 Y-0.4569
N165 X-0.14 Y-0.4544
N170 X-0.1471 Y-0.4516
N175 X-0.1612 Y-0.4436
N180 X-0.1682 Y-0.4394
N185 X-0.1719 Y-0.4369
N190 X-0.1806 Y-0.4317
N195 X-0.193 Y-0.4256
N200 X-0.2092 Y-0.4191
N205 X-0.2312 Y-0.4124
N210 X-0.2615 Y-0.4057
N215 X-0.2923 Y-0.4013
N220 X-0.3232 Y-0.3985
N225 X-0.3542 Y-0.3966
N230 X-0.3852 Y-0.3954
N235 X-0.4162 Y-0.3946
N240 X-0.4473 Y-0.394
N245 X-0.4783 Y-0.3937
N250 X-0.5094 Y-0.3934
N255 X-0.5404 Y-0.3933
N260 X-0.6025 Y-0.3931
N265 X-0.6956 Y-0.393
N270 X-1.0993
N275 X-1.3942
N280 X-1.409 Y-0.3882
N285 X-1.435 Y-0.3713
N290 X-1.4538 Y-0.3466
N295 X-1.467 Y-0.3185
N300 X-1.476 Y-0.2888
N305 X-1.4821 Y-0.2583
N310 X-1.4862 Y-0.2275
N315 X-1.489 Y-0.1966
N320 X-1.4908 Y-0.1656
N325 X-1.492 Y-0.1346
N330 X-1.4928 Y-0.1036
N335 X-1.4934 Y-0.0725
N340 X-1.4937 Y-0.0415
N345 X-1.4939 Y-0.0104
N350 X-1.4941 Y0.0206
N355 X-1.4942 Y0.0827
N360 Y0.1759
N365 Y0.2845
N370 X-1.4935 Y0.2923
N375 X-1.4893 Y0.3072
N380 X-1.4725 Y0.3333
N385 X-1.4478 Y0.3522
N390 X-1.4197 Y0.3654
N395 X-1.39 Y0.3744
N400 X-1.3596 Y0.3806
N405 X-1.3288 Y0.3847
N410 X-1.2979 Y0.3875
N415 X-1.2669 Y0.3893
N420 X-1.2359 Y0.3906
N425 X-1.2049 Y0.3914
N430 X-1.1738 Y0.3919
N435 X-1.1428 Y0.3923
N440 X-1.1117 Y0.3925
N445 X-1.0807 Y0.3927
N450 X-1.0186 Y0.3928
N455 X-0.9254 Y0.3929
N460 X-0.5529 Y0.393
N465 X-0.2403
N470 X-0.2312 Y0.394
N475 X-0.2225 Y0.3971
N480 X-0.2149 Y0.4021
N485 X-0.2085 Y0.4087
N490 X-0.2034 Y0.4136
N495 X-0.2012 Y0.4158
N500 X-0.1964 Y0.4199
N505 X-0.1893 Y0.4251
N510 X-0.1823 Y0.4299
N515 X-0.1682 Y0.4394
N520 X-0.1606 Y0.444
N525 X-0.1471 Y0.4516
N530 X-0.14 Y0.4544
N535 X-0.133 Y0.4569
N540 X-0.1259 Y0.4587
N545 X-0.1189 Y0.4603
N550 X-0.1048 Y0.4631
N555 X-0.0977 Y0.4644
N560 X-0.0837 Y0.4667
N565 G3 X-0.0693 Y0.4901 I-0.0037 J0.0184
N570 G1 X-0.0702 Y0.4933 Z-0.23
N575 X-0.071 Y0.4963 Z-0.2292
N580 X-0.0718 Y0.4992 Z-0.2278
N585 X-0.0725 Y0.5017 Z-0.2259
N590 X-0.0732 Y0.504 Z-0.2236
N595 X-0.0737 Y0.5058 Z-0.2209
N600 X-0.0741 Y0.5071 Z-0.218
N605 X-0.0743 Y0.5079 Z-0.2148
N610 X-0.0744 Y0.5082 Z-0.2116
N615 G0 Z0.1969
N620 X-0.144 Y-0.4776
N625 Z-0.1928
N630 G1 Z-0.2116 F39.37
N635 X-0.1441 Y-0.4773 Z-0.2148
N640 X-0.1444 Y-0.4765 Z-0.218
N645 X-0.145 Y-0.4753 Z-0.2209
N650 X-0.1458 Y-0.4736 Z-0.2236
N655 X-0.1468 Y-0.4715 Z-0.2259
N660 X-0.148 Y-0.4691 Z-0.2278
N665 X-0.1493 Y-0.4664 Z-0.2292
N670 X-0.1506 Y-0.4636 Z-0.23
N675 X-0.152 Y-0.4606 Z-0.2303
N680 G3 X-0.1719 Y-0.4369 I-0.0562 J-0.0268
N685 G1 X-0.1824 Y-0.4299
N690 X-0.1893 Y-0.4251
N695 X-0.1964 Y-0.4199
N700 X-0.2012 Y-0.4158
N705 X-0.2034 Y-0.4136
N710 X-0.2085 Y-0.4087
N715 X-0.2192 Y-0.3946
N720 X-0.2254 Y-0.3873
N725 X-0.231 Y-0.3816
N730 X-0.238 Y-0.3756
N735 X-0.2471 Y-0.369
N740 X-0.258 Y-0.3623
N745 X-0.2722 Y-0.3551
N750 X-0.29 Y-0.3478
N755 X-0.3138 Y-0.3403
N760 X-0.344 Y-0.3332
N765 X-0.3747 Y-0.3284
N770 X-0.4056 Y-0.3252
N775 X-0.4365 Y-0.3229
N780 X-0.4675 Y-0.3214
N785 X-0.4986 Y-0.3203
N790 X-0.5296 Y-0.3196
N795 X-0.5606 Y-0.3191
N800 X-0.5917 Y-0.3187
N805 X-0.6227 Y-0.3185
N810 X-0.6538 Y-0.3183
N815 X-0.7159 Y-0.3181
N820 X-0.809 Y-0.318
N825 X-1.0884
N830 X-1.2903
N835 X-1.3056 Y-0.3158
N840 X-1.3202 Y-0.3103
N845 X-1.3467 Y-0.2942
N850 X-1.3672 Y-0.2709
N855 X-1.3825 Y-0.2438
N860 X-1.3935 Y-0.2148
N865 X-1.4013 Y-0.1848
N870 X-1.4069 Y-0.1542
N875 X-1.4108 Y-0.1234
N880 X-1.4134 Y-0.0925
N885 X-1.4153 Y-0.0615
N890 X-1.4166 Y-0.0305
N895 X-1.4174 Y0.0006
N900 X-1.418 Y0.0316
N905 X-1.4184 Y0.0626
N910 X-1.4187 Y0.0937
N915 X-1.4189 Y0.1247
N920 X-1.419 Y0.1558
N925 X-1.4191 Y0.1868
N930 X-1.4173 Y0.2022
N935 X-1.4121 Y0.2169
N940 X-1.3966 Y0.2437
N945 X-1.3736 Y0.2646
N950 X-1.3467 Y0.2802
N955 X-1.3178 Y0.2914
N960 X-1.2878 Y0.2995
N965 X-1.2573 Y0.3051
N970 X-1.2265 Y0.3091
N975 X-1.1955 Y0.3119
N980 X-1.1645 Y0.3138
N985 X-1.1335 Y0.3151
N990 X-1.1025 Y0.316
N995 X-1.0715 Y0.3166
N1000 X-1.0404 Y0.3171
N1005 X-1.0094 Y0.3173
N1010 X-0.9783 Y0.3175
N1015 X-0.9473 Y0.3177
N1020 X-0.8852 Y0.3178
N1025 X-0.761 Y0.3179
N1030 X-0.3263 Y0.318
N1035 X-0.2953
N1040 X-0.2871 Y0.3185
N1045 X-0.2775 Y0.3202
N1050 X-0.2685 Y0.3239
N1055 X-0.2605 Y0.3295
N1060 X-0.2539 Y0.3368
N1065 X-0.2491 Y0.3453
N1070 X-0.2457 Y0.3534
N1075 X-0.2426 Y0.3594
N1080 X-0.2386 Y0.3664
N1085 X-0.2293 Y0.3805
N1090 X-0.2246 Y0.3876
N1095 X-0.2085 Y0.4087
N1100 G3 X-0.2142 Y0.4357 I-0.0153 J0.0108
N1105 G1 X-0.217 Y0.4373 Z-0.23
N1110 X-0.2197 Y0.4389 Z-0.2292
N1115 X-0.2223 Y0.4405 Z-0.2278
N1120 X-0.2246 Y0.4418 Z-0.2259
N1125 X-0.2266 Y0.443 Z-0.2236
N1130 X-0.2282 Y0.444 Z-0.2209
N1135 X-0.2294 Y0.4447 Z-0.218
N1140 X-0.2301 Y0.4451 Z-0.2148
N1145 X-0.2304 Y0.4452 Z-0.2116
N1150 G0 Z0.1969
N1155 X-0.2061 Y-0.4422
N1160 Z-0.1928
N1165 G1 Z-0.2116 F39.37
N1170 Y-0.4419 Z-0.2148
N1175 X-0.2062 Y-0.441 Z-0.218
N1180 X-0.2064 Y-0.4397 Z-0.2209
N1185 X-0.2066 Y-0.4378 Z-0.2236
N1190 X-0.2068 Y-0.4355 Z-0.2259
N1195 X-0.2071 Y-0.4328 Z-0.2278
N1200 X-0.2075 Y-0.4299 Z-0.2292
N1205 X-0.2078 Y-0.4268 Z-0.23
N1210 X-0.2082 Y-0.4235 Z-0.2303
N1215 G3 X-0.2192 Y-0.3946 I-0.0619 J-0.0071
N1220 G1 X-0.2246 Y-0.3876
N1225 X-0.234 Y-0.3735
N1230 X-0.2387 Y-0.3664
N1235 X-0.2426 Y-0.3594
N1240 X-0.2457 Y-0.3534
N1245 X-0.2491 Y-0.3453
N1250 X-0.2514 Y-0.3399
N1255 X-0.2549 Y-0.3341
N1260 X-0.2592 Y-0.3282
N1265 X-0.265 Y-0.3214
N1270 X-0.2722 Y-0.3142
N1275 X-0.2806 Y-0.3072
N1280 X-0.2915 Y-0.2993
N1285 X-0.3043 Y-0.2916
N1290 X-0.3209 Y-0.2833
N1295 X-0.3414 Y-0.2751
N1300 X-0.3684 Y-0.2666
N1305 X-0.3987 Y-0.2598
N1310 X-0.4294 Y-0.255
N1315 X-0.4602 Y-0.2515
N1320 X-0.4912 Y-0.249
N1325 X-0.5222 Y-0.2472
N1330 X-0.5532 Y-0.246
N1335 X-0.5842 Y-0.2451
N1340 X-0.6153 Y-0.2445
N1345 X-0.6463 Y-0.244
N1350 X-0.6773 Y-0.2437
N1355 X-0.7084 Y-0.2435
N1360 X-0.7394 Y-0.2433
N1365 X-0.8015 Y-0.2432
N1370 X-0.8947 Y-0.243
N1375 X-1.1431
N1380 X-1.2052
N1385 X-1.2205 Y-0.2407
N1390 X-1.2499 Y-0.2307
N1395 X-1.2743 Y-0.2116
N1400 X-1.2934 Y-0.187
N1405 X-1.3076 Y-0.1594
N1410 X-1.3181 Y-0.1302
N1415 X-1.3258 Y-0.1001
N1420 X-1.3312 Y-0.0696
N1425 X-1.3351 Y-0.0388
N1430 X-1.3379 Y-0.0078
N1435 X-1.3398 Y0.0231
N1440 X-1.3412 Y0.0542
N1445 X-1.3421 Y0.0852
N1450 X-1.3428 Y0.1162
N1455 X-1.3337 Y0.1459
N1460 X-1.3152 Y0.1709
N1465 X-1.291 Y0.1903
N1470 X-1.2636 Y0.205
N1475 X-1.2345 Y0.2158
N1480 X-1.2045 Y0.2237
N1485 X-1.174 Y0.2293
N1490 X-1.1432 Y0.2334
N1495 X-1.1123 Y0.2362
N1500 X-1.0813 Y0.2383
N1505 X-1.0503 Y0.2397
N1510 X-1.0192 Y0.2407
N1515 X-0.9882 Y0.2414
N1520 X-0.9572 Y0.2419
N1525 X-0.9261 Y0.2422
N1530 X-0.8951 Y0.2424
N1535 X-0.864 Y0.2426
N1540 X-0.8019 Y0.2428
N1545 X-0.7088 Y0.2429
N1550 X-0.4604 Y0.243
N1555 X-0.3673
N1560 X-0.3362 Y0.2434
N1565 X-0.316 Y0.2452
N1570 X-0.3007 Y0.2479
N1575 X-0.2939 Y0.2496
N1580 X-0.2842 Y0.2534
N1585 X-0.2757 Y0.2593
N1590 X-0.2688 Y0.2671
N1595 X-0.2639 Y0.2762
N1600 X-0.2613 Y0.2863
N1605 X-0.2598 Y0.2981
N1610 X-0.2591 Y0.303
N1615 X-0.2548 Y0.3242
N1620 X-0.2514 Y0.3383
N1625 X-0.2491 Y0.3453
N1630 G3 X-0.2634 Y0.3689 I-0.018 J0.0052
N1635 G1 X-0.2665 Y0.3695 Z-0.23
N1640 X-0.2696 Y0.3702 Z-0.2292
N1645 X-0.2725 Y0.3708 Z-0.2278
N1650 X-0.2752 Y0.3713 Z-0.2259
N1655 X-0.2774 Y0.3718 Z-0.2236
N1660 X-0.2793 Y0.3722 Z-0.2209
N1665 X-0.2806 Y0.3724 Z-0.218
N1670 X-0.2814 Y0.3726 Z-0.2148
N1675 X-0.2817 Y0.3727 Z-0.2116
N1680 G0 Z0.1969
N1685 X-0.2523 Y-0.3945
N1690 Z-0.1928
N1695 G1 Z-0.2116 F39.37
N1700 X-0.2522 Y-0.3942 Z-0.2148
N1705 X-0.252 Y-0.3934 Z-0.218
N1710 X-0.2517 Y-0.3921 Z-0.2209
N1715 X-0.2513 Y-0.3902 Z-0.2236
N1720 X-0.2508 Y-0.388 Z-0.2259
N1725 X-0.2502 Y-0.3854 Z-0.2278
N1730 X-0.2496 Y-0.3825 Z-0.2292
N1735 X-0.2489 Y-0.3794 Z-0.23
N1740 X-0.2482 Y-0.3762 Z-0.2303
N1745 G3 X-0.2491 Y-0.3453 I-0.0608 J0.0136
N1750 G1 X-0.2514 Y-0.3383
N1755 X-0.2548 Y-0.3242
N1760 X-0.2591 Y-0.303
N1765 X-0.2602 Y-0.2972
N1770 X-0.262 Y-0.2916
N1775 X-0.2644 Y-0.2856
N1780 X-0.2676 Y-0.2792
N1785 X-0.2721 Y-0.2719
N1790 X-0.2772 Y-0.2648
N1795 X-0.2841 Y-0.2568
N1800 X-0.2925 Y-0.2484
N1805 X-0.3024 Y-0.24
N1810 X-0.3151 Y-0.2308
N1815 X-0.3298 Y-0.2219
N1820 X-0.3484 Y-0.2126
N1825 X-0.3719 Y-0.2032
N1830 X-0.4015 Y-0.1939
N1835 X-0.4318 Y-0.1871
N1840 X-0.4624 Y-0.182
N1845 X-0.4932 Y-0.1782
N1850 X-0.5241 Y-0.1755
N1855 X-0.5551 Y-0.1734
N1860 X-0.5861 Y-0.1719
N1865 X-0.6172 Y-0.1708
N1870 X-0.6482 Y-0.17
N1875 X-0.6792 Y-0.1695
N1880 X-0.7103 Y-0.169
N1885 X-0.7413 Y-0.1687
N1890 X-0.7724 Y-0.1685
N1895 X-0.8034 Y-0.1684
N1900 X-0.8655 Y-0.1682
N1905 X-0.9587 Y-0.168
N1910 X-1.1139
N1915 X-1.1449 Y-0.1671
N1920 X-1.1738 Y-0.1558
N1925 X-1.1979 Y-0.1362
N1930 X-1.2168 Y-0.1116
N1935 X-1.2311 Y-0.084
N1940 X-1.2418 Y-0.0548
N1945 X-1.2496 Y-0.0248
N1950 X-1.2552 Y0.0058
N1955 X-1.2572 Y0.0211
N1960 X-1.257 Y0.0367
N1965 X-1.2535 Y0.0518
N1970 X-1.241 Y0.0802
N1975 X-1.2201 Y0.1032
N1980 X-1.1946 Y0.1208
N1985 X-1.1665 Y0.134
N1990 X-1.1369 Y0.1437
N1995 X-1.1067 Y0.1507
N2000 X-1.0761 Y0.1557
N2005 X-1.0452 Y0.1593
N2010 X-1.0143 Y0.1618
N2015 X-0.9833 Y0.1637
N2020 X-0.9523 Y0.1649
N2025 X-0.9212 Y0.1658
N2030 X-0.8902 Y0.1665
N2035 X-0.8591 Y0.1669
N2040 X-0.8281 Y0.1672
N2045 X-0.797 Y0.1675
N2050 X-0.766 Y0.1676
N2055 X-0.7039 Y0.1678
N2060 X-0.6108 Y0.1679
N2065 X-0.5176 Y0.168
N2070 X-0.4245
N2075 X-0.3934 Y0.1682
N2080 X-0.3624 Y0.1693
N2085 X-0.3369 Y0.1717
N2090 X-0.3196 Y0.1747
N2095 X-0.3042 Y0.1787
N2100 X-0.2921 Y0.1829
N2105 X-0.2884 Y0.1845
N2110 X-0.2797 Y0.1896
N2115 X-0.2724 Y0.1966
N2120 X-0.2669 Y0.2051
N2125 X-0.2635 Y0.2146
N2130 X-0.2623 Y0.2246
N2135 Y0.2607
N2140 X-0.2622 Y0.2748
N2145 X-0.2619 Y0.2819
N2150 X-0.2613 Y0.2863
N2155 G3 X-0.2797 Y0.3069 I-0.0187 J0.0018
N2160 G1 X-0.2829 Z-0.23
N2165 X-0.2861 Y0.307 Z-0.2292
N2170 X-0.2891 Z-0.2278
N2175 X-0.2917 Y0.3071 Z-0.2259
N2180 X-0.294 Z-0.2236
N2185 X-0.2959 Z-0.2209
N2190 X-0.2973 Y0.3072 Z-0.218
N2195 X-0.2981 Z-0.2148
N2200 X-0.2984 Z-0.2116
N2205 G0 Z0.1969
N2210 X-0.2703 Y-0.351
N2215 Z-0.1928
N2220 G1 Z-0.2116 F39.37
N2225 X-0.2702 Y-0.3508 Z-0.2148
N2230 X-0.2699 Y-0.35 Z-0.218
N2235 X-0.2694 Y-0.3487 Z-0.2209
N2240 X-0.2687 Y-0.347 Z-0.2236
N2245 X-0.2678 Y-0.3448 Z-0.2259
N2250 X-0.2668 Y-0.3423 Z-0.2278
N2255 X-0.2657 Y-0.3396 Z-0.2292
N2260 X-0.2645 Y-0.3367 Z-0.23
N2265 X-0.2633 Y-0.3337 Z-0.2303
N2270 G3 X-0.2591 Y-0.303 I-0.0577 J0.0235
N2275 G1 X-0.2598 Y-0.2981
N2280 X-0.2619 Y-0.2819
N2285 X-0.2622 Y-0.2748
N2290 X-0.2623 Y-0.2569
N2295 X-0.2626 Y-0.251
N2300 X-0.263 Y-0.2451
N2305 X-0.2639 Y-0.2392
N2310 X-0.2653 Y-0.2335
N2315 X-0.267 Y-0.2279
N2320 X-0.2692 Y-0.2224
N2325 X-0.2717 Y-0.217
N2330 X-0.2745 Y-0.2118
N2335 X-0.2776 Y-0.2068
N2340 X-0.2809 Y-0.2019
N2345 X-0.2844 Y-0.1972
N2350 X-0.2881 Y-0.1926
N2355 X-0.292 Y-0.1881
N2360 X-0.2961 Y-0.1839
N2365 X-0.3004 Y-0.1797
N2370 X-0.3047 Y-0.1758
N2375 X-0.3092 Y-0.1719
N2380 X-0.3138 Y-0.1682
N2385 X-0.3185 Y-0.1647
N2390 X-0.3233 Y-0.1612
N2395 X-0.3282 Y-0.158
N2400 X-0.3332 Y-0.1548
N2405 X-0.3383 Y-0.1518
N2410 X-0.3434 Y-0.1488
N2415 X-0.3486 Y-0.146
N2420 X-0.3539 Y-0.1433
N2425 X-0.3592 Y-0.1408
N2430 X-0.3646 Y-0.1383
N2435 X-0.37 Y-0.1359
N2440 X-0.3754 Y-0.1336
N2445 X-0.3809 Y-0.1314
N2450 X-0.3864 Y-0.1294
N2455 X-0.392 Y-0.1274
N2460 X-0.3976 Y-0.1254
N2465 X-0.4032 Y-0.1236
N2470 X-0.4088 Y-0.1219
N2475 X-0.4145 Y-0.1202
N2480 X-0.4202 Y-0.1186
N2485 X-0.4259 Y-0.117
N2490 X-0.4316 Y-0.1156
N2495 X-0.4373 Y-0.1142
N2500 X-0.4431 Y-0.1128
N2505 X-0.4488 Y-0.1116
N2510 X-0.4546 Y-0.1103
N2515 X-0.4604 Y-0.1092
N2520 X-0.4662 Y-0.1081
N2525 X-0.472 Y-0.107
N2530 X-0.4778 Y-0.106
N2535 X-0.4837 Y-0.105
N2540 X-0.4898 Y-0.1041
N2545 X-0.4958 Y-0.1032
N2550 X-0.502 Y-0.1023
N2555 X-0.5087 Y-0.1014
N2560 X-0.516 Y-0.1004
N2565 X-0.5238 Y-0.0995
N2570 X-0.5315 Y-0.0986
N2575 X-0.5399 Y-0.0977
N2580 X-0.5492 Y-0.0968
N2585 X-0.5591 Y-0.0959
N2590 X-0.5695 Y-0.0951
N2595 X-0.5812 Y-0.0942
N2600 X-0.5939 Y-0.0933
N2605 X-0.6081 Y-0.0924
N2610 X-0.6242 Y-0.0915
N2615 X-0.6426 Y-0.0907
N2620 X-0.6641 Y-0.0898
N2625 X-0.6905 Y-0.089
N2630 X-0.7216 Y-0.0882
N2635 X-0.7526 Y-0.0877
N2640 X-0.7837 Y-0.0873
N2645 X-0.8147 Y-0.087
N2650 X-0.8458 Y-0.0868
N2655 X-0.8768 Y-0.0866
N2660 X-0.9389 Y-0.0864
N2665 X-1.032 Y-0.0863
N2670 X-1.0631 Y-0.0862
N2675 X-1.0922 Y-0.0755
N2680 X-1.1164 Y-0.056
N2685 X-1.1211 Y-0.0498
N2690 X-1.1246 Y-0.0429
N2695 X-1.1268 Y-0.0354
N2700 X-1.1276 Y-0.0277
N2705 X-1.1271 Y-0.02
N2710 X-1.1252 Y-0.0125
N2715 X-1.1189 Y0.0017
N2720 X-1.0986 Y0.0253
N2725 X-1.073 Y0.0427
N2730 X-1.0447 Y0.0554
N2735 X-1.015 Y0.0645
N2740 X-0.9846 Y0.0709
N2745 X-0.9539 Y0.0755
N2750 X-0.923 Y0.0787
N2755 X-0.892 Y0.0809
N2760 X-0.861 Y0.0825
N2765 X-0.83 Y0.0836
N2770 X-0.799 Y0.0844
N2775 X-0.7679 Y0.085
N2780 X-0.7369 Y0.0853
N2785 X-0.7058 Y0.0856
N2790 X-0.6748 Y0.0858
N2795 X-0.6127 Y0.086
N2800 X-0.5195 Y0.0862
N2805 X-0.473
N2810 X-0.4503 Y0.0864
N2815 X-0.441 Y0.0865
N2820 X-0.4316 Y0.0867
N2825 X-0.4212 Y0.087
N2830 X-0.4143 Y0.0872
N2835 X-0.4084 Y0.0875
N2840 X-0.4025 Y0.0878
N2845 X-0.3966 Y0.0882
N2850 X-0.3907 Y0.0886
N2855 X-0.3849 Y0.089
N2860 X-0.379 Y0.0895
N2865 X-0.3731 Y0.0901
N2870 X-0.3672 Y0.0908
N2875 X-0.3614 Y0.0915
N2880 X-0.3555 Y0.0923
N2885 X-0.3497 Y0.0931
N2890 X-0.3438 Y0.0941
N2895 X-0.338 Y0.0952
N2900 X-0.3322 Y0.0963
N2905 X-0.3265 Y0.0976
N2910 X-0.3207 Y0.099
N2915 X-0.315 Y0.1006
N2920 X-0.3094 Y0.1022
N2925 X-0.3038 Y0.1041
N2930 X-0.2982 Y0.1061
N2935 X-0.2927 Y0.1082
N2940 X-0.2887 Y0.11
N2945 X-0.2799 Y0.115
N2950 X-0.2725 Y0.122
N2955 X-0.2669 Y0.1305
N2960 X-0.2635 Y0.1401
N2965 X-0.2623 Y0.1501
N2970 Y0.2246
N2975 G3 X-0.2831 Y0.2426 I-0.0187 J-0.0007
N2980 G1 X-0.2864 Y0.2422 Z-0.23
N2985 X-0.2895 Y0.2418 Z-0.2292
N2990 X-0.2925 Y0.2415 Z-0.2278
N2995 X-0.2951 Y0.2412 Z-0.2259
N3000 X-0.2974 Y0.2409 Z-0.2236
N3005 X-0.2993 Y0.2407 Z-0.2209
N3010 X-0.3007 Y0.2406 Z-0.218
N3015 X-0.3015 Y0.2405 Z-0.2148
N3020 X-0.3018 Y0.2404 Z-0.2116
N3025 G0 Z0.1969
N3030 X-0.2805 Y-0.3027
N3035 Z-0.1928
N3040 G1 Z-0.2116 F39.37
N3045 X-0.2803 Y-0.3024 Z-0.2148
N3050 X-0.2799 Y-0.3017 Z-0.218
N3055 X-0.2792 Y-0.3005 Z-0.2209
N3060 X-0.2782 Y-0.2989 Z-0.2236
N3065 X-0.2771 Y-0.2969 Z-0.2259
N3070 X-0.2757 Y-0.2946 Z-0.2278
N3075 X-0.2742 Y-0.2921 Z-0.2292
N3080 X-0.2726 Y-0.2894 Z-0.23
N3085 X-0.2709 Y-0.2866 Z-0.2303
N3090 G3 X-0.2623 Y-0.2569 I-0.0536 J0.0317
N3095 G1 Y-0.1934
N3100 X-0.2626 Y-0.1875
N3105 X-0.2634 Y-0.1815
N3110 X-0.2649 Y-0.1748
N3115 X-0.2671 Y-0.1675
N3120 X-0.2702 Y-0.1597
N3125 X-0.2744 Y-0.1512
N3130 X-0.2798 Y-0.1423
N3135 X-0.2865 Y-0.1328
N3140 X-0.2949 Y-0.1228
N3145 X-0.3052 Y-0.1124
N3150 X-0.3178 Y-0.1016
N3155 X-0.3254 Y-0.096
N3160 X-0.3296 Y-0.0932
N3165 X-0.3472 Y-0.0819
N3170 X-0.3687 Y-0.0704
N3175 X-0.3954 Y-0.0588
N3180 X-0.4101 Y-0.0538
N3185 X-0.4175 Y-0.0515
N3190 X-0.4213 Y-0.0504
N3195 G3 X-0.444 Y-0.064 Z-0.2224 I-0.0046 J-0.0182
N3200 X-0.4381 Y-0.0828 I0.0182 J-0.0046
N3205 G1 X-0.2932 Y-0.207
N3210 G3 X-0.2817 Y-0.2115 I0.0122 J0.0142
N3215 X-0.2623 Y-0.1934 Z-0.2303 I0.0006 J0.0187
N3220 G1 Y-0.13
N3225 X-0.2626 Y-0.1241
N3230 X-0.2635 Y-0.1178
N3235 X-0.265 Y-0.1109
N3240 X-0.2673 Y-0.1035
N3245 X-0.2707 Y-0.095
N3250 X-0.2751 Y-0.086
N3255 X-0.2791 Y-0.0793
N3260 X-0.2818 Y-0.0721
N3265 X-0.2833 Y-0.0644
N3270 X-0.2834 Y-0.0489
N3275 X-0.2734 Y-0.0195
N3280 X-0.2681 Y-0.0103
N3285 X-0.2649 Y-0.0034
N3290 X-0.2629 Y0.004
N3295 X-0.2623 Y0.0115
N3300 G3 X-0.2817 Y0.0296 Z-0.2224 I-0.0187 J-0.0007
N3305 X-0.2998 Y0.0109 I0.0006 J-0.0187
N3310 G1 Y-0.1294
N3315 G3 X-0.2817 Y-0.1481 I0.0188 J0.
N3320 X-0.2623 Y-0.13 Z-0.2303 I0.0006 J0.0187
N3325 G1 Y0.1501
N3330 G3 X-0.2831 Y0.1681 I-0.0187 J-0.0007
N3335 G1 X-0.2864 Y0.1677 Z-0.23
N3340 X-0.2895 Y0.1674 Z-0.2292
N3345 X-0.2925 Y0.1671 Z-0.2278
N3350 X-0.2951 Y0.1668 Z-0.2259
N3355 X-0.2974 Y0.1665 Z-0.2236
N3360 X-0.2993 Y0.1663 Z-0.2209
N3365 X-0.3007 Y0.1661 Z-0.218
N3370 X-0.3015 Y0.166 Z-0.2148
N3375 X-0.3018 Z-0.2116
N3380 G0 Z0.1969
N3385 X1.216 Y0.4874
N3390 Z-0.1928
N3395 G1 Z-0.2116 F39.37
N3400 X1.2162 Y0.4873 Z-0.2148
N3405 X1.217 Y0.4871 Z-0.218
N3410 X1.2184 Y0.4868 Z-0.2209
N3415 X1.2202 Y0.4863 Z-0.2236
N3420 X1.2224 Y0.4857 Z-0.2259
N3425 X1.225 Y0.485 Z-0.2278
N3430 X1.2279 Y0.4843 Z-0.2292
N3435 X1.231 Y0.4835 Z-0.23
N3440 X1.2341 Y0.4827 Z-0.2303
N3445 G3 X1.3361 Y0.4677 I0.12 J0.4634
N3450 G1 X1.3466
N3455 X1.3537 Y0.4673
N3460 X1.3717 Y0.4651
N3465 X1.3889 Y0.4617
N3470 X1.3959 Y0.4602
N3475 X1.41 Y0.4565
N3480 X1.4171 Y0.4545
N3485 X1.4241 Y0.4516
N3490 X1.4312 Y0.448
N3495 X1.4382 Y0.4439
N3500 X1.4595 Y0.4299
N3505 X1.4782 Y0.4158
N3510 X1.4805 Y0.4139
N3515 X1.4856 Y0.4087
N3520 X1.4964 Y0.3946
N3525 X1.5017 Y0.3876
N3530 X1.5157 Y0.3664
N3535 X1.5197 Y0.3594
N3540 X1.5228 Y0.3535
N3545 X1.5262 Y0.3453
N3550 X1.5319 Y0.3242
N3555 X1.5362 Y0.303
N3560 X1.5368 Y0.2985
N3565 X1.539 Y0.2819
N3570 X1.5393 Y0.2748
N3575 X1.5394 Y0.2537
N3580 Y-0.2607
N3585 X1.5393 Y-0.2748
N3590 X1.539 Y-0.2819
N3595 X1.5368 Y-0.2985
N3600 X1.5362 Y-0.303
N3605 X1.5319 Y-0.3242
N3610 X1.5262 Y-0.3453
N3615 X1.5228 Y-0.3535
N3620 X1.5197 Y-0.3594
N3625 X1.5157 Y-0.3664
N3630 X1.5016 Y-0.3877
N3635 X1.4964 Y-0.3946
N3640 X1.4856 Y-0.4087
N3645 X1.4805 Y-0.4139
N3650 X1.4782 Y-0.4158
N3655 X1.4593 Y-0.43
N3660 X1.4382 Y-0.444
N3665 X1.4312 Y-0.448
N3670 X1.4241 Y-0.4516
N3675 X1.4171 Y-0.4545
N3680 X1.41 Y-0.4565
N3685 X1.3959 Y-0.4602
N3690 X1.3889 Y-0.4617
N3695 X1.3717 Y-0.4651
N3700 X1.3537 Y-0.4673
N3705 G3 X1.343 Y-0.4728 I0.0029 J-0.0185
N3710 G1 X1.3417 Y-0.475 Z-0.2301
N3715 X1.3403 Y-0.4772 Z-0.2296
N3720 X1.339 Y-0.4792 Z-0.2287
N3725 X1.3386 Y-0.4817 Z-0.2273
N3730 X1.3382 Y-0.4839 Z-0.2256
N3735 X1.3378 Y-0.4858 Z-0.2236
N3740 X1.338 Y-0.4877 Z-0.2209
N3745 X1.3382 Y-0.489 Z-0.218
N3750 X1.3383 Y-0.4899 Z-0.2148
N3755 Y-0.4901 Z-0.2116
N3760 G0 Z0.1969
N3765 X-0.9328 Y-0.4883
N3770 Z-0.4144
N3775 G1 Z-0.4331 F39.37
N3780 X-0.933 Y-0.4882 Z-0.4364
N3785 X-0.9338 Y-0.488 Z-0.4395
N3790 X-0.9352 Y-0.4876 Z-0.4425
N3795 X-0.937 Y-0.4872 Z-0.4452
N3800 X-0.9392 Y-0.4866 Z-0.4475
N3805 X-0.9418 Y-0.4859 Z-0.4493
N3810 X-0.9447 Y-0.4851 Z-0.4507
N3815 X-0.9477 Y-0.4843 Z-0.4516
N3820 X-0.9509 Y-0.4835 Z-0.4519
N3825 G3 X-1.0528 Y-0.4677 I-0.1238 J-0.4624
N3830 G1 X-1.063 Y-0.4676
N3835 X-1.07 Y-0.4673
N3840 X-1.0771 Y-0.4669
N3845 X-1.0841 Y-0.4661
N3850 X-1.0912 Y-0.4653
N3855 X-1.0982 Y-0.4642
N3860 X-1.1053 Y-0.4628
N3865 X-1.1123 Y-0.4612
N3870 X-1.1194 Y-0.4593
N3875 X-1.1232 Y-0.4581
N3880 X-1.1264 Y-0.457
N3885 X-1.1334 Y-0.4545
N3890 X-1.1405 Y-0.4515
N3895 X-1.1475 Y-0.4479
N3900 X-1.1542 Y-0.444
N3905 X-1.1616 Y-0.4386
N3910 X-1.1684 Y-0.4343
N3915 X-1.1794 Y-0.4283
N3920 X-1.1938 Y-0.422
N3925 X-1.213 Y-0.4154
N3930 X-1.2397 Y-0.4085
N3935 X-1.2702 Y-0.4031
N3940 X-1.3011 Y-0.3997
N3945 X-1.3321 Y-0.3974
N3950 X-1.3631 Y-0.3959
N3955 X-1.3941 Y-0.3949
N3960 X-1.4089 Y-0.3902
N3965 X-1.4349 Y-0.3733
N3970 X-1.4538 Y-0.3486
N3975 X-1.467 Y-0.3205
N3980 X-1.476 Y-0.2908
N3985 X-1.4821 Y-0.2603
N3990 X-1.4862 Y-0.2296
N3995 X-1.489 Y-0.1986
N4000 X-1.4908 Y-0.1677
N4005 X-1.492 Y-0.1366
N4010 X-1.4928 Y-0.1056
N4015 X-1.4934 Y-0.0746
N4020 X-1.4937 Y-0.0435
N4025 X-1.4939 Y-0.0125
N4030 X-1.4941 Y0.0186
N4035 X-1.4942 Y0.0807
N4040 Y0.1738
N4045 Y0.2825
N4050 Y0.2903
N4055 X-1.4928 Y0.2979
N4060 X-1.4873 Y0.3124
N4065 X-1.4685 Y0.3371
N4070 X-1.443 Y0.3549
N4075 X-1.4145 Y0.3672
N4080 X-1.3846 Y0.3757
N4085 X-1.3541 Y0.3814
N4090 X-1.3233 Y0.3853
N4095 X-1.2924 Y0.3879
N4100 X-1.2614 Y0.3896
N4105 X-1.2304 Y0.3907
N4110 X-1.2254 Y0.3908
N4115 X-1.215 Y0.3924
N4120 X-1.2052 Y0.3964
N4125 X-1.1967 Y0.4026
N4130 X-1.1899 Y0.4107
N4135 X-1.172 Y0.4311
N4140 X-1.1542 Y0.444
N4145 X-1.1475 Y0.4479
N4150 X-1.1405 Y0.4515
N4155 X-1.1334 Y0.4545
N4160 X-1.1264 Y0.457
N4165 X-1.1232 Y0.4581
N4170 X-1.1194 Y0.4593
N4175 X-1.1123 Y0.4612
N4180 X-1.1053 Y0.4628
N4185 X-1.0982 Y0.4642
N4190 X-1.0912 Y0.4653
N4195 X-1.0841 Y0.4661
N4200 X-1.0771 Y0.4669
N4205 X-1.07 Y0.4673
N4210 X-1.0662 Y0.4675
N4215 G3 X-1.0489 Y0.4889 I-0.0013 J0.0187
N4220 G1 X-1.0494 Y0.4921 Z-0.4516
N4225 X-1.0498 Y0.4953 Z-0.4507
N4230 X-1.0503 Y0.4982 Z-0.4493
N4235 X-1.0507 Y0.5008 Z-0.4475
N4240 X-1.051 Y0.5031 Z-0.4452
N4245 X-1.0513 Y0.505 Z-0.4425
N4250 X-1.0515 Y0.5063 Z-0.4395
N4255 X-1.0516 Y0.5072 Z-0.4364
N4260 X-1.0517 Y0.5075 Z-0.4331
N4265 G0 Z0.1969
N4270 X-1.1352 Y-0.4802
N4275 Z-0.4144
N4280 G1 Z-0.4331 F39.37
N4285 X-1.1353 Y-0.48 Z-0.4364
N4290 X-1.1356 Y-0.4792 Z-0.4395
N4295 X-1.1362 Y-0.4779 Z-0.4425
N4300 X-1.1369 Y-0.4762 Z-0.4452
N4305 X-1.1378 Y-0.4741 Z-0.4475
N4310 X-1.1389 Y-0.4716 Z-0.4493
N4315 X-1.1401 Y-0.4689 Z-0.4507
N4320 X-1.1414 Y-0.466 Z-0.4516
N4325 X-1.1427 Y-0.463 Z-0.4519
N4330 G3 X-1.1616 Y-0.4386 I-0.0571 J-0.0248
N4335 G1 X-1.172 Y-0.4311
N4340 X-1.1898 Y-0.4108
N4345 X-1.1911 Y-0.4087
N4350 X-1.1932 Y-0.4049
N4355 X-1.1962 Y-0.3998
N4360 X-1.1999 Y-0.3946
N4365 X-1.2049 Y-0.3888
N4370 X-1.2106 Y-0.383
N4375 X-1.218 Y-0.3766
N4380 X-1.2275 Y-0.3698
N4385 X-1.2388 Y-0.3629
N4390 X-1.2534 Y-0.3555
N4395 X-1.2719 Y-0.348
N4400 X-1.3015 Y-0.3387
N4405 X-1.3302 Y-0.3269
N4410 X-1.3539 Y-0.3067
N4415 X-1.3721 Y-0.2816
N4420 X-1.3857 Y-0.2537
N4425 X-1.3956 Y-0.2243
N4430 X-1.4027 Y-0.1941
N4435 X-1.4078 Y-0.1634
N4440 X-1.4113 Y-0.1326
N4445 X-1.4138 Y-0.1016
N4450 X-1.4155 Y-0.0706
N4455 X-1.4167 Y-0.0396
N4460 X-1.4175 Y-0.0086
N4465 X-1.4181 Y0.0225
N4470 X-1.4185 Y0.0535
N4475 X-1.4187 Y0.0846
N4480 X-1.4189 Y0.1156
N4485 X-1.419 Y0.1467
N4490 X-1.4191 Y0.1932
N4495 X-1.4159 Y0.2084
N4500 X-1.4032 Y0.2368
N4505 X-1.3818 Y0.2593
N4510 X-1.3558 Y0.2762
N4515 X-1.3273 Y0.2885
N4520 X-1.2976 Y0.2974
N4525 X-1.2673 Y0.3042
N4530 X-1.2412 Y0.3106
N4535 X-1.2364 Y0.3123
N4540 X-1.2268 Y0.3168
N4545 X-1.2187 Y0.3236
N4550 X-1.2124 Y0.3321
N4555 X-1.2084 Y0.3419
N4560 X-1.207 Y0.3524
N4565 X-1.2061 Y0.3633
N4570 Y0.3641
N4575 G3 X-1.2095 Y0.3748 I-0.0187 J0.
N4580 G1 X-1.2113 Y0.3765 Z-0.4517
N4585 X-1.2132 Y0.3783 Z-0.4511
N4590 X-1.215 Y0.38 Z-0.4502
N4595 X-1.2177 Y0.381 Z-0.4486
N4600 X-1.2201 Y0.3819 Z-0.4465
N4605 X-1.2221 Y0.3826 Z-0.444
N4610 X-1.2237 Y0.3827 Z-0.4412
N4615 X-1.2249 Y0.3828 Z-0.4381
N4620 X-1.2254 Z-0.4356
N4625 X-1.2255 Z-0.4331
N4630 G0 Z0.1969
N4635 X-1.1879 Y-0.4539
N4640 Z-0.4144
N4645 G1 Z-0.4331 F39.37
N4650 Y-0.4536 Z-0.4364
N4655 Y-0.4527 Z-0.4395
N4660 X-1.1878 Y-0.4514 Z-0.4425
N4665 X-1.1877 Y-0.4495 Z-0.4452
N4670 X-1.1876 Y-0.4472 Z-0.4475
N4675 X-1.1875 Y-0.4445 Z-0.4493
N4680 X-1.1873 Y-0.4415 Z-0.4507
N4685 X-1.1872 Y-0.4384 Z-0.4516
N4690 X-1.187 Y-0.4351 Z-0.4519
N4695 G3 X-1.1932 Y-0.4049 I-0.0622 J0.003
N4700 G1 X-1.1949 Y-0.4017
N4705 X-1.1997 Y-0.392
N4710 X-1.1999 Y-0.3915
N4715 X-1.2055 Y-0.3717
N4720 Y-0.3713
N4725 X-1.2063 Y-0.3654
N4730 X-1.2077 Y-0.3597
N4735 X-1.2098 Y-0.3542
N4740 X-1.2126 Y-0.3482
N4745 X-1.216 Y-0.3422
N4750 X-1.2207 Y-0.3354
N4755 X-1.2278 Y-0.3266
N4760 X-1.2493 Y-0.3041
N4765 X-1.2699 Y-0.2809
N4770 X-1.2875 Y-0.2553
N4775 X-1.3016 Y-0.2276
N4780 X-1.3126 Y-0.1986
N4785 X-1.321 Y-0.1687
N4790 X-1.3274 Y-0.1383
N4795 X-1.3321 Y-0.1077
N4800 X-1.3355 Y-0.0768
N4805 X-1.338 Y-0.0459
N4810 X-1.3398 Y-0.0149
N4815 X-1.3411 Y0.0162
N4820 X-1.342 Y0.0472
N4825 X-1.3427 Y0.0782
N4830 X-1.3432 Y0.1093
N4835 X-1.34 Y0.1245
N4840 X-1.3283 Y0.1532
N4845 X-1.3082 Y0.1769
N4850 X-1.2836 Y0.1959
N4855 X-1.2572 Y0.2121
N4860 X-1.2305 Y0.2281
N4865 X-1.2255 Y0.2316
N4870 X-1.2178 Y0.2386
N4875 X-1.212 Y0.2472
N4880 X-1.2083 Y0.257
N4885 X-1.2071 Y0.2673
N4890 Y0.3453
N4895 X-1.207 Y0.3524
N4900 G3 X-1.2275 Y0.3707 I-0.0187 J-0.0003
N4905 G1 X-1.2308 Y0.3703 Z-0.4516
N4910 X-1.2339 Y0.37 Z-0.4507
N4915 X-1.2369 Y0.3698 Z-0.4493
N4920 X-1.2395 Y0.3695 Z-0.4475
N4925 X-1.2418 Y0.3693 Z-0.4452
N4930 X-1.2437 Y0.3691 Z-0.4425
N4935 X-1.2451 Y0.369 Z-0.4395
N4940 X-1.2459 Y0.3689 Z-0.4364
N4945 X-1.2462 Y0.3688 Z-0.4331
N4950 G0 Z0.1969
N4955 X-1.2202 Y-0.4183
N4960 Z-0.4144
N4965 G1 Z-0.4331 F39.37
N4970 X-1.2201 Y-0.4181 Z-0.4364
N4975 X-1.2197 Y-0.4173 Z-0.4395
N4980 X-1.2191 Y-0.4161 Z-0.4425
N4985 X-1.2183 Y-0.4144 Z-0.4452
N4990 X-1.2173 Y-0.4123 Z-0.4475
N4995 X-1.2161 Y-0.4099 Z-0.4493
N5000 X-1.2148 Y-0.4073 Z-0.4507
N5005 X-1.2134 Y-0.4045 Z-0.4516
N5010 X-1.2119 Y-0.4015 Z-0.4519
N5015 G3 X-1.2055 Y-0.3713 I-0.0558 J0.0276
N5020 G1 X-1.207 Y-0.3524
N5025 X-1.2071 Y-0.3453
N5030 Y-0.3171
N5035 X-1.2075 Y-0.3094
N5040 X-1.2095 Y-0.2938
N5045 X-1.216 Y-0.2634
N5050 X-1.2245 Y-0.2336
N5055 X-1.2329 Y-0.2037
N5060 X-1.2404 Y-0.1736
N5065 X-1.2467 Y-0.1432
N5070 X-1.2519 Y-0.1126
N5075 X-1.2561 Y-0.0818
N5080 X-1.2594 Y-0.0509
N5085 X-1.2619 Y-0.02
N5090 X-1.2638 Y0.011
N5095 X-1.2646 Y0.0421
N5100 X-1.2557 Y0.0718
N5105 X-1.2399 Y0.0985
N5110 X-1.2203 Y0.1226
N5115 X-1.2181 Y0.1252
N5120 X-1.2121 Y0.1339
N5125 X-1.2084 Y0.1437
N5130 X-1.2071 Y0.1542
N5135 Y0.2673
N5140 G3 X-1.2279 Y0.2853 I-0.0187 J-0.0007
N5145 G1 X-1.2312 Y0.2849 Z-0.4516
N5150 X-1.2343 Y0.2845 Z-0.4507
N5155 X-1.2373 Y0.2842 Z-0.4493
N5160 X-1.2399 Y0.2839 Z-0.4475
N5165 X-1.2422 Y0.2836 Z-0.4452
N5170 X-1.2441 Y0.2834 Z-0.4425
N5175 X-1.2455 Y0.2833 Z-0.4395
N5180 X-1.2463 Y0.2832 Z-0.4364
N5185 X-1.2466 Y0.2831 Z-0.4331
N5190 G0 Z0.1969
N5195 X-1.2254 Y-0.3629
N5200 Z-0.4144
N5205 G1 Z-0.4331 F39.37
N5210 X-1.2252 Y-0.3627 Z-0.4364
N5215 X-1.2248 Y-0.3619 Z-0.4395
N5220 X-1.2241 Y-0.3607 Z-0.4425
N5225 X-1.2231 Y-0.3591 Z-0.4452
N5230 X-1.222 Y-0.3571 Z-0.4475
N5235 X-1.2206 Y-0.3548 Z-0.4493
N5240 X-1.2191 Y-0.3523 Z-0.4507
N5245 X-1.2175 Y-0.3496 Z-0.4516
N5250 X-1.2158 Y-0.3468 Z-0.4519
N5255 G3 X-1.2071 Y-0.3171 I-0.0536 J0.0318
N5260 G1 Y0.1542
N5265 G3 X-1.2279 Y0.1722 I-0.0187 J-0.0007
N5270 G1 X-1.2312 Y0.1718 Z-0.4516
N5275 X-1.2343 Y0.1714 Z-0.4507
N5280 X-1.2373 Y0.1711 Z-0.4493
N5285 X-1.2399 Y0.1708 Z-0.4475
N5290 X-1.2422 Y0.1705 Z-0.4452
N5295 X-1.2441 Y0.1703 Z-0.4425
N5300 X-1.2455 Y0.1702 Z-0.4395
N5305 X-1.2463 Y0.1701 Z-0.4364
N5310 X-1.2466 Y0.17 Z-0.4331
N5315 G0 Z0.1969
N5320 X1.216 Y0.4874
N5325 Z-0.4144
N5330 G1 Z-0.4331 F39.37
N5335 X1.2162 Y0.4873 Z-0.4364
N5340 X1.217 Y0.4871 Z-0.4395
N5345 X1.2184 Y0.4868 Z-0.4425
N5350 X1.2202 Y0.4863 Z-0.4452
N5355 X1.2224 Y0.4857 Z-0.4475
N5360 X1.225 Y0.485 Z-0.4493
N5365 X1.2279 Y0.4843 Z-0.4507
N5370 X1.231 Y0.4835 Z-0.4516
N5375 X1.2341 Y0.4827 Z-0.4519
N5380 G3 X1.3361 Y0.4677 I0.12 J0.4634
N5385 G1 X1.3466
N5390 X1.3537 Y0.4673
N5395 X1.3717 Y0.4651
N5400 X1.3889 Y0.4617
N5405 X1.3959 Y0.4602
N5410 X1.41 Y0.4565
N5415 X1.4171 Y0.4545
N5420 X1.4241 Y0.4516
N5425 X1.4312 Y0.448
N5430 X1.4382 Y0.4439
N5435 X1.4595 Y0.4299
N5440 X1.4782 Y0.4158
N5445 X1.4805 Y0.4139
N5450 X1.4856 Y0.4087
N5455 X1.4964 Y0.3946
N5460 X1.5017 Y0.3876
N5465 X1.5157 Y0.3664
N5470 X1.5197 Y0.3594
N5475 X1.5228 Y0.3535
N5480 X1.5262 Y0.3453
N5485 X1.5319 Y0.3242
N5490 X1.5362 Y0.303
N5495 X1.5368 Y0.2985
N5500 X1.539 Y0.2819
N5505 X1.5393 Y0.2748
N5510 X1.5394 Y0.2537
N5515 Y-0.2607
N5520 X1.5393 Y-0.2748
N5525 X1.539 Y-0.2819
N5530 X1.5368 Y-0.2985
N5535 X1.5362 Y-0.303
N5540 X1.5319 Y-0.3242
N5545 X1.5262 Y-0.3453
N5550 X1.5228 Y-0.3535
N5555 X1.5197 Y-0.3594
N5560 X1.5157 Y-0.3664
N5565 X1.5016 Y-0.3877
N5570 X1.4964 Y-0.3946
N5575 X1.4856 Y-0.4087
N5580 X1.4805 Y-0.4139
N5585 X1.4782 Y-0.4158
N5590 X1.4593 Y-0.43
N5595 X1.4382 Y-0.444
N5600 X1.4312 Y-0.448
N5605 X1.4241 Y-0.4516
N5610 X1.4171 Y-0.4545
N5615 X1.41 Y-0.4565
N5620 X1.3959 Y-0.4602
N5625 X1.3889 Y-0.4617
N5630 X1.3717 Y-0.4651
N5635 X1.3537 Y-0.4673
N5640 G3 X1.343 Y-0.4728 I0.0029 J-0.0185
N5645 G1 X1.3417 Y-0.475 Z-0.4517
N5650 X1.3403 Y-0.4772 Z-0.4511
N5655 X1.339 Y-0.4792 Z-0.4502
N5660 X1.3386 Y-0.4817 Z-0.4489
N5665 X1.3382 Y-0.4839 Z-0.4472
N5670 X1.3378 Y-0.4858 Z-0.4451
N5675 X1.338 Y-0.4877 Z-0.4425
N5680 X1.3382 Y-0.489 Z-0.4395
N5685 X1.3383 Y-0.4899 Z-0.4364
N5690 Y-0.4901 Z-0.4331
N5695 G0 Z0.1969
N5700 X-0.8409 Y-0.4881
N5705 Z-0.3806
N5710 G1 Z-0.3993 F39.37
N5715 X-0.8411 Y-0.488 Z-0.4026
N5720 X-0.842 Y-0.4878 Z-0.4057
N5725 X-0.8433 Y-0.4874 Z-0.4087
N5730 X-0.8451 Y-0.4869 Z-0.4114
N5735 X-0.8473 Y-0.4863 Z-0.4137
N5740 X-0.8499 Y-0.4857 Z-0.4156
N5745 X-0.8528 Y-0.4849 Z-0.4169
N5750 X-0.8558 Y-0.4841 Z-0.4178
N5755 X-0.859 Y-0.4833 Z-0.4181
N5760 G3 X-0.9609 Y-0.4677 I-0.1229 J-0.4626
N5765 G1 X-0.9714 Y-0.4676
N5770 X-0.9784 Y-0.4672
N5775 X-0.9855 Y-0.4668
N5780 X-0.9925 Y-0.466
N5785 X-0.9996 Y-0.4651
N5790 X-1.0066 Y-0.4639
N5795 X-1.0137 Y-0.4625
N5800 X-1.0207 Y-0.4608
N5805 X-1.0278 Y-0.4589
N5810 X-1.0348 Y-0.4566
N5815 X-1.0419 Y-0.4539
N5820 X-1.0489 Y-0.4509
N5825 X-1.0559 Y-0.4473
N5830 X-1.0612 Y-0.444
N5835 X-1.0771 Y-0.4327
N5840 X-1.0805 Y-0.4299
N5845 X-1.0875 Y-0.4228
N5850 X-1.0912 Y-0.4184
N5855 X-1.0932 Y-0.4158
N5860 X-1.0984 Y-0.4087
N5865 X-1.107 Y-0.3915
N5870 X-1.1127 Y-0.3717
N5875 Y-0.3713
N5880 X-1.1134 Y-0.3655
N5885 X-1.1196 Y-0.335
N5890 X-1.1238 Y-0.3043
N5895 X-1.1266 Y-0.2733
N5900 X-1.1284 Y-0.2423
N5905 X-1.1297 Y-0.2113
N5910 X-1.1305 Y-0.1803
N5915 X-1.131 Y-0.1492
N5920 X-1.1314 Y-0.1182
N5925 X-1.1316 Y-0.0872
N5930 X-1.1318 Y-0.0561
N5935 X-1.132 Y0.006
N5940 X-1.1321 Y0.0991
N5945 Y0.2854
N5950 X-1.1282 Y0.3005
N5955 X-1.1212 Y0.3139
N5960 X-1.1174 Y0.32
N5965 X-1.1151 Y0.3268
N5970 X-1.1143 Y0.334
N5975 Y0.3453
N5980 X-1.1142 Y0.3524
N5985 X-1.1127 Y0.3717
N5990 X-1.107 Y0.3915
N5995 X-1.0984 Y0.4087
N6000 X-1.0932 Y0.4158
N6005 X-1.0912 Y0.4184
N6010 X-1.0875 Y0.4228
N6015 X-1.0805 Y0.4299
N6020 X-1.0771 Y0.4327
N6025 X-1.0612 Y0.444
N6030 X-1.0559 Y0.4473
N6035 X-1.0487 Y0.451
N6040 X-1.0419 Y0.4539
N6045 X-1.0348 Y0.4566
N6050 X-1.0278 Y0.4589
N6055 X-1.0207 Y0.4608
N6060 X-1.0137 Y0.4625
N6065 X-1.0066 Y0.4639
N6070 X-0.9993 Y0.4651
N6075 X-0.9925 Y0.466
N6080 X-0.9855 Y0.4668
N6085 X-0.9784 Y0.4672
N6090 X-0.9746 Y0.4674
N6095 G3 X-0.9576 Y0.4891 I-0.0015 J0.0187
N6100 G1 X-0.9581 Y0.4923 Z-0.4178
N6105 X-0.9586 Y0.4954 Z-0.4169
N6110 X-0.9591 Y0.4984 Z-0.4156
N6115 X-0.9595 Y0.501 Z-0.4137
N6120 X-0.9599 Y0.5033 Z-0.4114
N6125 X-0.9602 Y0.5051 Z-0.4087
N6130 X-0.9604 Y0.5065 Z-0.4057
N6135 X-0.9606 Y0.5073 Z-0.4026
N6140 Y0.5076 Z-0.3993
N6145 G0 Z0.1969
N6150 X-1.1274 Y-0.4184
N6155 Z-0.3806
N6160 G1 Z-0.3993 F39.37
N6165 X-1.1273 Y-0.4181 Z-0.4026
N6170 X-1.1269 Y-0.4174 Z-0.4057
N6175 X-1.1263 Y-0.4161 Z-0.4087
N6180 X-1.1255 Y-0.4144 Z-0.4114
N6185 X-1.1244 Y-0.4124 Z-0.4137
N6190 X-1.1233 Y-0.41 Z-0.4156
N6195 X-1.1219 Y-0.4073 Z-0.4169
N6200 X-1.1205 Y-0.4045 Z-0.4178
N6205 X-1.1191 Y-0.4016 Z-0.4181
N6210 G3 X-1.1127 Y-0.3713 I-0.0558 J0.0276
N6215 G1 X-1.1142 Y-0.3524
N6220 X-1.1143 Y-0.3453
N6225 Y0.334
N6230 G3 X-1.1185 Y0.3452 I-0.0187 J-0.0007
N6235 G1 X-1.1205 Y0.3468 Z-0.4179
N6240 X-1.1225 Y0.3484 Z-0.4173
N6245 X-1.1244 Y0.35 Z-0.4164
N6250 X-1.1271 Y0.3507 Z-0.4148
N6255 X-1.1296 Y0.3514 Z-0.4127
N6260 X-1.1317 Y0.352 Z-0.4102
N6265 X-1.133 Y0.3521 Z-0.408
N6270 X-1.1342 Y0.352 Z-0.4052
N6275 X-1.1349 Z-0.4023
N6280 X-1.1351 Y0.3519 Z-0.3993
N6285 G0 Z0.1969
N6290 X-0.7492 Y-0.4879
N6295 Z-0.3468
N6300 G1 Z-0.3655 F39.37
N6305 X-0.7495 Y-0.4878 Z-0.3688
N6310 X-0.7503 Y-0.4876 Z-0.372
N6315 X-0.7517 Y-0.4872 Z-0.3749
N6320 X-0.7535 Y-0.4867 Z-0.3776
N6325 X-0.7557 Y-0.4861 Z-0.3799
N6330 X-0.7583 Y-0.4855 Z-0.3818
N6335 X-0.7612 Y-0.4847 Z-0.3832
N6340 X-0.7642 Y-0.4839 Z-0.384
N6345 X-0.7674 Y-0.4831 Z-0.3843
N6350 G3 X-0.8693 Y-0.4677 I-0.1221 J-0.4629
N6355 G1 X-0.8798 Y-0.4676
N6360 X-0.8869 Y-0.4672
N6365 X-0.8939 Y-0.4666
N6370 X-0.9009 Y-0.4659
N6375 X-0.908 Y-0.4649
N6380 X-0.915 Y-0.4637
N6385 X-0.9221 Y-0.4623
N6390 X-0.9291 Y-0.4605
N6395 X-0.9362 Y-0.4585
N6400 X-0.9432 Y-0.4562
N6405 X-0.9503 Y-0.4534
N6410 X-0.9559 Y-0.451
N6415 X-0.9644 Y-0.4468
N6420 X-0.9714 Y-0.4424
N6425 X-0.9784 Y-0.4375
N6430 X-0.9855 Y-0.432
N6435 X-0.9877 Y-0.4299
N6440 X-0.9946 Y-0.4228
N6445 X-0.9996 Y-0.4168
N6450 X-1.0031 Y-0.4123
N6455 X-1.0044 Y-0.4105
N6460 X-1.0066 Y-0.4062
N6465 X-1.014 Y-0.392
N6470 X-1.0143 Y-0.3913
N6475 X-1.0198 Y-0.3717
N6480 X-1.0199 Y-0.3713
N6485 X-1.0206 Y-0.3654
N6490 X-1.0268 Y-0.335
N6495 X-1.031 Y-0.3042
N6500 X-1.0337 Y-0.2733
N6505 X-1.0356 Y-0.2423
N6510 X-1.0368 Y-0.2113
N6515 X-1.0377 Y-0.1803
N6520 X-1.0382 Y-0.1492
N6525 X-1.0386 Y-0.1182
N6530 X-1.0388 Y-0.0871
N6535 X-1.039 Y-0.0561
N6540 X-1.0391 Y0.006
N6545 X-1.0392 Y0.0992
N6550 X-1.0393 Y0.2854
N6555 X-1.0354 Y0.3005
N6560 X-1.0284 Y0.3139
N6565 X-1.0246 Y0.32
N6570 X-1.0222 Y0.3268
N6575 X-1.0214 Y0.334
N6580 Y0.3453
N6585 X-1.0213 Y0.3524
N6590 X-1.0198 Y0.3717
N6595 X-1.0143 Y0.3913
N6600 X-1.014 Y0.392
N6605 X-1.0053 Y0.4087
N6610 X-1.0044 Y0.4105
N6615 X-1.0031 Y0.4123
N6620 X-0.9996 Y0.4168
N6625 X-0.9946 Y0.4228
N6630 X-0.9877 Y0.4299
N6635 X-0.9855 Y0.432
N6640 X-0.9784 Y0.4375
N6645 X-0.9714 Y0.4424
N6650 X-0.9644 Y0.4468
N6655 X-0.9559 Y0.451
N6660 X-0.9503 Y0.4534
N6665 X-0.9432 Y0.4562
N6670 X-0.9362 Y0.4585
N6675 X-0.9291 Y0.4605
N6680 X-0.9221 Y0.4623
N6685 X-0.915 Y0.4637
N6690 X-0.908 Y0.4649
N6695 X-0.9009 Y0.4659
N6700 X-0.8939 Y0.4666
N6705 X-0.8869 Y0.4672
N6710 X-0.883 Y0.4674
N6715 G3 X-0.8662 Y0.4892 I-0.0017 J0.0187
N6720 G1 X-0.8667 Y0.4924 Z-0.384
N6725 X-0.8673 Y0.4955 Z-0.3832
N6730 X-0.8678 Y0.4985 Z-0.3818
N6735 X-0.8682 Y0.5011 Z-0.3799
N6740 X-0.8686 Y0.5034 Z-0.3776
N6745 X-0.8689 Y0.5052 Z-0.3749
N6750 X-0.8692 Y0.5066 Z-0.372
N6755 X-0.8693 Y0.5074 Z-0.3688
N6760 Y0.5077 Z-0.3655
N6765 G0 Z0.1969
N6770 X-1.0346 Y-0.4183
N6775 Z-0.3468
N6780 G1 Z-0.3655 F39.37
N6785 X-1.0345 Y-0.4181 Z-0.3688
N6790 X-1.0341 Y-0.4173 Z-0.372
N6795 X-1.0335 Y-0.4161 Z-0.3749
N6800 X-1.0326 Y-0.4144 Z-0.3776
N6805 X-1.0316 Y-0.4123 Z-0.3799
N6810 X-1.0304 Y-0.4099 Z-0.3818
N6815 X-1.0291 Y-0.4073 Z-0.3832
N6820 X-1.0277 Y-0.4045 Z-0.384
N6825 X-1.0263 Y-0.4015 Z-0.3843
N6830 G3 X-1.0199 Y-0.3713 I-0.0558 J0.0276
N6835 G1 X-1.0213 Y-0.3524
N6840 X-1.0214 Y-0.3453
N6845 Y0.334
N6850 G3 X-1.0257 Y0.3451 I-0.0187 J-0.0007
N6855 G1 X-1.0277 Y0.3468 Z-0.3841
N6860 X-1.0296 Y0.3484 Z-0.3836
N6865 X-1.0315 Y0.3499 Z-0.3827
N6870 X-1.0343 Y0.3507 Z-0.381
N6875 X-1.0368 Y0.3514 Z-0.3789
N6880 X-1.0388 Y0.352 Z-0.3764
N6885 X-1.0402 Y0.3521 Z-0.3742
N6890 X-1.0414 Y0.352 Z-0.3714
N6895 X-1.0421 Y0.3519 Z-0.3685
N6900 X-1.0423 Z-0.3655
N6905 G0 Z0.1969
N6910 X-0.6569 Y-0.4877
N6915 Z-0.313
N6920 G1 Z-0.3318 F39.37
N6925 X-0.6572 Y-0.4876 Z-0.335
N6930 X-0.658 Y-0.4874 Z-0.3382
N6935 X-0.6594 Y-0.487 Z-0.3411
N6940 X-0.6612 Y-0.4866 Z-0.3438
N6945 X-0.6634 Y-0.486 Z-0.3461
N6950 X-0.666 Y-0.4853 Z-0.348
N6955 X-0.6689 Y-0.4846 Z-0.3494
N6960 X-0.6719 Y-0.4838 Z-0.3502
N6965 X-0.6751 Y-0.4829 Z-0.3505
N6970 G3 X-0.7771 Y-0.4677 I-0.1214 J-0.463
N6975 G1 X-0.7812
N6980 X-0.7882 Y-0.4675
N6985 X-0.7953 Y-0.4671
N6990 X-0.8023 Y-0.4665
N6995 X-0.8093 Y-0.4657
N7000 X-0.8164 Y-0.4647
N7005 X-0.8234 Y-0.4634
N7010 X-0.8305 Y-0.462
N7015 X-0.8375 Y-0.4602
N7020 X-0.8447 Y-0.4581
N7025 X-0.8516 Y-0.4557
N7030 X-0.8587 Y-0.4529
N7035 X-0.8631 Y-0.451
N7040 X-0.8657 Y-0.4497
N7045 X-0.8728 Y-0.446
N7050 X-0.8798 Y-0.4417
N7055 X-0.8869 Y-0.4366
N7060 X-0.8939 Y-0.4308
N7065 X-0.9018 Y-0.4228
N7070 X-0.908 Y-0.4152
N7075 X-0.9123 Y-0.4087
N7080 X-0.9212 Y-0.3919
N7085 X-0.9215 Y-0.3912
N7090 X-0.927 Y-0.3717
N7095 Y-0.3713
N7100 X-0.9278 Y-0.3654
N7105 X-0.934 Y-0.335
N7110 X-0.9381 Y-0.3042
N7115 X-0.9409 Y-0.2733
N7120 X-0.9428 Y-0.2423
N7125 X-0.944 Y-0.2113
N7130 X-0.9448 Y-0.1803
N7135 X-0.9454 Y-0.1492
N7140 X-0.9457 Y-0.1182
N7145 X-0.946 Y-0.0871
N7150 X-0.9461 Y-0.0561
N7155 X-0.9463 Y0.006
N7160 X-0.9464 Y0.0992
N7165 Y0.2854
N7170 X-0.9426 Y0.3005
N7175 X-0.9356 Y0.3139
N7180 X-0.9318 Y0.32
N7185 X-0.9294 Y0.3268
N7190 X-0.9286 Y0.3339
N7195 Y0.3453
N7200 X-0.9285 Y0.3524
N7205 X-0.927 Y0.3717
N7210 X-0.9215 Y0.3912
N7215 X-0.9212 Y0.3919
N7220 X-0.9123 Y0.4087
N7225 X-0.908 Y0.4152
N7230 X-0.9018 Y0.4228
N7235 X-0.8939 Y0.4308
N7240 X-0.8864 Y0.4369
N7245 X-0.8798 Y0.4417
N7250 X-0.8728 Y0.446
N7255 X-0.8657 Y0.4497
N7260 X-0.8631 Y0.451
N7265 X-0.8587 Y0.4529
N7270 X-0.8516 Y0.4557
N7275 X-0.8446 Y0.4581
N7280 X-0.8375 Y0.4602
N7285 X-0.8305 Y0.462
N7290 X-0.8234 Y0.4634
N7295 X-0.8164 Y0.4647
N7300 X-0.8093 Y0.4657
N7305 X-0.8023 Y0.4665
N7310 X-0.7953 Y0.4671
N7315 X-0.7882 Y0.4675
N7320 X-0.7843 Y0.4676
N7325 G3 X-0.7669 Y0.4889 I-0.0011 J0.0187
N7330 G1 X-0.7673 Y0.4921 Z-0.3502
N7335 X-0.7678 Y0.4952 Z-0.3494
N7340 X-0.7682 Y0.4982 Z-0.348
N7345 X-0.7685 Y0.5008 Z-0.3461
N7350 X-0.7688 Y0.5031 Z-0.3438
N7355 X-0.7691 Y0.505 Z-0.3411
N7360 X-0.7693 Y0.5063 Z-0.3382
N7365 X-0.7694 Y0.5072 Z-0.335
N7370 X-0.7695 Y0.5074 Z-0.3318
N7375 G0 Z0.1969
N7380 X-0.9418 Y-0.4183
N7385 Z-0.313
N7390 G1 Z-0.3318 F39.37
N7395 X-0.9416 Y-0.4181 Z-0.335
N7400 X-0.9413 Y-0.4173 Z-0.3382
N7405 X-0.9407 Y-0.4161 Z-0.3411
N7410 X-0.9398 Y-0.4144 Z-0.3438
N7415 X-0.9388 Y-0.4123 Z-0.3461
N7420 X-0.9376 Y-0.4099 Z-0.348
N7425 X-0.9363 Y-0.4073 Z-0.3494
N7430 X-0.9349 Y-0.4045 Z-0.3502
N7435 X-0.9335 Y-0.4015 Z-0.3505
N7440 G3 X-0.927 Y-0.3713 I-0.0558 J0.0276
N7445 G1 X-0.9285 Y-0.3524
N7450 X-0.9286 Y-0.3453
N7455 Y0.3339
N7460 G3 X-0.9328 Y0.3451 I-0.0187 J-0.0007
N7465 G1 X-0.9348 Y0.3468 Z-0.3503
N7470 X-0.9368 Y0.3484 Z-0.3498
N7475 X-0.9387 Y0.3499 Z-0.3489
N7480 X-0.9415 Y0.3507 Z-0.3472
N7485 X-0.944 Y0.3514 Z-0.3451
N7490 X-0.946 Y0.352 Z-0.3426
N7495 X-0.9474 Z-0.3404
N7500 X-0.9485 Z-0.3377
N7505 X-0.9492 Y0.3519 Z-0.3347
N7510 X-0.9495 Z-0.3318
N7515 G0 Z0.1969
N7520 X-0.5609 Y-0.4875
N7525 Z-0.2792
N7530 G1 Z-0.298 F39.37
N7535 X-0.5612 Z-0.3012
N7540 X-0.562 Y-0.4873 Z-0.3044
N7545 X-0.5634 Y-0.4869 Z-0.3073
N7550 X-0.5652 Y-0.4864 Z-0.31
N7555 X-0.5674 Y-0.4859 Z-0.3123
N7560 X-0.57 Y-0.4852 Z-0.3142
N7565 X-0.5729 Y-0.4844 Z-0.3156
N7570 X-0.5759 Y-0.4836 Z-0.3164
N7575 X-0.5791 Y-0.4828 Z-0.3167
N7580 G3 X-0.6811 Y-0.4677 I-0.1207 J-0.4632
N7585 G1 X-0.6896
N7590 X-0.6966 Y-0.4674
N7595 X-0.7037 Y-0.467
N7600 X-0.7107 Y-0.4664
N7605 X-0.7178 Y-0.4655
N7610 X-0.7248 Y-0.4645
N7615 X-0.7318 Y-0.4632
N7620 X-0.7389 Y-0.4617
N7625 X-0.7459 Y-0.4599
N7630 X-0.753 Y-0.4577
N7635 X-0.76 Y-0.4552
N7640 X-0.7671 Y-0.4524
N7645 X-0.7703 Y-0.451
N7650 X-0.7741 Y-0.4491
N7655 X-0.7812 Y-0.4452
N7660 X-0.7833 Y-0.444
N7665 X-0.7882 Y-0.4409
N7670 X-0.7953 Y-0.4357
N7675 X-0.7985 Y-0.4332
N7680 X-0.8018 Y-0.4299
N7685 X-0.8174 Y-0.4122
N7690 X-0.8179 Y-0.4117
N7695 X-0.8285 Y-0.3915
N7700 X-0.8287 Y-0.3911
N7705 X-0.8342 Y-0.3717
N7710 Y-0.3713
N7715 X-0.835 Y-0.3654
N7720 X-0.8411 Y-0.335
N7725 X-0.8453 Y-0.3042
N7730 X-0.8481 Y-0.2733
N7735 X-0.85 Y-0.2423
N7740 X-0.8512 Y-0.2113
N7745 X-0.852 Y-0.1803
N7750 X-0.8526 Y-0.1492
N7755 X-0.8529 Y-0.1182
N7760 X-0.8532 Y-0.0871
N7765 X-0.8533 Y-0.0561
N7770 X-0.8535 Y0.006
N7775 X-0.8536 Y0.0992
N7780 Y0.2854
N7785 X-0.8498 Y0.3005
N7790 X-0.8428 Y0.3139
N7795 X-0.839 Y0.32
N7800 X-0.8366 Y0.3268
N7805 X-0.8358 Y0.334
N7810 Y0.3453
N7815 X-0.8357 Y0.3524
N7820 X-0.8342 Y0.3717
N7825 X-0.8287 Y0.3911
N7830 X-0.8285 Y0.3915
N7835 X-0.8179 Y0.4117
N7840 X-0.8174 Y0.4122
N7845 X-0.8018 Y0.4299
N7850 X-0.7985 Y0.4332
N7855 X-0.7953 Y0.4357
N7860 X-0.7882 Y0.4409
N7865 X-0.7833 Y0.444
N7870 X-0.7812 Y0.4452
N7875 X-0.7741 Y0.4491
N7880 X-0.7703 Y0.451
N7885 X-0.7671 Y0.4524
N7890 X-0.76 Y0.4552
N7895 X-0.753 Y0.4577
N7900 X-0.7459 Y0.4599
N7905 X-0.7389 Y0.4617
N7910 X-0.7318 Y0.4632
N7915 X-0.7248 Y0.4645
N7920 X-0.7178 Y0.4655
N7925 X-0.7107 Y0.4664
N7930 X-0.7037 Y0.467
N7935 X-0.6966 Y0.4674
N7940 G3 X-0.6798 Y0.4892 I-0.0017 J0.0187
N7945 G1 X-0.6804 Y0.4925 Z-0.3164
N7950 X-0.6809 Y0.4956 Z-0.3156
N7955 X-0.6814 Y0.4985 Z-0.3142
N7960 X-0.6819 Y0.5011 Z-0.3123
N7965 X-0.6822 Y0.5034 Z-0.31
N7970 X-0.6826 Y0.5053 Z-0.3073
N7975 X-0.6828 Y0.5066 Z-0.3044
N7980 X-0.6829 Y0.5074 Z-0.3012
N7985 X-0.683 Y0.5077 Z-0.298
N7990 G0 Z0.1969
N7995 X-0.8489 Y-0.4183
N8000 Z-0.2792
N8005 G1 Z-0.298 F39.37
N8010 X-0.8488 Y-0.4181 Z-0.3012
N8015 X-0.8484 Y-0.4173 Z-0.3044
N8020 X-0.8478 Y-0.4161 Z-0.3073
N8025 X-0.847 Y-0.4144 Z-0.31
N8030 X-0.846 Y-0.4123 Z-0.3123
N8035 X-0.8448 Y-0.4099 Z-0.3142
N8040 X-0.8435 Y-0.4073 Z-0.3156
N8045 X-0.8421 Y-0.4045 Z-0.3164
N8050 X-0.8406 Y-0.4015 Z-0.3167
N8055 G3 X-0.8342 Y-0.3713 I-0.0558 J0.0276
N8060 G1 X-0.8357 Y-0.3524
N8065 X-0.8358 Y-0.3453
N8070 Y0.334
N8075 G3 X-0.84 Y0.3452 I-0.0187 J-0.0007
N8080 G1 X-0.842 Y0.3468 Z-0.3165
N8085 X-0.844 Y0.3484 Z-0.316
N8090 X-0.8459 Y0.3499 Z-0.3151
N8095 X-0.8487 Y0.3507 Z-0.3135
N8100 X-0.8511 Y0.3514 Z-0.3114
N8105 X-0.8532 Y0.352 Z-0.3088
N8110 X-0.8545 Y0.3521 Z-0.3066
N8115 X-0.8557 Y0.352 Z-0.3039
N8120 X-0.8564 Z-0.301
N8125 X-0.8567 Y0.3519 Z-0.298
N8130 G0 Z0.1969
N8135 X0.0609 Y-0.4887
N8140 Z-0.2466
N8145 G1 Z-0.2653 F39.37
N8150 X0.0606 Z-0.2686
N8155 X0.0598 Y-0.4884 Z-0.2717
N8160 X0.0584 Y-0.4881 Z-0.2747
N8165 X0.0566 Y-0.4876 Z-0.2774
N8170 X0.0544 Y-0.487 Z-0.2797
N8175 X0.0518 Y-0.4863 Z-0.2816
N8180 X0.049 Y-0.4855 Z-0.2829
N8185 X0.0459 Y-0.4847 Z-0.2838
N8190 X0.0428 Y-0.4838 Z-0.2841
N8195 G3 X-0.0591 Y-0.4677 I-0.1253 J-0.462
N8200 G1 X-0.0766 Y-0.4674
N8205 X-0.0837 Y-0.4667
N8210 X-0.0977 Y-0.4644
N8215 X-0.1048 Y-0.4631
N8220 X-0.1189 Y-0.4603
N8225 X-0.1259 Y-0.4587
N8230 X-0.133 Y-0.4569
N8235 X-0.14 Y-0.4544
N8240 X-0.1471 Y-0.4516
N8245 X-0.1612 Y-0.4436
N8250 X-0.1682 Y-0.4394
N8255 X-0.1719 Y-0.4369
N8260 X-0.1806 Y-0.4317
N8265 X-0.193 Y-0.4256
N8270 X-0.2092 Y-0.4191
N8275 X-0.2312 Y-0.4124
N8280 X-0.2615 Y-0.4057
N8285 X-0.2923 Y-0.4013
N8290 X-0.3232 Y-0.3985
N8295 X-0.3542 Y-0.3966
N8300 X-0.3852 Y-0.3954
N8305 X-0.4162 Y-0.3946
N8310 X-0.4473 Y-0.394
N8315 X-0.4783 Y-0.3937
N8320 X-0.5094 Y-0.3934
N8325 X-0.5404 Y-0.3933
N8330 X-0.6025 Y-0.3931
N8335 X-0.6336 Y-0.3929
N8340 X-0.6645 Y-0.391
N8345 X-0.6789 Y-0.385
N8350 X-0.704 Y-0.3667
N8355 X-0.722 Y-0.3414
N8360 X-0.7346 Y-0.313
N8365 X-0.7432 Y-0.2832
N8370 X-0.749 Y-0.2527
N8375 X-0.753 Y-0.2219
N8380 X-0.7556 Y-0.191
N8385 X-0.7573 Y-0.16
N8390 X-0.7585 Y-0.1289
N8395 X-0.7593 Y-0.0979
N8400 X-0.7598 Y-0.0669
N8405 X-0.7601 Y-0.0358
N8410 X-0.7604 Y-0.0048
N8415 X-0.7605 Y0.0263
N8420 X-0.7607 Y0.0884
N8425 X-0.7608 Y0.1815
N8430 Y0.2747
N8435 X-0.7594 Y0.2901
N8440 X-0.7545 Y0.3049
N8445 X-0.7465 Y0.3181
N8450 X-0.7258 Y0.3413
N8455 X-0.6995 Y0.3578
N8460 X-0.6706 Y0.3693
N8465 X-0.6406 Y0.3771
N8470 X-0.61 Y0.3824
N8475 X-0.5791 Y0.3859
N8480 X-0.5482 Y0.3883
N8485 X-0.5172 Y0.3899
N8490 X-0.4861 Y0.3909
N8495 X-0.4551 Y0.3916
N8500 X-0.4241 Y0.3921
N8505 X-0.393 Y0.3924
N8510 X-0.362 Y0.3926
N8515 X-0.3309 Y0.3927
N8520 X-0.2688 Y0.3929
N8525 X-0.2404
N8530 X-0.2312 Y0.394
N8535 X-0.2226 Y0.3971
N8540 X-0.2149 Y0.4021
N8545 X-0.2085 Y0.4087
N8550 X-0.2034 Y0.4136
N8555 X-0.2012 Y0.4158
N8560 X-0.1964 Y0.4199
N8565 X-0.1893 Y0.4251
N8570 X-0.1823 Y0.4299
N8575 X-0.1682 Y0.4394
N8580 X-0.1606 Y0.444
N8585 X-0.1471 Y0.4516
N8590 X-0.14 Y0.4544
N8595 X-0.133 Y0.4569
N8600 X-0.1259 Y0.4587
N8605 X-0.1189 Y0.4603
N8610 X-0.1048 Y0.4631
N8615 X-0.0977 Y0.4644
N8620 X-0.0837 Y0.4667
N8625 G3 X-0.0693 Y0.4901 I-0.0037 J0.0184
N8630 G1 X-0.0702 Y0.4933 Z-0.2838
N8635 X-0.071 Y0.4963 Z-0.2829
N8640 X-0.0718 Y0.4992 Z-0.2816
N8645 X-0.0725 Y0.5017 Z-0.2797
N8650 X-0.0732 Y0.504 Z-0.2774
N8655 X-0.0737 Y0.5058 Z-0.2747
N8660 X-0.0741 Y0.5071 Z-0.2717
N8665 X-0.0743 Y0.5079 Z-0.2686
N8670 X-0.0744 Y0.5082 Z-0.2653
N8675 G0 Z0.1969
N8680 X-0.144 Y-0.4776
N8685 Z-0.2466
N8690 G1 Z-0.2653 F39.37
N8695 X-0.1441 Y-0.4773 Z-0.2686
N8700 X-0.1444 Y-0.4765 Z-0.2717
N8705 X-0.145 Y-0.4753 Z-0.2747
N8710 X-0.1458 Y-0.4736 Z-0.2774
N8715 X-0.1468 Y-0.4715 Z-0.2797
N8720 X-0.148 Y-0.4691 Z-0.2816
N8725 X-0.1493 Y-0.4664 Z-0.2829
N8730 X-0.1506 Y-0.4636 Z-0.2838
N8735 X-0.152 Y-0.4606 Z-0.2841
N8740 G3 X-0.1719 Y-0.4369 I-0.0562 J-0.0268
N8745 G1 X-0.1824 Y-0.4299
N8750 X-0.1893 Y-0.4251
N8755 X-0.1964 Y-0.4199
N8760 X-0.2012 Y-0.4158
N8765 X-0.2034 Y-0.4136
N8770 X-0.2085 Y-0.4087
N8775 X-0.2192 Y-0.3946
N8780 X-0.2254 Y-0.3873
N8785 X-0.231 Y-0.3816
N8790 X-0.238 Y-0.3756
N8795 X-0.2471 Y-0.369
N8800 X-0.258 Y-0.3623
N8805 X-0.2722 Y-0.3551
N8810 X-0.29 Y-0.3478
N8815 X-0.3138 Y-0.3403
N8820 X-0.344 Y-0.3332
N8825 X-0.3747 Y-0.3284
N8830 X-0.4056 Y-0.3252
N8835 X-0.4365 Y-0.3229
N8840 X-0.4675 Y-0.3214
N8845 X-0.4986 Y-0.3203
N8850 X-0.5296 Y-0.3196
N8855 X-0.5606 Y-0.319
N8860 X-0.5758 Y-0.3157
N8865 X-0.6041 Y-0.303
N8870 X-0.6267 Y-0.2816
N8875 X-0.6436 Y-0.2556
N8880 X-0.6561 Y-0.2272
N8885 X-0.665 Y-0.1974
N8890 X-0.6713 Y-0.167
N8895 X-0.6758 Y-0.1363
N8900 X-0.6789 Y-0.1054
N8905 X-0.681 Y-0.0744
N8910 X-0.6825 Y-0.0434
N8915 X-0.6836 Y-0.0124
N8920 X-0.6843 Y0.0186
N8925 X-0.6847 Y0.0497
N8930 X-0.6851 Y0.0807
N8935 X-0.6853 Y0.1118
N8940 X-0.6855 Y0.1428
N8945 X-0.6856 Y0.1894
N8950 X-0.6828 Y0.2047
N8955 X-0.6711 Y0.2334
N8960 X-0.6505 Y0.2566
N8965 X-0.6249 Y0.2742
N8970 X-0.5966 Y0.287
N8975 X-0.567 Y0.2963
N8980 X-0.5366 Y0.3029
N8985 X-0.5059 Y0.3075
N8990 X-0.4751 Y0.3107
N8995 X-0.4441 Y0.313
N9000 X-0.4131 Y0.3145
N9005 X-0.382 Y0.3156
N9010 X-0.351 Y0.3164
N9015 X-0.32 Y0.3169
N9020 X-0.2889 Y0.3175
N9025 X-0.2871 Y0.3177
N9030 X-0.2774 Y0.3196
N9035 X-0.2684 Y0.3236
N9040 X-0.2605 Y0.3294
N9045 X-0.2539 Y0.3367
N9050 X-0.2491 Y0.3453
N9055 X-0.2457 Y0.3534
N9060 X-0.2426 Y0.3594
N9065 X-0.2386 Y0.3664
N9070 X-0.2293 Y0.3805
N9075 X-0.2246 Y0.3876
N9080 X-0.2085 Y0.4087
N9085 G3 X-0.2142 Y0.4357 I-0.0153 J0.0108
N9090 G1 X-0.217 Y0.4373 Z-0.2838
N9095 X-0.2197 Y0.4389 Z-0.2829
N9100 X-0.2223 Y0.4405 Z-0.2816
N9105 X-0.2246 Y0.4418 Z-0.2797
N9110 X-0.2266 Y0.443 Z-0.2774
N9115 X-0.2282 Y0.444 Z-0.2747
N9120 X-0.2294 Y0.4447 Z-0.2717
N9125 X-0.2301 Y0.4451 Z-0.2686
N9130 X-0.2304 Y0.4452 Z-0.2653
N9135 G0 Z0.1969
N9140 X-0.2061 Y-0.4422
N9145 Z-0.2466
N9150 G1 Z-0.2653 F39.37
N9155 Y-0.4419 Z-0.2686
N9160 X-0.2062 Y-0.441 Z-0.2717
N9165 X-0.2064 Y-0.4397 Z-0.2747
N9170 X-0.2066 Y-0.4378 Z-0.2774
N9175 X-0.2068 Y-0.4355 Z-0.2797
N9180 X-0.2071 Y-0.4328 Z-0.2816
N9185 X-0.2075 Y-0.4299 Z-0.2829
N9190 X-0.2078 Y-0.4268 Z-0.2838
N9195 X-0.2082 Y-0.4235 Z-0.2841
N9200 G3 X-0.2192 Y-0.3946 I-0.0619 J-0.0071
N9205 G1 X-0.2246 Y-0.3876
N9210 X-0.234 Y-0.3735
N9215 X-0.2387 Y-0.3664
N9220 X-0.2426 Y-0.3594
N9225 X-0.2457 Y-0.3534
N9230 X-0.2491 Y-0.3453
N9235 X-0.2514 Y-0.3399
N9240 X-0.2549 Y-0.3341
N9245 X-0.2592 Y-0.3282
N9250 X-0.265 Y-0.3214
N9255 X-0.2722 Y-0.3142
N9260 X-0.2806 Y-0.3072
N9265 X-0.2915 Y-0.2993
N9270 X-0.3043 Y-0.2916
N9275 X-0.3209 Y-0.2833
N9280 X-0.3414 Y-0.2751
N9285 X-0.3684 Y-0.2666
N9290 X-0.3987 Y-0.2598
N9295 X-0.4294 Y-0.255
N9300 X-0.4602 Y-0.2515
N9305 X-0.4911 Y-0.2487
N9310 X-0.5196 Y-0.2363
N9315 X-0.543 Y-0.2159
N9320 X-0.5613 Y-0.1908
N9325 X-0.575 Y-0.163
N9330 X-0.5852 Y-0.1336
N9335 X-0.5926 Y-0.1035
N9340 X-0.5979 Y-0.0729
N9345 X-0.6017 Y-0.0421
N9350 X-0.6044 Y-0.0111
N9355 X-0.6063 Y0.0198
N9360 X-0.6077 Y0.0509
N9365 X-0.6086 Y0.0819
N9370 X-0.6093 Y0.1129
N9375 X-0.6053 Y0.128
N9380 X-0.5923 Y0.1561
N9385 X-0.5713 Y0.179
N9390 X-0.5457 Y0.1965
N9395 X-0.5175 Y0.2096
N9400 X-0.488 Y0.2192
N9405 X-0.4577 Y0.2261
N9410 X-0.4271 Y0.2311
N9415 X-0.3962 Y0.2346
N9420 X-0.3653 Y0.2371
N9425 X-0.3343 Y0.2394
N9430 X-0.3129 Y0.2423
N9435 X-0.2969 Y0.2459
N9440 X-0.2923 Y0.2473
N9445 X-0.2831 Y0.2513
N9450 X-0.2751 Y0.2572
N9455 X-0.2687 Y0.2648
N9460 X-0.2641 Y0.2737
N9465 X-0.2617 Y0.2834
N9470 X-0.2598 Y0.2981
N9475 X-0.2591 Y0.303
N9480 X-0.2548 Y0.3242
N9485 X-0.2514 Y0.3383
N9490 X-0.2491 Y0.3453
N9495 G3 X-0.2634 Y0.3689 I-0.018 J0.0052
N9500 G1 X-0.2665 Y0.3695 Z-0.2838
N9505 X-0.2696 Y0.3702 Z-0.2829
N9510 X-0.2725 Y0.3708 Z-0.2816
N9515 X-0.2752 Y0.3713 Z-0.2797
N9520 X-0.2774 Y0.3718 Z-0.2774
N9525 X-0.2793 Y0.3722 Z-0.2747
N9530 X-0.2806 Y0.3724 Z-0.2717
N9535 X-0.2814 Y0.3726 Z-0.2686
N9540 X-0.2817 Y0.3727 Z-0.2653
N9545 G0 Z0.1969
N9550 X-0.2523 Y-0.3945
N9555 Z-0.2466
N9560 G1 Z-0.2653 F39.37
N9565 X-0.2522 Y-0.3942 Z-0.2686
N9570 X-0.252 Y-0.3934 Z-0.2717
N9575 X-0.2517 Y-0.3921 Z-0.2747
N9580 X-0.2513 Y-0.3902 Z-0.2774
N9585 X-0.2508 Y-0.388 Z-0.2797
N9590 X-0.2502 Y-0.3854 Z-0.2816
N9595 X-0.2496 Y-0.3825 Z-0.2829
N9600 X-0.2489 Y-0.3794 Z-0.2838
N9605 X-0.2482 Y-0.3762 Z-0.2841
N9610 G3 X-0.2491 Y-0.3453 I-0.0608 J0.0136
N9615 G1 X-0.2514 Y-0.3383
N9620 X-0.2548 Y-0.3242
N9625 X-0.2591 Y-0.303
N9630 X-0.2602 Y-0.2972
N9635 X-0.262 Y-0.2916
N9640 X-0.2644 Y-0.2856
N9645 X-0.2676 Y-0.2792
N9650 X-0.2721 Y-0.2719
N9655 X-0.2772 Y-0.2648
N9660 X-0.2841 Y-0.2568
N9665 X-0.2925 Y-0.2484
N9670 X-0.3024 Y-0.24
N9675 X-0.3151 Y-0.2308
N9680 X-0.3298 Y-0.2219
N9685 X-0.3484 Y-0.2126
N9690 X-0.3719 Y-0.2032
N9695 X-0.4016 Y-0.1939
N9700 X-0.4305 Y-0.1826
N9705 X-0.4554 Y-0.1641
N9710 X-0.4757 Y-0.1406
N9715 X-0.4914 Y-0.1138
N9720 X-0.5033 Y-0.0851
N9725 X-0.5122 Y-0.0554
N9730 X-0.5188 Y-0.025
N9735 X-0.5236 Y0.0056
N9740 X-0.5253 Y0.0211
N9745 X-0.5247 Y0.0366
N9750 X-0.521 Y0.0517
N9755 X-0.5083 Y0.08
N9760 X-0.4874 Y0.1029
N9765 X-0.4618 Y0.1206
N9770 X-0.4337 Y0.1338
N9775 X-0.4043 Y0.1435
N9780 X-0.3742 Y0.1512
N9785 X-0.3439 Y0.1582
N9790 X-0.318 Y0.1649
N9795 X-0.3001 Y0.1712
N9800 X-0.2866 Y0.1772
N9805 X-0.2852 Y0.178
N9810 X-0.2775 Y0.1833
N9815 X-0.2711 Y0.1901
N9820 X-0.2663 Y0.1982
N9825 X-0.2633 Y0.2071
N9830 X-0.2623 Y0.2164
N9835 Y0.2607
N9840 X-0.2622 Y0.2748
N9845 X-0.2619 Y0.2819
N9850 X-0.2617 Y0.2834
N9855 G3 X-0.2801 Y0.3039 I-0.0187 J0.0018
N9860 G1 X-0.2833 Y0.304 Z-0.2838
N9865 X-0.2865 Y0.3041 Z-0.2829
N9870 X-0.2894 Z-0.2816
N9875 X-0.2921 Y0.3042 Z-0.2797
N9880 X-0.2944 Z-0.2774
N9885 X-0.2963 Z-0.2747
N9890 X-0.2977 Y0.3043 Z-0.2717
N9895 X-0.2985 Z-0.2686
N9900 X-0.2988 Z-0.2653
N9905 G0 Z0.1969
N9910 X-0.2703 Y-0.351
N9915 Z-0.2466
N9920 G1 Z-0.2653 F39.37
N9925 X-0.2702 Y-0.3508 Z-0.2686
N9930 X-0.2699 Y-0.35 Z-0.2717
N9935 X-0.2694 Y-0.3487 Z-0.2747
N9940 X-0.2687 Y-0.347 Z-0.2774
N9945 X-0.2678 Y-0.3448 Z-0.2797
N9950 X-0.2668 Y-0.3423 Z-0.2816
N9955 X-0.2657 Y-0.3396 Z-0.2829
N9960 X-0.2645 Y-0.3367 Z-0.2838
N9965 X-0.2633 Y-0.3337 Z-0.2841
N9970 G3 X-0.2591 Y-0.303 I-0.0577 J0.0235
N9975 G1 X-0.2598 Y-0.2981
N9980 X-0.2619 Y-0.2819
N9985 X-0.2622 Y-0.2748
N9990 X-0.2623 Y-0.2569
N9995 X-0.2626 Y-0.251
N10000 X-0.2634 Y-0.2451
N10005 X-0.2647 Y-0.2393
N10010 X-0.2668 Y-0.2325
N10015 X-0.2696 Y-0.2257
N10020 X-0.2734 Y-0.218
N10025 X-0.2783 Y-0.2099
N10030 X-0.2844 Y-0.2014
N10035 X-0.2923 Y-0.192
N10040 X-0.3015 Y-0.1829
N10045 X-0.3149 Y-0.1714
N10050 X-0.3401 Y-0.1532
N10055 X-0.3646 Y-0.1342
N10060 X-0.386 Y-0.1117
N10065 X-0.4037 Y-0.0861
N10070 X-0.4177 Y-0.0584
N10075 X-0.4212 Y-0.0433
N10080 X-0.4203 Y-0.0278
N10085 X-0.4157 Y-0.013
N10090 X-0.401 Y0.0144
N10095 X-0.3792 Y0.0365
N10100 X-0.3539 Y0.0545
N10105 X-0.3271 Y0.07
N10110 X-0.2998 Y0.0848
N10115 X-0.2833 Y0.0949
N10120 X-0.2746 Y0.1019
N10125 X-0.2679 Y0.1108
N10130 X-0.2637 Y0.1212
N10135 X-0.2623 Y0.1322
N10140 Y0.2164
N10145 G3 X-0.2831 Y0.2344 I-0.0187 J-0.0007
N10150 G1 X-0.2864 Y0.234 Z-0.2838
N10155 X-0.2895 Y0.2337 Z-0.2829
N10160 X-0.2925 Y0.2333 Z-0.2816
N10165 X-0.2951 Y0.233 Z-0.2797
N10170 X-0.2974 Y0.2328 Z-0.2774
N10175 X-0.2993 Y0.2326 Z-0.2747
N10180 X-0.3007 Y0.2324 Z-0.2717
N10185 X-0.3015 Y0.2323 Z-0.2686
N10190 X-0.3018 Z-0.2653
N10195 G0 Z0.1969
N10200 X-0.2805 Y-0.3027
N10205 Z-0.2466
N10210 G1 Z-0.2653 F39.37
N10215 X-0.2803 Y-0.3024 Z-0.2686
N10220 X-0.2799 Y-0.3017 Z-0.2717
N10225 X-0.2792 Y-0.3005 Z-0.2747
N10230 X-0.2782 Y-0.2989 Z-0.2774
N10235 X-0.2771 Y-0.2969 Z-0.2797
N10240 X-0.2757 Y-0.2946 Z-0.2816
N10245 X-0.2742 Y-0.2921 Z-0.2829
N10250 X-0.2726 Y-0.2894 Z-0.2838
N10255 X-0.2709 Y-0.2866 Z-0.2841
N10260 G3 X-0.2623 Y-0.2569 I-0.0536 J0.0317
N10265 G1 Y-0.1973
N10270 X-0.2626 Y-0.1914
N10275 X-0.2634 Y-0.1854
N10280 X-0.265 Y-0.1784
N10285 X-0.2675 Y-0.1701
N10290 X-0.2718 Y-0.1595
N10295 X-0.2802 Y-0.1426
N10300 X-0.2962 Y-0.1159
N10305 X-0.2998 Y-0.1009
N10310 X-0.2992 Y-0.0853
N10315 X-0.2921 Y-0.0551
N10320 X-0.2772 Y-0.0278
N10325 X-0.2706 Y-0.0186
N10330 X-0.266 Y-0.0107
N10335 X-0.2632 Y-0.0021
N10340 X-0.2623 Y0.007
N10345 G3 X-0.2817 Y0.0251 Z-0.2762 I-0.0187 J-0.0007
N10350 X-0.2998 Y0.0063 I0.0006 J-0.0187
N10355 G1 Y-0.1967
N10360 G3 X-0.2817 Y-0.2154 I0.0188 J0.
N10365 X-0.2623 Y-0.1973 Z-0.2841 I0.0006 J0.0187
N10370 G1 Y0.1322
N10375 G3 X-0.2665 Y0.1434 I-0.0187 J-0.0007
N10380 G1 X-0.2685 Y0.1451 Z-0.2839
N10385 X-0.2705 Y0.1467 Z-0.2833
N10390 X-0.2724 Y0.1482 Z-0.2824
N10395 X-0.2752 Y0.149 Z-0.2808
N10400 X-0.2776 Y0.1497 Z-0.2787
N10405 X-0.2797 Y0.1503 Z-0.2762
N10410 X-0.281 Z-0.274
N10415 X-0.2822 Z-0.2712
N10420 X-0.2829 Y0.1502 Z-0.2683
N10425 X-0.2831 Z-0.2653
N10430 G0 Z0.1969
N10435 X-1.2839 Y-0.4871
N10440 Z-0.6326
N10445 G1 Z-0.6514 F39.37
N10450 X-1.2842 Y-0.487 Z-0.6546
N10455 X-1.285 Y-0.4868 Z-0.6578
N10460 X-1.2863 Y-0.4865 Z-0.6607
N10465 X-1.2881 Y-0.486 Z-0.6634
N10470 X-1.2904 Y-0.4854 Z-0.6657
N10475 X-1.293 Y-0.4848 Z-0.6676
N10480 X-1.2958 Y-0.484 Z-0.669
N10485 X-1.2989 Y-0.4833 Z-0.6698
N10490 X-1.3021 Y-0.4824 Z-0.6701
N10495 G3 X-1.4041 Y-0.4678 I-0.1188 J-0.4637
N10500 G1 X-1.4153
N10505 X-1.4223 Y-0.4676
N10510 X-1.4364 Y-0.4667
N10515 X-1.4435 Y-0.466
N10520 X-1.4505 Y-0.4646
N10525 X-1.4575 Y-0.4626
N10530 X-1.4646 Y-0.4602
N10535 X-1.4699 Y-0.4581
N10540 X-1.4716 Y-0.4573
N10545 X-1.4787 Y-0.4537
N10550 X-1.4832 Y-0.451
N10555 X-1.4857 Y-0.4494
N10560 X-1.4928 Y-0.4445
N10565 X-1.4998 Y-0.4387
N10570 X-1.5019 Y-0.4369
N10575 X-1.5069 Y-0.4319
N10580 X-1.5145 Y-0.4228
N10585 X-1.521 Y-0.4134
N10590 X-1.5235 Y-0.4087
N10595 X-1.5272 Y-0.4017
N10600 X-1.5301 Y-0.3946
N10605 X-1.5325 Y-0.3876
N10610 X-1.5344 Y-0.3805
N10615 X-1.5359 Y-0.3735
N10620 X-1.5365 Y-0.3664
N10625 X-1.5375 Y-0.3524
N10630 X-1.5376 Y-0.3453
N10635 Y0.3453
N10640 X-1.5375 Y0.3524
N10645 X-1.5365 Y0.3664
N10650 X-1.5359 Y0.3735
N10655 X-1.5344 Y0.3805
N10660 X-1.5325 Y0.3876
N10665 X-1.5301 Y0.3946
N10670 X-1.5272 Y0.4017
N10675 X-1.5235 Y0.4087
N10680 X-1.521 Y0.4134
N10685 X-1.5145 Y0.4228
N10690 X-1.5069 Y0.4319
N10695 X-1.5019 Y0.4369
N10700 X-1.4998 Y0.4387
N10705 X-1.4934 Y0.444
N10710 G3 X-1.4928 Y0.4715 I-0.0124 J0.014
N10715 G1 X-1.4951 Y0.4738 Z-0.6698
N10720 X-1.4974 Y0.4759 Z-0.669
N10725 X-1.4995 Y0.478 Z-0.6676
N10730 X-1.5015 Y0.4799 Z-0.6657
N10735 X-1.5031 Y0.4815 Z-0.6634
N10740 X-1.5045 Y0.4828 Z-0.6607
N10745 X-1.5055 Y0.4837 Z-0.6578
N10750 X-1.5061 Y0.4843 Z-0.6546
N10755 X-1.5063 Y0.4845 Z-0.6514
N10760 G0 Z0.1969
N10765 X1.216 Y0.4874
N10770 Z-0.6326
N10775 G1 Z-0.6514 F39.37
N10780 X1.2162 Y0.4873 Z-0.6546
N10785 X1.217 Y0.4871 Z-0.6578
N10790 X1.2184 Y0.4868 Z-0.6607
N10795 X1.2202 Y0.4863 Z-0.6634
N10800 X1.2224 Y0.4857 Z-0.6657
N10805 X1.225 Y0.485 Z-0.6676
N10810 X1.2279 Y0.4843 Z-0.669
N10815 X1.231 Y0.4835 Z-0.6698
N10820 X1.2341 Y0.4827 Z-0.6701
N10825 G3 X1.3361 Y0.4677 I0.12 J0.4634
N10830 G1 X1.3466
N10835 X1.3537 Y0.4673
N10840 X1.3717 Y0.4651
N10845 X1.3889 Y0.4617
N10850 X1.3959 Y0.4602
N10855 X1.41 Y0.4565
N10860 X1.4171 Y0.4545
N10865 X1.4241 Y0.4516
N10870 X1.4312 Y0.448
N10875 X1.4382 Y0.4439
N10880 X1.4595 Y0.4299
N10885 X1.4782 Y0.4158
N10890 X1.4805 Y0.4139
N10895 X1.4856 Y0.4087
N10900 X1.4964 Y0.3946
N10905 X1.5017 Y0.3876
N10910 X1.5157 Y0.3664
N10915 X1.5197 Y0.3594
N10920 X1.5228 Y0.3535
N10925 X1.5262 Y0.3453
N10930 X1.5319 Y0.3242
N10935 X1.5362 Y0.303
N10940 X1.5368 Y0.2985
N10945 X1.539 Y0.2819
N10950 X1.5393 Y0.2748
N10955 X1.5394 Y0.2537
N10960 Y-0.2607
N10965 X1.5393 Y-0.2748
N10970 X1.539 Y-0.2819
N10975 X1.5368 Y-0.2985
N10980 X1.5362 Y-0.303
N10985 X1.5319 Y-0.3242
N10990 X1.5262 Y-0.3453
N10995 X1.5228 Y-0.3535
N11000 X1.5197 Y-0.3594
N11005 X1.5157 Y-0.3664
N11010 X1.5016 Y-0.3877
N11015 X1.4964 Y-0.3946
N11020 X1.4856 Y-0.4087
N11025 X1.4805 Y-0.4139
N11030 X1.4782 Y-0.4158
N11035 X1.4593 Y-0.43
N11040 X1.4382 Y-0.444
N11045 X1.4312 Y-0.448
N11050 X1.4241 Y-0.4516
N11055 X1.4171 Y-0.4545
N11060 X1.41 Y-0.4565
N11065 X1.3959 Y-0.4602
N11070 X1.3889 Y-0.4617
N11075 X1.3717 Y-0.4651
N11080 X1.3537 Y-0.4673
N11085 G3 X1.343 Y-0.4728 I0.0029 J-0.0185
N11090 G1 X1.3417 Y-0.475 Z-0.6699
N11095 X1.3403 Y-0.4772 Z-0.6694
N11100 X1.339 Y-0.4792 Z-0.6685
N11105 X1.3386 Y-0.4817 Z-0.6671
N11110 X1.3382 Y-0.4839 Z-0.6654
N11115 X1.3378 Y-0.4858 Z-0.6634
N11120 X1.338 Y-0.4877 Z-0.6607
N11125 X1.3382 Y-0.489 Z-0.6578
N11130 X1.3383 Y-0.4899 Z-0.6546
N11135 Y-0.4901 Z-0.6514
N11140 G0 Z0.1969
N11145 X-1.268 Y-0.4871
N11150 Z-0.5678
N11155 G1 Z-0.5866 F39.37
N11160 X-1.2683 Y-0.487 Z-0.5898
N11165 X-1.2691 Y-0.4868 Z-0.593
N11170 X-1.2705 Y-0.4865 Z-0.5959
N11175 X-1.2723 Y-0.486 Z-0.5986
N11180 X-1.2745 Y-0.4854 Z-0.6009
N11185 X-1.2771 Y-0.4848 Z-0.6028
N11190 X-1.28 Y-0.484 Z-0.6042
N11195 X-1.283 Y-0.4833 Z-0.605
N11200 X-1.2862 Y-0.4824 Z-0.6053
N11205 G3 X-1.3883 Y-0.4678 I-0.1188 J-0.4637
N11210 G1 X-1.3941
N11215 X-1.4012 Y-0.4676
N11220 X-1.4153 Y-0.4672
N11225 X-1.4223 Y-0.4666
N11230 X-1.4294 Y-0.4655
N11235 X-1.4364 Y-0.464
N11240 X-1.4435 Y-0.462
N11245 X-1.4505 Y-0.4596
N11250 X-1.4575 Y-0.4566
N11255 X-1.4646 Y-0.4531
N11260 X-1.4679 Y-0.451
N11265 X-1.4787 Y-0.4438
N11270 X-1.4864 Y-0.4369
N11275 X-1.4928 Y-0.431
N11280 X-1.4997 Y-0.4228
N11285 X-1.5069 Y-0.4123
N11290 X-1.5088 Y-0.4087
N11295 X-1.5125 Y-0.4017
N11300 X-1.5154 Y-0.3946
N11305 X-1.5179 Y-0.3876
N11310 X-1.5198 Y-0.3805
N11315 X-1.5213 Y-0.3735
N11320 X-1.5219 Y-0.3664
N11325 X-1.5229 Y-0.3524
N11330 X-1.523 Y-0.3453
N11335 Y0.3453
N11340 X-1.5229 Y0.3524
N11345 X-1.5219 Y0.3664
N11350 X-1.5213 Y0.3735
N11355 X-1.5198 Y0.3805
N11360 X-1.5179 Y0.3876
N11365 X-1.5154 Y0.3946
N11370 X-1.5125 Y0.4017
N11375 X-1.5088 Y0.4087
N11380 X-1.5069 Y0.4123
N11385 X-1.4997 Y0.4228
N11390 X-1.4928 Y0.431
N11395 X-1.4864 Y0.4369
N11400 X-1.4787 Y0.4438
N11405 X-1.4679 Y0.451
N11410 X-1.4646 Y0.4531
N11415 X-1.4575 Y0.4566
N11420 X-1.4505 Y0.4596
N11425 X-1.4435 Y0.462
N11430 X-1.4364 Y0.464
N11435 X-1.4294 Y0.4655
N11440 X-1.4223 Y0.4666
N11445 X-1.4153 Y0.4672
N11450 X-1.4012 Y0.4676
N11455 X-1.3973 Y0.4677
N11460 G3 X-1.3862 Y0.4721 I-0.001 J0.0187
N11465 G1 X-1.3846 Y0.4742 Z-0.6051
N11470 X-1.383 Y0.4762 Z-0.6046
N11475 X-1.3815 Y0.4781 Z-0.6037
N11480 X-1.3808 Y0.4809 Z-0.6021
N11485 X-1.3802 Y0.4834 Z-0.5999
N11490 X-1.3796 Y0.4855 Z-0.5974
N11495 Y0.4864 Z-0.5959
N11500 X-1.3797 Y0.4878 Z-0.593
N11505 Y0.4886 Z-0.5898
N11510 X-1.3798 Y0.4889 Z-0.5866
N11515 G0 Z0.1969
N11520 X-1.2212 Y-0.4871
N11525 Z-0.5232
N11530 G1 Z-0.542 F39.37
N11535 X-1.2214 Y-0.487 Z-0.5452
N11540 X-1.2222 Y-0.4868 Z-0.5484
N11545 X-1.2236 Y-0.4865 Z-0.5514
N11550 X-1.2254 Y-0.486 Z-0.554
N11555 X-1.2276 Y-0.4854 Z-0.5563
N11560 X-1.2302 Y-0.4848 Z-0.5582
N11565 X-1.2331 Y-0.484 Z-0.5596
N11570 X-1.2362 Y-0.4833 Z-0.5604
N11575 X-1.2393 Y-0.4824 Z-0.5607
N11580 G3 X-1.3414 Y-0.4678 I-0.1188 J-0.4637
N11585 G1 X-1.3519 Y-0.4677
N11590 X-1.3589 Y-0.4676
N11595 X-1.366 Y-0.4671
N11600 X-1.373 Y-0.4665
N11605 X-1.38 Y-0.4655
N11610 X-1.3823 Y-0.4651
N11615 X-1.3871 Y-0.4641
N11620 X-1.3941 Y-0.4625
N11625 X-1.4012 Y-0.4605
N11630 X-1.4082 Y-0.458
N11635 X-1.4153 Y-0.4552
N11640 X-1.4223 Y-0.452
N11645 X-1.4294 Y-0.448
N11650 X-1.436 Y-0.444
N11655 X-1.4435 Y-0.4386
N11660 X-1.452 Y-0.4314
N11665 X-1.4534 Y-0.4299
N11670 X-1.4649 Y-0.4158
N11675 X-1.4701 Y-0.4087
N11680 X-1.4716 Y-0.406
N11685 X-1.4741 Y-0.4017
N11690 X-1.4773 Y-0.3946
N11695 X-1.4787 Y-0.391
N11700 X-1.484 Y-0.3717
N11705 X-1.4854 Y-0.3524
N11710 X-1.4856 Y-0.3453
N11715 Y0.3453
N11720 X-1.4854 Y0.3524
N11725 X-1.484 Y0.3717
N11730 X-1.4787 Y0.391
N11735 X-1.4773 Y0.3946
N11740 X-1.4741 Y0.4017
N11745 X-1.4716 Y0.406
N11750 X-1.4701 Y0.4087
N11755 X-1.4649 Y0.4158
N11760 X-1.4534 Y0.4299
N11765 X-1.452 Y0.4314
N11770 X-1.4435 Y0.4386
N11775 X-1.436 Y0.444
N11780 X-1.4294 Y0.448
N11785 X-1.4223 Y0.452
N11790 X-1.4153 Y0.4552
N11795 X-1.4081 Y0.4581
N11800 X-1.4012 Y0.4605
N11805 X-1.3941 Y0.4625
N11810 X-1.3871 Y0.4641
N11815 X-1.3823 Y0.4651
N11820 X-1.38 Y0.4655
N11825 X-1.373 Y0.4665
N11830 X-1.366 Y0.4671
N11835 X-1.3589 Y0.4676
N11840 X-1.3519 Y0.4677
N11845 G3 X-1.3407 Y0.4721 I-0.001 J0.0187
N11850 G1 X-1.3391 Y0.4742 Z-0.5605
N11855 X-1.3376 Y0.4762 Z-0.56
N11860 X-1.3361 Y0.4781 Z-0.5591
N11865 X-1.3353 Y0.4809 Z-0.5575
N11870 X-1.3347 Y0.4834 Z-0.5554
N11875 X-1.3341 Y0.4854 Z-0.5528
N11880 Y0.4864 Z-0.5512
N11885 X-1.3342 Y0.4878 Z-0.5483
N11890 Y0.4886 Z-0.5452
N11895 X-1.3343 Y0.4889 Z-0.542
N11900 G0 Z0.1969
N11905 X-1.1192 Y-0.4888
N11910 Z-0.4819
N11915 G1 Z-0.5007 F39.37
N11920 X-1.1195 Y-0.4887 Z-0.5039
N11925 X-1.1203 Y-0.4885 Z-0.5071
N11930 X-1.1216 Y-0.4882 Z-0.5101
N11935 X-1.1234 Y-0.4877 Z-0.5127
N11940 X-1.1257 Y-0.4871 Z-0.515
N11945 X-1.1282 Y-0.4864 Z-0.5169
N11950 X-1.1311 Y-0.4856 Z-0.5183
N11955 X-1.1342 Y-0.4847 Z-0.5191
N11960 X-1.1373 Y-0.4839 Z-0.5194
N11965 G3 X-1.2391 Y-0.4677 I-0.1258 J-0.4619
N11970 G1 X-1.2532 Y-0.4674
N11975 X-1.2603 Y-0.467
N11980 X-1.2673 Y-0.4664
N11985 X-1.2744 Y-0.4656
N11990 X-1.278 Y-0.4651
N11995 X-1.2814 Y-0.4645
N12000 X-1.2885 Y-0.4633
N12005 X-1.2955 Y-0.4617
N12010 X-1.3025 Y-0.4599
N12015 X-1.3091 Y-0.4581
N12020 X-1.3166 Y-0.4554
N12025 X-1.3237 Y-0.4526
N12030 X-1.3271 Y-0.451
N12035 X-1.3378 Y-0.4454
N12040 X-1.3403 Y-0.444
N12045 X-1.3519 Y-0.4354
N12050 X-1.3589 Y-0.4301
N12055 X-1.3592 Y-0.4299
N12060 X-1.366 Y-0.422
N12065 X-1.373 Y-0.4137
N12070 X-1.3767 Y-0.4087
N12075 X-1.38 Y-0.4032
N12080 X-1.3841 Y-0.3946
N12085 X-1.3866 Y-0.3876
N12090 X-1.3911 Y-0.3717
N12095 X-1.3912 Y-0.3713
N12100 X-1.3919 Y-0.3654
N12105 X-1.3981 Y-0.335
N12110 X-1.4022 Y-0.3042
N12115 X-1.405 Y-0.2733
N12120 X-1.4069 Y-0.2423
N12125 X-1.4081 Y-0.2113
N12130 X-1.4089 Y-0.1803
N12135 X-1.4095 Y-0.1492
N12140 X-1.4098 Y-0.1182
N12145 X-1.4101 Y-0.0871
N12150 X-1.4102 Y-0.0561
N12155 X-1.4104 Y0.006
N12160 X-1.4105 Y0.0992
N12165 Y0.2854
N12170 X-1.4072 Y0.3006
N12175 X-1.4002 Y0.3144
N12180 X-1.3961 Y0.3209
N12185 X-1.3936 Y0.328
N12190 X-1.3927 Y0.3356
N12195 Y0.3453
N12200 X-1.3926 Y0.3524
N12205 X-1.3911 Y0.3717
N12210 X-1.3866 Y0.3876
N12215 X-1.3841 Y0.3946
N12220 X-1.38 Y0.4032
N12225 X-1.3767 Y0.4087
N12230 X-1.373 Y0.4137
N12235 X-1.3652 Y0.4228
N12240 X-1.3592 Y0.4299
N12245 X-1.3589 Y0.4301
N12250 X-1.3519 Y0.4354
N12255 X-1.3403 Y0.444
N12260 X-1.3378 Y0.4454
N12265 X-1.3271 Y0.451
N12270 X-1.3237 Y0.4526
N12275 X-1.3166 Y0.4554
N12280 X-1.3091 Y0.4581
N12285 X-1.3025 Y0.4599
N12290 X-1.2955 Y0.4617
N12295 X-1.2885 Y0.4633
N12300 X-1.2814 Y0.4645
N12305 X-1.278 Y0.4651
N12310 X-1.2744 Y0.4656
N12315 X-1.2673 Y0.4664
N12320 X-1.2603 Y0.467
N12325 X-1.2532 Y0.4674
N12330 G3 X-1.2365 Y0.4893 I-0.0018 J0.0187
N12335 G1 X-1.2371 Y0.4925 Z-0.5191
N12340 X-1.2376 Y0.4957 Z-0.5183
N12345 X-1.2381 Y0.4986 Z-0.5169
N12350 X-1.2386 Y0.5012 Z-0.515
N12355 X-1.239 Y0.5035 Z-0.5127
N12360 X-1.2393 Y0.5053 Z-0.5101
N12365 X-1.2396 Y0.5067 Z-0.5071
N12370 X-1.2397 Y0.5075 Z-0.5039
N12375 X-1.2398 Y0.5078 Z-0.5007
N12380 G0 Z0.1969
N12385 X-1.4059 Y-0.4183
N12390 Z-0.4819
N12395 G1 Z-0.5007 F39.37
N12400 X-1.4058 Y-0.4181 Z-0.5039
N12405 X-1.4054 Y-0.4173 Z-0.5071
N12410 X-1.4048 Y-0.4161 Z-0.5101
N12415 X-1.4039 Y-0.4144 Z-0.5127
N12420 X-1.4029 Y-0.4123 Z-0.515
N12425 X-1.4017 Y-0.4099 Z-0.5169
N12430 X-1.4004 Y-0.4073 Z-0.5183
N12435 X-1.399 Y-0.4045 Z-0.5191
N12440 X-1.3976 Y-0.4015 Z-0.5194
N12445 G3 X-1.3912 Y-0.3713 I-0.0558 J0.0276
N12450 G1 X-1.3926 Y-0.3524
N12455 X-1.3927 Y-0.3453
N12460 Y0.3356
N12465 G3 X-1.3969 Y0.3468 I-0.0187 J-0.0007
N12470 G1 X-1.399 Y0.3484 Z-0.5192
N12475 X-1.4009 Y0.35 Z-0.5187
N12480 X-1.4028 Y0.3516 Z-0.5178
N12485 X-1.4056 Y0.3524 Z-0.5162
N12490 X-1.4081 Y0.3531 Z-0.5141
N12495 X-1.4101 Y0.3536 Z-0.5115
N12500 X-1.4115 Y0.3537 Z-0.5093
N12505 X-1.4126 Y0.3536 Z-0.5066
N12510 X-1.4134 Z-0.5037
N12515 X-1.4136 Z-0.5007
N12520 G0 Z0.1969
N12525 X-1.0261 Y-0.4885
N12530 Z-0.4481
N12535 G1 Z-0.4669 F39.37
N12540 X-1.0264 Z-0.4702
N12545 X-1.0272 Y-0.4882 Z-0.4733
N12550 X-1.0286 Y-0.4879 Z-0.4763
N12555 X-1.0304 Y-0.4874 Z-0.4789
N12560 X-1.0326 Y-0.4868 Z-0.4813
N12565 X-1.0352 Y-0.4861 Z-0.4831
N12570 X-1.038 Y-0.4853 Z-0.4845
N12575 X-1.0411 Y-0.4845 Z-0.4854
N12580 X-1.0442 Y-0.4837 Z-0.4856
N12585 G3 X-1.1461 Y-0.4677 I-0.1248 J-0.4621
N12590 G1 X-1.1546 Y-0.4676
N12595 X-1.1616 Y-0.4674
N12600 X-1.1687 Y-0.4669
N12605 X-1.1757 Y-0.4663
N12610 X-1.1828 Y-0.4655
N12615 X-1.1898 Y-0.4643
N12620 X-1.1969 Y-0.463
N12625 X-1.2039 Y-0.4615
N12630 X-1.2109 Y-0.4596
N12635 X-1.2161 Y-0.4581
N12640 X-1.225 Y-0.455
N12645 X-1.2321 Y-0.4521
N12650 X-1.2343 Y-0.451
N12655 X-1.2391 Y-0.4485
N12660 X-1.2462 Y-0.4447
N12665 X-1.2655 Y-0.4307
N12670 X-1.2673 Y-0.4286
N12675 X-1.2814 Y-0.4122
N12680 X-1.2839 Y-0.4087
N12685 X-1.2878 Y-0.4017
N12690 X-1.2912 Y-0.3946
N12695 X-1.2938 Y-0.3876
N12700 X-1.2983 Y-0.3717
N12705 Y-0.3713
N12710 X-1.2991 Y-0.3654
N12715 X-1.3053 Y-0.335
N12720 X-1.3094 Y-0.3042
N12725 X-1.3122 Y-0.2733
N12730 X-1.3141 Y-0.2423
N12735 X-1.3153 Y-0.2113
N12740 X-1.3161 Y-0.1803
N12745 X-1.3167 Y-0.1492
N12750 X-1.317 Y-0.1182
N12755 X-1.3173 Y-0.0871
N12760 X-1.3174 Y-0.0561
N12765 X-1.3176 Y0.006
N12770 X-1.3177 Y0.0992
N12775 Y0.2854
N12780 X-1.3139 Y0.3005
N12785 X-1.3069 Y0.3139
N12790 X-1.3031 Y0.32
N12795 X-1.3007 Y0.3268
N12800 X-1.2999 Y0.3339
N12805 Y0.3453
N12810 X-1.2998 Y0.3524
N12815 X-1.2983 Y0.3717
N12820 X-1.2938 Y0.3876
N12825 X-1.2912 Y0.3946
N12830 X-1.2878 Y0.4017
N12835 X-1.2839 Y0.4087
N12840 X-1.2814 Y0.4122
N12845 X-1.2662 Y0.4299
N12850 X-1.2655 Y0.4307
N12855 X-1.2462 Y0.4447
N12860 X-1.2391 Y0.4485
N12865 X-1.2343 Y0.451
N12870 X-1.2321 Y0.4521
N12875 X-1.225 Y0.455
N12880 X-1.2161 Y0.4581
N12885 X-1.2109 Y0.4596
N12890 X-1.2039 Y0.4615
N12895 X-1.1969 Y0.463
N12900 X-1.1898 Y0.4643
N12905 X-1.1828 Y0.4655
N12910 X-1.1757 Y0.4663
N12915 X-1.1687 Y0.4669
N12920 X-1.1616 Y0.4674
N12925 G3 X-1.1451 Y0.4895 I-0.0019 J0.0187
N12930 G1 X-1.1457 Y0.4927 Z-0.4854
N12935 X-1.1463 Y0.4958 Z-0.4845
N12940 X-1.1468 Y0.4987 Z-0.4831
N12945 X-1.1473 Y0.5013 Z-0.4813
N12950 X-1.1477 Y0.5036 Z-0.4789
N12955 X-1.148 Y0.5054 Z-0.4763
N12960 X-1.1483 Y0.5068 Z-0.4733
N12965 X-1.1484 Y0.5076 Z-0.4702
N12970 X-1.1485 Y0.5079 Z-0.4669
N12975 G0 Z0.1969
N12980 X-1.3131 Y-0.4183
N12985 Z-0.4481
N12990 G1 Z-0.4669 F39.37
N12995 X-1.3129 Y-0.4181 Z-0.4702
N13000 X-1.3126 Y-0.4173 Z-0.4733
N13005 X-1.3119 Y-0.4161 Z-0.4763
N13010 X-1.3111 Y-0.4144 Z-0.4789
N13015 X-1.3101 Y-0.4123 Z-0.4813
N13020 X-1.3089 Y-0.4099 Z-0.4831
N13025 X-1.3076 Y-0.4073 Z-0.4845
N13030 X-1.3062 Y-0.4045 Z-0.4854
N13035 X-1.3047 Y-0.4015 Z-0.4856
N13040 G3 X-1.2983 Y-0.3713 I-0.0558 J0.0276
N13045 G1 X-1.2998 Y-0.3524
N13050 X-1.2999 Y-0.3453
N13055 Y0.3339
N13060 G3 X-1.3041 Y0.3451 I-0.0187 J-0.0007
N13065 G1 X-1.3061 Y0.3468 Z-0.4855
N13070 X-1.3081 Y0.3484 Z-0.4849
N13075 X-1.31 Y0.3499 Z-0.484
N13080 X-1.3128 Y0.3507 Z-0.4824
N13085 X-1.3152 Y0.3514 Z-0.4803
N13090 X-1.3173 Y0.352 Z-0.4778
N13095 X-1.3187 Z-0.4756
N13100 X-1.3198 Z-0.4728
N13105 X-1.3205 Y0.3519 Z-0.4699
N13110 X-1.3208 Z-0.4669
N13115 G0 Z0.1969
N13120 X-1.2839 Y-0.4871
N13125 Z-0.7893
N13130 G1 Z-0.808 F39.37
N13135 X-1.2842 Y-0.487 Z-0.8113
N13140 X-1.285 Y-0.4868 Z-0.8144
N13145 X-1.2863 Y-0.4865 Z-0.8174
N13150 X-1.2881 Y-0.486 Z-0.8201
N13155 X-1.2904 Y-0.4854 Z-0.8224
N13160 X-1.293 Y-0.4848 Z-0.8243
N13165 X-1.2958 Y-0.484 Z-0.8256
N13170 X-1.2989 Y-0.4833 Z-0.8265
N13175 X-1.3021 Y-0.4824 Z-0.8268
N13180 G3 X-1.4041 Y-0.4678 I-0.1188 J-0.4637
N13185 G1 X-1.4153
N13190 X-1.4223 Y-0.4676
N13195 X-1.4364 Y-0.4667
N13200 X-1.4435 Y-0.466
N13205 X-1.4505 Y-0.4646
N13210 X-1.4575 Y-0.4626
N13215 X-1.4646 Y-0.4602
N13220 X-1.4699 Y-0.4581
N13225 X-1.4716 Y-0.4573
N13230 X-1.4787 Y-0.4537
N13235 X-1.4832 Y-0.451
N13240 X-1.4857 Y-0.4494
N13245 X-1.4928 Y-0.4445
N13250 X-1.4998 Y-0.4387
N13255 X-1.5019 Y-0.4369
N13260 X-1.5069 Y-0.4319
N13265 X-1.5145 Y-0.4228
N13270 X-1.521 Y-0.4134
N13275 X-1.5235 Y-0.4087
N13280 X-1.5272 Y-0.4017
N13285 X-1.5301 Y-0.3946
N13290 X-1.5325 Y-0.3876
N13295 X-1.5344 Y-0.3805
N13300 X-1.5359 Y-0.3735
N13305 X-1.5365 Y-0.3664
N13310 X-1.5375 Y-0.3524
N13315 X-1.5376 Y-0.3453
N13320 Y0.3453
N13325 X-1.5375 Y0.3524
N13330 X-1.5365 Y0.3664
N13335 X-1.5359 Y0.3735
N13340 X-1.5344 Y0.3805
N13345 X-1.5325 Y0.3876
N13350 X-1.5301 Y0.3946
N13355 X-1.5272 Y0.4017
N13360 X-1.5235 Y0.4087
N13365 X-1.521 Y0.4134
N13370 X-1.5145 Y0.4228
N13375 X-1.5069 Y0.4319
N13380 X-1.5019 Y0.4369
N13385 X-1.4998 Y0.4387
N13390 X-1.4934 Y0.444
N13395 G3 X-1.4928 Y0.4715 I-0.0124 J0.014
N13400 G1 X-1.4951 Y0.4738 Z-0.8265
N13405 X-1.4974 Y0.4759 Z-0.8256
N13410 X-1.4995 Y0.478 Z-0.8243
N13415 X-1.5015 Y0.4799 Z-0.8224
N13420 X-1.5031 Y0.4815 Z-0.8201
N13425 X-1.5045 Y0.4828 Z-0.8174
N13430 X-1.5055 Y0.4837 Z-0.8144
N13435 X-1.5061 Y0.4843 Z-0.8113
N13440 X-1.5063 Y0.4845 Z-0.808
N13445 G0 Z0.1969
N13450 X1.216 Y0.4874
N13455 Z-0.7893
N13460 G1 Z-0.808 F39.37
N13465 X1.2162 Y0.4873 Z-0.8113
N13470 X1.217 Y0.4871 Z-0.8144
N13475 X1.2184 Y0.4868 Z-0.8174
N13480 X1.2202 Y0.4863 Z-0.8201
N13485 X1.2224 Y0.4857 Z-0.8224
N13490 X1.225 Y0.485 Z-0.8243
N13495 X1.2279 Y0.4843 Z-0.8256
N13500 X1.231 Y0.4835 Z-0.8265
N13505 X1.2341 Y0.4827 Z-0.8268
N13510 G3 X1.3361 Y0.4677 I0.12 J0.4634
N13515 G1 X1.3466
N13520 X1.3537 Y0.4673
N13525 X1.3717 Y0.4651
N13530 X1.3889 Y0.4617
N13535 X1.3959 Y0.4602
N13540 X1.41 Y0.4565
N13545 X1.4171 Y0.4545
N13550 X1.4241 Y0.4516
N13555 X1.4312 Y0.448
N13560 X1.4382 Y0.4439
N13565 X1.4595 Y0.4299
N13570 X1.4782 Y0.4158
N13575 X1.4805 Y0.4139
N13580 X1.4856 Y0.4087
N13585 X1.4964 Y0.3946
N13590 X1.5017 Y0.3876
N13595 X1.5157 Y0.3664
N13600 X1.5197 Y0.3594
N13605 X1.5228 Y0.3535
N13610 X1.5262 Y0.3453
N13615 X1.5319 Y0.3242
N13620 X1.5362 Y0.303
N13625 X1.5368 Y0.2985
N13630 X1.539 Y0.2819
N13635 X1.5393 Y0.2748
N13640 X1.5394 Y0.2537
N13645 Y-0.2607
N13650 X1.5393 Y-0.2748
N13655 X1.539 Y-0.2819
N13660 X1.5368 Y-0.2985
N13665 X1.5362 Y-0.303
N13670 X1.5319 Y-0.3242
N13675 X1.5262 Y-0.3453
N13680 X1.5228 Y-0.3535
N13685 X1.5197 Y-0.3594
N13690 X1.5157 Y-0.3664
N13695 X1.5016 Y-0.3877
N13700 X1.4964 Y-0.3946
N13705 X1.4856 Y-0.4087
N13710 X1.4805 Y-0.4139
N13715 X1.4782 Y-0.4158
N13720 X1.4593 Y-0.43
N13725 X1.4382 Y-0.444
N13730 X1.4312 Y-0.448
N13735 X1.4241 Y-0.4516
N13740 X1.4171 Y-0.4545
N13745 X1.41 Y-0.4565
N13750 X1.3959 Y-0.4602
N13755 X1.3889 Y-0.4617
N13760 X1.3717 Y-0.4651
N13765 X1.3537 Y-0.4673
N13770 G3 X1.3383 Y-0.4901 I0.0029 J-0.0185
N13775 G1 X1.3391 Y-0.4933 Z-0.8265
N13780 X1.3398 Y-0.4964 Z-0.8256
N13785 X1.3405 Y-0.4993 Z-0.8243
N13790 X1.3411 Y-0.5019 Z-0.8224
N13795 X1.3416 Y-0.5041 Z-0.8201
N13800 X1.3421 Y-0.5059 Z-0.8174
N13805 X1.3424 Y-0.5073 Z-0.8144
N13810 X1.3426 Y-0.5081 Z-0.8113
N13815 Y-0.5084 Z-0.808
N13820 G0 Z0.5906
(CONTOUR1)
N13825 G64 P0.0004 Q0.0004
N13830 G0 Z0.6
N13835 X-0.2772 Y-0.3133
N13840 Z0.2363
N13845 G1 Z-0.1813 F13.123
N13850 X-0.2769 Y-0.3132 Z-0.1845
N13855 X-0.2761 Y-0.3131 Z-0.1877
N13860 X-0.2747 Y-0.313 Z-0.1906
N13865 X-0.2728 Y-0.3128 Z-0.1933
N13870 X-0.2706 Y-0.3125 Z-0.1956
N13875 X-0.2679 Y-0.3123 Z-0.1975
N13880 X-0.2649 Y-0.3119 Z-0.1989
N13885 X-0.2618 Y-0.3116 Z-0.1997
N13890 X-0.2586 Y-0.3112 Z-0.2
N13895 G3 X-0.2419 Y-0.2906 I-0.002 J0.0186 F39.37
N13900 G1 X-0.2424 Y-0.2837
N13905 X-0.2426 Y-0.2768
N13910 Y-0.2698
N13915 Y0.2698
N13920 Y0.2768
N13925 X-0.2424 Y0.2837
N13930 X-0.2419 Y0.2906
N13935 X-0.2412 Y0.2975
N13940 X-0.2401 Y0.3044
N13945 X-0.2389 Y0.3114
N13950 X-0.2372 Y0.3183
N13955 X-0.2353 Y0.3252
N13960 X-0.235 Y0.3262
N13965 X-0.233 Y0.3321
N13970 X-0.2305 Y0.339
N13975 X-0.2281 Y0.3448
N13980 X-0.2276 Y0.346
N13985 X-0.2243 Y0.3529
N13990 X-0.2212 Y0.3588
N13995 X-0.2206 Y0.3598
N14000 X-0.2166 Y0.3667
N14005 X-0.2143 Y0.3703
N14010 X-0.212 Y0.3736
N14015 X-0.2074 Y0.3801
N14020 X-0.207 Y0.3806
N14025 X-0.2014 Y0.3875
N14030 X-0.2004 Y0.3886
N14035 X-0.1951 Y0.3944
N14040 X-0.1935 Y0.3961
N14045 X-0.1881 Y0.4013
N14050 X-0.1866 Y0.4027
N14055 X-0.1803 Y0.4082
N14060 X-0.1797 Y0.4087
N14065 X-0.1728 Y0.4142
N14070 X-0.1715 Y0.4151
N14075 X-0.1659 Y0.419
N14080 X-0.1612 Y0.4221
N14085 X-0.1589 Y0.4234
N14090 X-0.152 Y0.4274
N14095 X-0.1489 Y0.429
N14100 X-0.1451 Y0.4309
N14105 X-0.1382 Y0.434
N14110 X-0.1337 Y0.4359
N14115 X-0.1313 Y0.4369
N14120 X-0.1244 Y0.4393
N14125 X-0.1175 Y0.4415
N14130 X-0.1122 Y0.4428
N14135 X-0.1105 Y0.4432
N14140 X-0.1036 Y0.4448
N14145 X-0.0967 Y0.446
N14150 X-0.0898 Y0.4469
N14155 X-0.0829 Y0.4476
N14160 X-0.076 Y0.4479
N14165 X-0.0691 Y0.4481
N14170 X1.3416
N14175 X1.3486
N14180 X1.3555 Y0.4478
N14185 X1.3624 Y0.4474
N14190 X1.3693 Y0.4466
N14195 X1.3762 Y0.4456
N14200 X1.3831 Y0.4443
N14205 X1.3893 Y0.4428
N14210 X1.3901 Y0.4426
N14215 X1.397 Y0.4407
N14220 X1.4039 Y0.4385
N14225 X1.4108 Y0.4359
N14230 X1.4177 Y0.433
N14235 X1.4246 Y0.4297
N14240 X1.426 Y0.429
N14245 X1.4315 Y0.426
N14250 X1.4383 Y0.4221
N14255 X1.4385 Y0.422
N14260 X1.4454 Y0.4174
N14265 X1.4486 Y0.4151
N14270 X1.4523 Y0.4124
N14275 X1.4574 Y0.4082
N14280 X1.4592 Y0.4068
N14285 X1.4652 Y0.4013
N14290 X1.4661 Y0.4005
N14295 X1.4722 Y0.3944
N14300 X1.473 Y0.3935
N14305 X1.4785 Y0.3875
N14310 X1.4799 Y0.3857
N14315 X1.4841 Y0.3806
N14320 X1.4869 Y0.3768
N14325 X1.4891 Y0.3736
N14330 X1.4936 Y0.3667
N14335 X1.4938 Y0.3665
N14340 X1.4977 Y0.3598
N14345 X1.5007 Y0.3542
N14350 X1.5014 Y0.3529
N14355 X1.5047 Y0.346
N14360 X1.5076 Y0.339
N14365 X1.5101 Y0.3321
N14370 X1.5124 Y0.3252
N14375 X1.5143 Y0.3183
N14380 X1.5145 Y0.3173
N14385 X1.5159 Y0.3114
N14390 X1.5172 Y0.3044
N14395 X1.5183 Y0.2975
N14400 X1.519 Y0.2906
N14405 X1.5195 Y0.2837
N14410 X1.5197 Y0.2768
N14415 Y0.2698
N14420 Y-0.2698
N14425 Y-0.2768
N14430 X1.5195 Y-0.2837
N14435 X1.519 Y-0.2906
N14440 X1.5183 Y-0.2975
N14445 X1.5172 Y-0.3044
N14450 X1.5159 Y-0.3114
N14455 X1.5145 Y-0.3173
N14460 X1.5143 Y-0.3183
N14465 X1.5124 Y-0.3252
N14470 X1.5101 Y-0.3321
N14475 X1.5076 Y-0.339
N14480 X1.5047 Y-0.346
N14485 X1.5014 Y-0.3529
N14490 X1.5007 Y-0.3542
N14495 X1.4977 Y-0.3598
N14500 X1.4938 Y-0.3665
N14505 X1.4936 Y-0.3667
N14510 X1.4891 Y-0.3736
N14515 X1.4869 Y-0.3768
N14520 X1.4841 Y-0.3806
N14525 X1.4799 Y-0.3857
N14530 X1.4785 Y-0.3875
N14535 X1.473 Y-0.3935
N14540 X1.4722 Y-0.3944
N14545 X1.4661 Y-0.4005
N14550 X1.4652 Y-0.4013
N14555 X1.4592 Y-0.4068
N14560 X1.4574 Y-0.4082
N14565 X1.4523 Y-0.4124
N14570 X1.4486 Y-0.4151
N14575 X1.4454 Y-0.4174
N14580 X1.4385 Y-0.422
N14585 X1.4383 Y-0.4221
N14590 X1.4315 Y-0.426
N14595 X1.426 Y-0.429
N14600 X1.4246 Y-0.4297
N14605 X1.4177 Y-0.433
N14610 X1.4108 Y-0.4359
N14615 X1.4039 Y-0.4385
N14620 X1.397 Y-0.4407
N14625 X1.3901 Y-0.4426
N14630 X1.3893 Y-0.4428
N14635 X1.3831 Y-0.4443
N14640 X1.3762 Y-0.4456
N14645 X1.3693 Y-0.4466
N14650 X1.3624 Y-0.4474
N14655 X1.3555 Y-0.4478
N14660 X1.3486 Y-0.4481
N14665 X1.3416
N14670 X-0.0691
N14675 X-0.076 Y-0.4479
N14680 X-0.0829 Y-0.4476
N14685 X-0.0898 Y-0.4469
N14690 X-0.0967 Y-0.446
N14695 X-0.1036 Y-0.4448
N14700 X-0.1105 Y-0.4432
N14705 X-0.1122 Y-0.4428
N14710 X-0.1175 Y-0.4415
N14715 X-0.1244 Y-0.4393
N14720 X-0.1313 Y-0.4369
N14725 X-0.1337 Y-0.4359
N14730 X-0.1382 Y-0.434
N14735 X-0.1451 Y-0.4309
N14740 X-0.1489 Y-0.429
N14745 X-0.152 Y-0.4274
N14750 X-0.1589 Y-0.4234
N14755 X-0.1612 Y-0.4221
N14760 X-0.1659 Y-0.419
N14765 X-0.1715 Y-0.4151
N14770 X-0.1728 Y-0.4142
N14775 X-0.1797 Y-0.4087
N14780 X-0.1803 Y-0.4082
N14785 X-0.1866 Y-0.4027
N14790 X-0.1881 Y-0.4013
N14795 X-0.1935 Y-0.3961
N14800 X-0.1951 Y-0.3944
N14805 X-0.2004 Y-0.3886
N14810 X-0.2014 Y-0.3875
N14815 X-0.207 Y-0.3806
N14820 X-0.2074 Y-0.3801
N14825 X-0.212 Y-0.3736
N14830 X-0.2143 Y-0.3703
N14835 X-0.2166 Y-0.3667
N14840 X-0.2206 Y-0.3598
N14845 X-0.2212 Y-0.3588
N14850 X-0.2243 Y-0.3529
N14855 X-0.2276 Y-0.346
N14860 X-0.2281 Y-0.3448
N14865 X-0.2305 Y-0.339
N14870 X-0.233 Y-0.3321
N14875 X-0.235 Y-0.3262
N14880 X-0.2353 Y-0.3252
N14885 X-0.2372 Y-0.3183
N14890 X-0.2389 Y-0.3114
N14895 X-0.2401 Y-0.3044
N14900 X-0.2412 Y-0.2975
N14905 X-0.2419 Y-0.2906
N14910 G3 X-0.2793 Y-0.2938 I-0.0186 J-0.002
N14915 G1 X-0.2782 Y-0.3117
N14920 Z-0.285 F13.123
N14925 X-0.2779 Z-0.2883
N14930 X-0.277 Y-0.3116 Z-0.2914
N14935 X-0.2756 Y-0.3115 Z-0.2944
N14940 X-0.2738 Y-0.3114 Z-0.2971
N14945 X-0.2715 Y-0.3113 Z-0.2994
N14950 X-0.2688 Y-0.3111 Z-0.3012
N14955 X-0.2658 Y-0.3109 Z-0.3026
N14960 X-0.2627 Y-0.3107 Z-0.3035
N14965 X-0.2594 Y-0.3105 Z-0.3038
N14970 G3 X-0.2419 Y-0.2906 I-0.0012 J0.0187 F39.37
N14975 G1 X-0.2424 Y-0.2837
N14980 X-0.2426 Y-0.2768
N14985 Y-0.2698
N14990 Y0.2698
N14995 Y0.2768
N15000 X-0.2424 Y0.2837
N15005 X-0.2419 Y0.2906
N15010 X-0.2412 Y0.2975
N15015 X-0.2401 Y0.3044
N15020 X-0.2389 Y0.3114
N15025 X-0.2372 Y0.3183
N15030 X-0.2353 Y0.3252
N15035 X-0.235 Y0.3262
N15040 X-0.233 Y0.3321
N15045 X-0.2305 Y0.339
N15050 X-0.2281 Y0.3448
N15055 X-0.2276 Y0.346
N15060 X-0.2243 Y0.3529
N15065 X-0.2212 Y0.3588
N15070 X-0.2206 Y0.3598
N15075 X-0.2166 Y0.3667
N15080 X-0.2143 Y0.3703
N15085 X-0.212 Y0.3736
N15090 X-0.2074 Y0.3801
N15095 X-0.207 Y0.3806
N15100 X-0.2014 Y0.3875
N15105 X-0.2004 Y0.3886
N15110 X-0.1951 Y0.3944
N15115 X-0.1935 Y0.3961
N15120 X-0.1881 Y0.4013
N15125 X-0.1866 Y0.4027
N15130 X-0.1803 Y0.4082
N15135 X-0.1797 Y0.4087
N15140 X-0.1728 Y0.4142
N15145 X-0.1715 Y0.4151
N15150 X-0.1659 Y0.419
N15155 X-0.1612 Y0.4221
N15160 X-0.1589 Y0.4234
N15165 X-0.152 Y0.4274
N15170 X-0.1489 Y0.429
N15175 X-0.1451 Y0.4309
N15180 X-0.1382 Y0.434
N15185 X-0.1337 Y0.4359
N15190 X-0.1313 Y0.4369
N15195 X-0.1244 Y0.4393
N15200 X-0.1175 Y0.4415
N15205 X-0.1122 Y0.4428
N15210 X-0.1105 Y0.4432
N15215 X-0.1036 Y0.4448
N15220 X-0.0967 Y0.446
N15225 X-0.0898 Y0.4469
N15230 X-0.0829 Y0.4476
N15235 X-0.076 Y0.4479
N15240 X-0.0691 Y0.4481
N15245 X1.3416
N15250 X1.3486
N15255 X1.3555 Y0.4478
N15260 X1.3624 Y0.4474
N15265 X1.3693 Y0.4466
N15270 X1.3762 Y0.4456
N15275 X1.3831 Y0.4443
N15280 X1.3893 Y0.4428
N15285 X1.3901 Y0.4426
N15290 X1.397 Y0.4407
N15295 X1.4039 Y0.4385
N15300 X1.4108 Y0.4359
N15305 X1.4177 Y0.433
N15310 X1.4246 Y0.4297
N15315 X1.426 Y0.429
N15320 X1.4315 Y0.426
N15325 X1.4383 Y0.4221
N15330 X1.4385 Y0.422
N15335 X1.4454 Y0.4174
N15340 X1.4486 Y0.4151
N15345 X1.4523 Y0.4124
N15350 X1.4574 Y0.4082
N15355 X1.4592 Y0.4068
N15360 X1.4652 Y0.4013
N15365 X1.4661 Y0.4005
N15370 X1.4722 Y0.3944
N15375 X1.473 Y0.3935
N15380 X1.4785 Y0.3875
N15385 X1.4799 Y0.3857
N15390 X1.4841 Y0.3806
N15395 X1.4869 Y0.3768
N15400 X1.4891 Y0.3736
N15405 X1.4936 Y0.3667
N15410 X1.4938 Y0.3665
N15415 X1.4977 Y0.3598
N15420 X1.5007 Y0.3542
N15425 X1.5014 Y0.3529
N15430 X1.5047 Y0.346
N15435 X1.5076 Y0.339
N15440 X1.5101 Y0.3321
N15445 X1.5124 Y0.3252
N15450 X1.5143 Y0.3183
N15455 X1.5145 Y0.3173
N15460 X1.5159 Y0.3114
N15465 X1.5172 Y0.3044
N15470 X1.5183 Y0.2975
N15475 X1.519 Y0.2906
N15480 X1.5195 Y0.2837
N15485 X1.5197 Y0.2768
N15490 Y0.2698
N15495 Y-0.2698
N15500 Y-0.2768
N15505 X1.5195 Y-0.2837
N15510 X1.519 Y-0.2906
N15515 X1.5183 Y-0.2975
N15520 X1.5172 Y-0.3044
N15525 X1.5159 Y-0.3114
N15530 X1.5145 Y-0.3173
N15535 X1.5143 Y-0.3183
N15540 X1.5124 Y-0.3252
N15545 X1.5101 Y-0.3321
N15550 X1.5076 Y-0.339
N15555 X1.5047 Y-0.346
N15560 X1.5014 Y-0.3529
N15565 X1.5007 Y-0.3542
N15570 X1.4977 Y-0.3598
N15575 X1.4938 Y-0.3665
N15580 X1.4936 Y-0.3667
N15585 X1.4891 Y-0.3736
N15590 X1.4869 Y-0.3768
N15595 X1.4841 Y-0.3806
N15600 X1.4799 Y-0.3857
N15605 X1.4785 Y-0.3875
N15610 X1.473 Y-0.3935
N15615 X1.4722 Y-0.3944
N15620 X1.4661 Y-0.4005
N15625 X1.4652 Y-0.4013
N15630 X1.4592 Y-0.4068
N15635 X1.4574 Y-0.4082
N15640 X1.4523 Y-0.4124
N15645 X1.4486 Y-0.4151
N15650 X1.4454 Y-0.4174
N15655 X1.4385 Y-0.422
N15660 X1.4383 Y-0.4221
N15665 X1.4315 Y-0.426
N15670 X1.426 Y-0.429
N15675 X1.4246 Y-0.4297
N15680 X1.4177 Y-0.433
N15685 X1.4108 Y-0.4359
N15690 X1.4039 Y-0.4385
N15695 X1.397 Y-0.4407
N15700 X1.3901 Y-0.4426
N15705 X1.3893 Y-0.4428
N15710 X1.3831 Y-0.4443
N15715 X1.3762 Y-0.4456
N15720 X1.3693 Y-0.4466
N15725 X1.3624 Y-0.4474
N15730 X1.3555 Y-0.4478
N15735 X1.3486 Y-0.4481
N15740 X1.3416
N15745 X-0.0691
N15750 X-0.076 Y-0.4479
N15755 X-0.0829 Y-0.4476
N15760 X-0.0898 Y-0.4469
N15765 X-0.0967 Y-0.446
N15770 X-0.1036 Y-0.4448
N15775 X-0.1105 Y-0.4432
N15780 X-0.1122 Y-0.4428
N15785 X-0.1175 Y-0.4415
N15790 X-0.1244 Y-0.4393
N15795 X-0.1313 Y-0.4369
N15800 X-0.1337 Y-0.4359
N15805 X-0.1382 Y-0.434
N15810 X-0.1451 Y-0.4309
N15815 X-0.1489 Y-0.429
N15820 X-0.152 Y-0.4274
N15825 X-0.1589 Y-0.4234
N15830 X-0.1612 Y-0.4221
N15835 X-0.1659 Y-0.419
N15840 X-0.1715 Y-0.4151
N15845 X-0.1728 Y-0.4142
N15850 X-0.1797 Y-0.4087
N15855 X-0.1803 Y-0.4082
N15860 X-0.1866 Y-0.4027
N15865 X-0.1881 Y-0.4013
N15870 X-0.1935 Y-0.3961
N15875 X-0.1951 Y-0.3944
N15880 X-0.2004 Y-0.3886
N15885 X-0.2014 Y-0.3875
N15890 X-0.207 Y-0.3806
N15895 X-0.2074 Y-0.3801
N15900 X-0.212 Y-0.3736
N15905 X-0.2143 Y-0.3703
N15910 X-0.2166 Y-0.3667
N15915 X-0.2206 Y-0.3598
N15920 X-0.2212 Y-0.3588
N15925 X-0.2243 Y-0.3529
N15930 X-0.2276 Y-0.346
N15935 X-0.2281 Y-0.3448
N15940 X-0.2305 Y-0.339
N15945 X-0.233 Y-0.3321
N15950 X-0.235 Y-0.3262
N15955 X-0.2353 Y-0.3252
N15960 X-0.2372 Y-0.3183
N15965 X-0.2389 Y-0.3114
N15970 X-0.2401 Y-0.3044
N15975 X-0.2412 Y-0.2975
N15980 X-0.2419 Y-0.2906
N15985 G3 X-0.2626 Y-0.274 I-0.0186 J-0.002
N15990 X-0.2709 Y-0.2843 I0.001 J-0.0093
N15995 G1 X-0.2705 Y-0.2866
N16000 X-0.2232 Y-0.4856
N16005 Z-0.485 F13.123
N16010 G19 G3 Y-0.4668 Z-0.5037 J0.0187 K0.
N16015 G17 G3 X-0.2419 Y-0.4481 I-0.0187 J0. F39.37
N16020 G1 X-1.1962
N16025 X-1.1997
N16030 X-1.2014 Y-0.448
N16035 X-1.2031
N16040 X-1.2049 Y-0.4479
N16045 X-1.2066 Y-0.4477
N16050 X-1.2083 Y-0.4475
N16055 X-1.2101 Y-0.4473
N16060 X-1.2118 Y-0.4471
N16065 X-1.2135 Y-0.4468
N16070 X-1.2152 Y-0.4465
N16075 X-1.217 Y-0.4462
N16080 X-1.2204 Y-0.4454
N16085 X-1.2239 Y-0.4445
N16090 X-1.2266 Y-0.4437
N16095 X-1.2293 Y-0.4428
N16100 X-1.2308 Y-0.4423
N16105 X-1.2343 Y-0.4409
N16110 X-1.2377 Y-0.4394
N16115 X-1.2411 Y-0.4377
N16120 X-1.2446 Y-0.4359
N16125 X-1.2515 Y-0.4315
N16130 X-1.2551 Y-0.429
N16135 X-1.2585 Y-0.4263
N16140 X-1.2632 Y-0.4221
N16145 X-1.2654 Y-0.4199
N16150 X-1.2697 Y-0.4151
N16155 X-1.2723 Y-0.412
N16160 X-1.2751 Y-0.4082
N16165 X-1.2792 Y-0.4018
N16170 X-1.2795 Y-0.4013
N16175 X-1.2831 Y-0.3944
N16180 X-1.286 Y-0.3875
N16185 X-1.2861 Y-0.3873
N16190 X-1.2884 Y-0.3806
N16195 X-1.2901 Y-0.3736
N16200 X-1.2913 Y-0.3667
N16205 X-1.2919 Y-0.3598
N16210 X-1.2921 Y-0.3529
N16215 Y0.3529
N16220 X-1.2919 Y0.3598
N16225 X-1.2913 Y0.3667
N16230 X-1.2901 Y0.3736
N16235 X-1.2884 Y0.3806
N16240 X-1.2861 Y0.3873
N16245 X-1.286 Y0.3875
N16250 X-1.2831 Y0.3944
N16255 X-1.2795 Y0.4013
N16260 X-1.2792 Y0.4018
N16265 X-1.2751 Y0.4082
N16270 X-1.2723 Y0.412
N16275 X-1.2697 Y0.4151
N16280 X-1.2654 Y0.4199
N16285 X-1.2632 Y0.4221
N16290 X-1.2585 Y0.4263
N16295 X-1.2551 Y0.429
N16300 X-1.2515 Y0.4315
N16305 X-1.2446 Y0.4359
N16310 X-1.2411 Y0.4377
N16315 X-1.2377 Y0.4394
N16320 X-1.2343 Y0.4409
N16325 X-1.2308 Y0.4423
N16330 X-1.2293 Y0.4428
N16335 X-1.2266 Y0.4437
N16340 X-1.2239 Y0.4445
N16345 X-1.2204 Y0.4454
N16350 X-1.217 Y0.4462
N16355 X-1.2152 Y0.4465
N16360 X-1.2135 Y0.4468
N16365 X-1.2118 Y0.4471
N16370 X-1.2101 Y0.4473
N16375 X-1.2083 Y0.4475
N16380 X-1.2066 Y0.4477
N16385 X-1.2049 Y0.4479
N16390 X-1.2031 Y0.448
N16395 X-1.2014
N16400 X-1.1997 Y0.4481
N16405 X-1.1962
N16410 X1.3416
N16415 X1.3486
N16420 X1.3555 Y0.4478
N16425 X1.3624 Y0.4474
N16430 X1.3693 Y0.4466
N16435 X1.3762 Y0.4456
N16440 X1.3831 Y0.4443
N16445 X1.3893 Y0.4428
N16450 X1.3901 Y0.4426
N16455 X1.397 Y0.4407
N16460 X1.4039 Y0.4385
N16465 X1.4108 Y0.4359
N16470 X1.4177 Y0.433
N16475 X1.4246 Y0.4297
N16480 X1.426 Y0.429
N16485 X1.4315 Y0.426
N16490 X1.4383 Y0.4221
N16495 X1.4385 Y0.422
N16500 X1.4454 Y0.4174
N16505 X1.4486 Y0.4151
N16510 X1.4523 Y0.4124
N16515 X1.4574 Y0.4082
N16520 X1.4592 Y0.4068
N16525 X1.4652 Y0.4013
N16530 X1.4661 Y0.4005
N16535 X1.4722 Y0.3944
N16540 X1.473 Y0.3935
N16545 X1.4785 Y0.3875
N16550 X1.4799 Y0.3857
N16555 X1.4841 Y0.3806
N16560 X1.4869 Y0.3768
N16565 X1.4891 Y0.3736
N16570 X1.4936 Y0.3667
N16575 X1.4938 Y0.3665
N16580 X1.4977 Y0.3598
N16585 X1.5007 Y0.3542
N16590 X1.5014 Y0.3529
N16595 X1.5047 Y0.346
N16600 X1.5076 Y0.339
N16605 X1.5101 Y0.3321
N16610 X1.5124 Y0.3252
N16615 X1.5143 Y0.3183
N16620 X1.5145 Y0.3173
N16625 X1.5159 Y0.3114
N16630 X1.5172 Y0.3044
N16635 X1.5183 Y0.2975
N16640 X1.519 Y0.2906
N16645 X1.5195 Y0.2837
N16650 X1.5197 Y0.2768
N16655 Y0.2698
N16660 Y-0.2698
N16665 Y-0.2768
N16670 X1.5195 Y-0.2837
N16675 X1.519 Y-0.2906
N16680 X1.5183 Y-0.2975
N16685 X1.5172 Y-0.3044
N16690 X1.5159 Y-0.3114
N16695 X1.5145 Y-0.3173
N16700 X1.5143 Y-0.3183
N16705 X1.5124 Y-0.3252
N16710 X1.5101 Y-0.3321
N16715 X1.5076 Y-0.339
N16720 X1.5047 Y-0.346
N16725 X1.5014 Y-0.3529
N16730 X1.5007 Y-0.3542
N16735 X1.4977 Y-0.3598
N16740 X1.4938 Y-0.3665
N16745 X1.4936 Y-0.3667
N16750 X1.4891 Y-0.3736
N16755 X1.4869 Y-0.3768
N16760 X1.4841 Y-0.3806
N16765 X1.4799 Y-0.3857
N16770 X1.4785 Y-0.3875
N16775 X1.473 Y-0.3935
N16780 X1.4722 Y-0.3944
N16785 X1.4661 Y-0.4005
N16790 X1.4652 Y-0.4013
N16795 X1.4592 Y-0.4068
N16800 X1.4574 Y-0.4082
N16805 X1.4523 Y-0.4124
N16810 X1.4486 Y-0.4151
N16815 X1.4454 Y-0.4174
N16820 X1.4385 Y-0.422
N16825 X1.4383 Y-0.4221
N16830 X1.4315 Y-0.426
N16835 X1.426 Y-0.429
N16840 X1.4246 Y-0.4297
N16845 X1.4177 Y-0.433
N16850 X1.4108 Y-0.4359
N16855 X1.4039 Y-0.4385
N16860 X1.397 Y-0.4407
N16865 X1.3901 Y-0.4426
N16870 X1.3893 Y-0.4428
N16875 X1.3831 Y-0.4443
N16880 X1.3762 Y-0.4456
N16885 X1.3693 Y-0.4466
N16890 X1.3624 Y-0.4474
N16895 X1.3555 Y-0.4478
N16900 X1.3486 Y-0.4481
N16905 X1.3416
N16910 X-0.2419
N16915 Z-0.625
N16920 X-1.4106
N16925 X-1.4175
N16930 X-1.4244 Y-0.4478
N16935 X-1.4313 Y-0.447
N16940 X-1.4383 Y-0.4457
N16945 X-1.4452 Y-0.4438
N16950 X-1.4481 Y-0.4428
N16955 X-1.4521 Y-0.4413
N16960 X-1.459 Y-0.4382
N16965 X-1.4633 Y-0.4359
N16970 X-1.4659 Y-0.4344
N16975 X-1.4694 Y-0.4322
N16980 X-1.4728 Y-0.4297
N16985 X-1.4738 Y-0.429
N16990 X-1.4797 Y-0.4241
N16995 X-1.4819 Y-0.4221
N17000 X-1.4867 Y-0.4172
N17005 X-1.4885 Y-0.4151
N17010 X-1.4936 Y-0.4086
N17015 X-1.4938 Y-0.4082
N17020 X-1.4983 Y-0.4013
N17025 X-1.5005 Y-0.3972
N17030 X-1.5019 Y-0.3944
N17035 X-1.5048 Y-0.3875
N17040 X-1.5071 Y-0.3806
N17045 X-1.5074 Y-0.3796
N17050 X-1.5089 Y-0.3736
N17055 X-1.5101 Y-0.3667
N17060 X-1.5107 Y-0.3598
N17065 X-1.5109 Y-0.3529
N17070 Y0.3529
N17075 X-1.5107 Y0.3598
N17080 X-1.5101 Y0.3667
N17085 X-1.5089 Y0.3736
N17090 X-1.5074 Y0.3796
N17095 X-1.5071 Y0.3806
N17100 X-1.5048 Y0.3875
N17105 X-1.5019 Y0.3944
N17110 X-1.5005 Y0.3972
N17115 X-1.4983 Y0.4013
N17120 X-1.4938 Y0.4082
N17125 X-1.4936 Y0.4086
N17130 X-1.4885 Y0.4151
N17135 X-1.4867 Y0.4172
N17140 X-1.4819 Y0.4221
N17145 X-1.4797 Y0.4241
N17150 X-1.4738 Y0.429
N17155 X-1.4728 Y0.4297
N17160 X-1.4694 Y0.4322
N17165 X-1.4659 Y0.4344
N17170 X-1.4633 Y0.4359
N17175 X-1.459 Y0.4382
N17180 X-1.4521 Y0.4413
N17185 X-1.4481 Y0.4428
N17190 X-1.4452 Y0.4438
N17195 X-1.4383 Y0.4457
N17200 X-1.4313 Y0.447
N17205 X-1.4244 Y0.4478
N17210 X-1.4175 Y0.4481
N17215 X-1.4106
N17220 X1.3416
N17225 X1.3486
N17230 X1.3555 Y0.4478
N17235 X1.3624 Y0.4474
N17240 X1.3693 Y0.4466
N17245 X1.3762 Y0.4456
N17250 X1.3831 Y0.4443
N17255 X1.3893 Y0.4428
N17260 X1.3901 Y0.4426
N17265 X1.397 Y0.4407
N17270 X1.4039 Y0.4385
N17275 X1.4108 Y0.4359
N17280 X1.4177 Y0.433
N17285 X1.4246 Y0.4297
N17290 X1.426 Y0.429
N17295 X1.4315 Y0.426
N17300 X1.4383 Y0.4221
N17305 X1.4385 Y0.422
N17310 X1.4454 Y0.4174
N17315 X1.4486 Y0.4151
N17320 X1.4523 Y0.4124
N17325 X1.4574 Y0.4082
N17330 X1.4592 Y0.4068
N17335 X1.4652 Y0.4013
N17340 X1.4661 Y0.4005
N17345 X1.4722 Y0.3944
N17350 X1.473 Y0.3935
N17355 X1.4785 Y0.3875
N17360 X1.4799 Y0.3857
N17365 X1.4841 Y0.3806
N17370 X1.4869 Y0.3768
N17375 X1.4891 Y0.3736
N17380 X1.4936 Y0.3667
N17385 X1.4938 Y0.3665
N17390 X1.4977 Y0.3598
N17395 X1.5007 Y0.3542
N17400 X1.5014 Y0.3529
N17405 X1.5047 Y0.346
N17410 X1.5076 Y0.339
N17415 X1.5101 Y0.3321
N17420 X1.5124 Y0.3252
N17425 X1.5143 Y0.3183
N17430 X1.5145 Y0.3173
N17435 X1.5159 Y0.3114
N17440 X1.5172 Y0.3044
N17445 X1.5183 Y0.2975
N17450 X1.519 Y0.2906
N17455 X1.5195 Y0.2837
N17460 X1.5197 Y0.2768
N17465 Y0.2698
N17470 Y-0.2698
N17475 Y-0.2768
N17480 X1.5195 Y-0.2837
N17485 X1.519 Y-0.2906
N17490 X1.5183 Y-0.2975
N17495 X1.5172 Y-0.3044
N17500 X1.5159 Y-0.3114
N17505 X1.5145 Y-0.3173
N17510 X1.5143 Y-0.3183
N17515 X1.5124 Y-0.3252
N17520 X1.5101 Y-0.3321
N17525 X1.5076 Y-0.339
N17530 X1.5047 Y-0.346
N17535 X1.5014 Y-0.3529
N17540 X1.5007 Y-0.3542
N17545 X1.4977 Y-0.3598
N17550 X1.4938 Y-0.3665
N17555 X1.4936 Y-0.3667
N17560 X1.4891 Y-0.3736
N17565 X1.4869 Y-0.3768
N17570 X1.4841 Y-0.3806
N17575 X1.4799 Y-0.3857
N17580 X1.4785 Y-0.3875
N17585 X1.473 Y-0.3935
N17590 X1.4722 Y-0.3944
N17595 X1.4661 Y-0.4005
N17600 X1.4652 Y-0.4013
N17605 X1.4592 Y-0.4068
N17610 X1.4574 Y-0.4082
N17615 X1.4523 Y-0.4124
N17620 X1.4486 Y-0.4151
N17625 X1.4454 Y-0.4174
N17630 X1.4385 Y-0.422
N17635 X1.4383 Y-0.4221
N17640 X1.4315 Y-0.426
N17645 X1.426 Y-0.429
N17650 X1.4246 Y-0.4297
N17655 X1.4177 Y-0.433
N17660 X1.4108 Y-0.4359
N17665 X1.4039 Y-0.4385
N17670 X1.397 Y-0.4407
N17675 X1.3901 Y-0.4426
N17680 X1.3893 Y-0.4428
N17685 X1.3831 Y-0.4443
N17690 X1.3762 Y-0.4456
N17695 X1.3693 Y-0.4466
N17700 X1.3624 Y-0.4474
N17705 X1.3555 Y-0.4478
N17710 X1.3486 Y-0.4481
N17715 X1.3416
N17720 X-0.2419
N17725 G3 Y-0.4856 I0. J-0.0187
N17730 G1 X-0.2232
N17735 Z-0.7987 F13.123
N17740 G19 G3 Y-0.4668 Z-0.8174 J0.0187 K0.
N17745 G17 G3 X-0.2419 Y-0.4481 I-0.0187 J0. F39.37
N17750 G1 X-1.4244
N17755 X-1.4313 Y-0.4479
N17760 X-1.4383 Y-0.4472
N17765 X-1.4452 Y-0.446
N17770 X-1.4521 Y-0.4443
N17775 X-1.4567 Y-0.4428
N17780 X-1.459 Y-0.442
N17785 X-1.4659 Y-0.439
N17790 X-1.472 Y-0.4359
N17795 X-1.4728 Y-0.4354
N17800 X-1.4763 Y-0.4333
N17805 X-1.4797 Y-0.431
N17810 X-1.4825 Y-0.429
N17815 X-1.4867 Y-0.4256
N17820 X-1.4906 Y-0.4221
N17825 X-1.4936 Y-0.419
N17830 X-1.4971 Y-0.4151
N17835 X-1.5005 Y-0.4109
N17840 X-1.5025 Y-0.4082
N17845 X-1.5048 Y-0.4048
N17850 X-1.5069 Y-0.4013
N17855 X-1.5074 Y-0.4004
N17860 X-1.5105 Y-0.3944
N17865 X-1.5134 Y-0.3875
N17870 X-1.5143 Y-0.385
N17875 X-1.5158 Y-0.3806
N17880 X-1.5175 Y-0.3736
N17885 X-1.5187 Y-0.3667
N17890 X-1.5193 Y-0.3598
N17895 X-1.5195 Y-0.3529
N17900 Y0.3529
N17905 X-1.5193 Y0.3598
N17910 X-1.5187 Y0.3667
N17915 X-1.5175 Y0.3736
N17920 X-1.5158 Y0.3806
N17925 X-1.5143 Y0.385
N17930 X-1.5134 Y0.3875
N17935 X-1.5105 Y0.3944
N17940 X-1.5074 Y0.4004
N17945 X-1.5069 Y0.4013
N17950 X-1.5048 Y0.4048
N17955 X-1.5025 Y0.4082
N17960 X-1.5005 Y0.4109
N17965 X-1.4971 Y0.4151
N17970 X-1.4936 Y0.419
N17975 X-1.4906 Y0.4221
N17980 X-1.4867 Y0.4256
N17985 X-1.4825 Y0.429
N17990 X-1.4797 Y0.431
N17995 X-1.4763 Y0.4333
N18000 X-1.4728 Y0.4354
N18005 X-1.472 Y0.4359
N18010 X-1.4659 Y0.439
N18015 X-1.459 Y0.442
N18020 X-1.4567 Y0.4428
N18025 X-1.4521 Y0.4443
N18030 X-1.4452 Y0.446
N18035 X-1.4383 Y0.4472
N18040 X-1.4313 Y0.4479
N18045 X-1.4244 Y0.4481
N18050 X1.3416
N18055 X1.3486
N18060 X1.3555 Y0.4478
N18065 X1.3624 Y0.4474
N18070 X1.3693 Y0.4466
N18075 X1.3762 Y0.4456
N18080 X1.3831 Y0.4443
N18085 X1.3893 Y0.4428
N18090 X1.3901 Y0.4426
N18095 X1.397 Y0.4407
N18100 X1.4039 Y0.4385
N18105 X1.4108 Y0.4359
N18110 X1.4177 Y0.433
N18115 X1.4246 Y0.4297
N18120 X1.426 Y0.429
N18125 X1.4315 Y0.426
N18130 X1.4383 Y0.4221
N18135 X1.4385 Y0.422
N18140 X1.4454 Y0.4174
N18145 X1.4486 Y0.4151
N18150 X1.4523 Y0.4124
N18155 X1.4574 Y0.4082
N18160 X1.4592 Y0.4068
N18165 X1.4652 Y0.4013
N18170 X1.4661 Y0.4005
N18175 X1.4722 Y0.3944
N18180 X1.473 Y0.3935
N18185 X1.4785 Y0.3875
N18190 X1.4799 Y0.3857
N18195 X1.4841 Y0.3806
N18200 X1.4869 Y0.3768
N18205 X1.4891 Y0.3736
N18210 X1.4936 Y0.3667
N18215 X1.4938 Y0.3665
N18220 X1.4977 Y0.3598
N18225 X1.5007 Y0.3542
N18230 X1.5014 Y0.3529
N18235 X1.5047 Y0.346
N18240 X1.5076 Y0.339
N18245 X1.5101 Y0.3321
N18250 X1.5124 Y0.3252
N18255 X1.5143 Y0.3183
N18260 X1.5145 Y0.3173
N18265 X1.5159 Y0.3114
N18270 X1.5172 Y0.3044
N18275 X1.5183 Y0.2975
N18280 X1.519 Y0.2906
N18285 X1.5195 Y0.2837
N18290 X1.5197 Y0.2768
N18295 Y0.2698
N18300 Y-0.2698
N18305 Y-0.2768
N18310 X1.5195 Y-0.2837
N18315 X1.519 Y-0.2906
N18320 X1.5183 Y-0.2975
N18325 X1.5172 Y-0.3044
N18330 X1.5159 Y-0.3114
N18335 X1.5145 Y-0.3173
N18340 X1.5143 Y-0.3183
N18345 X1.5124 Y-0.3252
N18350 X1.5101 Y-0.3321
N18355 X1.5076 Y-0.339
N18360 X1.5047 Y-0.346
N18365 X1.5014 Y-0.3529
N18370 X1.5007 Y-0.3542
N18375 X1.4977 Y-0.3598
N18380 X1.4938 Y-0.3665
N18385 X1.4936 Y-0.3667
N18390 X1.4891 Y-0.3736
N18395 X1.4869 Y-0.3768
N18400 X1.4841 Y-0.3806
N18405 X1.4799 Y-0.3857
N18410 X1.4785 Y-0.3875
N18415 X1.473 Y-0.3935
N18420 X1.4722 Y-0.3944
N18425 X1.4661 Y-0.4005
N18430 X1.4652 Y-0.4013
N18435 X1.4592 Y-0.4068
N18440 X1.4574 Y-0.4082
N18445 X1.4523 Y-0.4124
N18450 X1.4486 Y-0.4151
N18455 X1.4454 Y-0.4174
N18460 X1.4385 Y-0.422
N18465 X1.4383 Y-0.4221
N18470 X1.4315 Y-0.426
N18475 X1.426 Y-0.429
N18480 X1.4246 Y-0.4297
N18485 X1.4177 Y-0.433
N18490 X1.4108 Y-0.4359
N18495 X1.4039 Y-0.4385
N18500 X1.397 Y-0.4407
N18505 X1.3901 Y-0.4426
N18510 X1.3893 Y-0.4428
N18515 X1.3831 Y-0.4443
N18520 X1.3762 Y-0.4456
N18525 X1.3693 Y-0.4466
N18530 X1.3624 Y-0.4474
N18535 X1.3555 Y-0.4478
N18540 X1.3486 Y-0.4481
N18545 X1.3416
N18550 X-0.2419
N18555 G3 X-0.2607 Y-0.4668 I0. J-0.0187
N18560 G19 G2 Y-0.4856 Z-0.7987 J0. K0.0187
N18565 G0 Z0.6
N18570 G17
(PARALLEL1)
N18575 G0 X-0.1803 Y-0.4083
N18580 Z0.6
N18585 Z0.08
N18590 G1 Z-0.3038 F13.123
N18595 X-0.7259 Z-0.3039 F39.37
N18600 X-1.4271 Z-0.5593
N18605 X-1.4387 Z-0.5644
N18610 X-1.4505 Z-0.5714
N18615 X-1.4614 Z-0.5797
N18620 X-1.4712 Z-0.5892
N18625 X-1.48 Z-0.5999
N18630 X-1.4874 Z-0.6114
N18635 X-1.4934 Z-0.6237
N18640 X-1.4979 Z-0.6367
N18645 X-1.501 Z-0.65
N18650 X-1.5024 Z-0.6624
N18655 Z-0.7874
N18660 X-1.5082 Y-0.399
N18665 X-1.5128 Y-0.3892
N18670 X-1.5162 Y-0.379
N18675 X-1.5185 Y-0.3683
N18680 Z-0.6624
N18685 X-1.517 Z-0.6497
N18690 X-1.5139 Z-0.6365
N18695 X-1.5094 Z-0.6236
N18700 X-1.5034 Z-0.6113
N18705 X-1.496 Z-0.5998
N18710 X-1.4873 Z-0.5892
N18715 X-1.4774 Z-0.5797
N18720 X-1.4665 Z-0.5714
N18725 X-1.4547 Z-0.5644
N18730 X-1.4432 Z-0.5593
N18735 X-0.7419 Z-0.3039
N18740 X-0.2156 Z-0.3038
N18745 X-0.2212 Y-0.3588
N18750 X-0.2262 Y-0.3489
N18755 X-0.2306 Y-0.3388
N18760 X-0.2343 Y-0.3283
N18765 X-0.7426
N18770 X-1.443 Z-0.5588
N18775 X-1.455 Z-0.564
N18780 X-1.4669 Z-0.571
N18785 X-1.4779 Z-0.5792
N18790 X-1.4879 Z-0.5888
N18795 X-1.4967 Z-0.5993
N18800 X-1.5041 Z-0.6107
N18805 X-1.5103 Z-0.6231
N18810 X-1.5149 Z-0.636
N18815 X-1.5179 Z-0.6488
N18820 X-1.5195 Z-0.6624
N18825 Z-0.6626
N18830 Z-0.7874
N18835 Y-0.2884
N18840 Z-0.6624
N18845 X-1.5179 Z-0.6491
N18850 X-1.5148 Z-0.6357
N18855 X-1.5102 Z-0.6229
N18860 X-1.5041 Z-0.6108
N18865 X-1.4967 Z-0.5993
N18870 X-1.4878 Z-0.5887
N18875 X-1.478 Z-0.5792
N18880 X-1.467 Z-0.571
N18885 X-1.4551 Z-0.564
N18890 X-1.443 Z-0.5587
N18895 X-0.7427 Z-0.3038
N18900 X-0.2421
N18905 X-0.2426 Y-0.2784
N18910 Y-0.2684
N18915 Y-0.2484
N18920 X-0.7429
N18925 X-1.443 Z-0.5587
N18930 X-1.4551 Z-0.564
N18935 X-1.467 Z-0.571
N18940 X-1.478 Z-0.5792
N18945 X-1.4878 Z-0.5886
N18950 X-1.4967 Z-0.5993
N18955 X-1.5041 Z-0.6107
N18960 X-1.5103 Z-0.6232
N18965 X-1.5149 Z-0.6361
N18970 X-1.5179 Z-0.649
N18975 X-1.5195 Z-0.6624
N18980 Z-0.6626
N18985 Z-0.7874
N18990 Y-0.2084
N18995 Z-0.7872
N19000 Z-0.6624
N19005 X-1.5179 Z-0.649
N19010 X-1.5149 Z-0.6361
N19015 X-1.5103 Z-0.6232
N19020 X-1.5041 Z-0.6107
N19025 X-1.4967 Z-0.5993
N19030 X-1.4878 Z-0.5886
N19035 X-1.478 Z-0.5792
N19040 X-1.467 Z-0.571
N19045 X-1.4551 Z-0.564
N19050 X-1.443 Z-0.5587
N19055 X-0.7429 Z-0.3038
N19060 X-0.2426
N19065 Y-0.1684
N19070 X-0.7429 Z-0.3039
N19075 X-1.443 Z-0.5588
N19080 X-1.4551 Z-0.564
N19085 X-1.467 Z-0.571
N19090 X-1.4779 Z-0.5792
N19095 X-1.488 Z-0.5888
N19100 X-1.4967 Z-0.5993
N19105 X-1.5041 Z-0.6107
N19110 X-1.5103 Z-0.6232
