%
(HEMA-P040-D)
(T1 D=0.236 CR=0. TAPER=118DEG - ZMIN=-0.125 - DRILL)
N10 G90 G94 G17 G91.1
N15 G20
N20 G53 G0 Z0.
(DRILL1)
N25 T1 M6
N30 S5000 M3
N35 G17 G90 G94
N40 G54
N45 M8
N50 G0 X-10.1874 Y-1.6535
N55 G43 Z0.6 H1
N60 G0 Z0.2
N65 G98 G81 X-10.1874 Y-1.6535 Z-0.125 R0.2 F40.
N70 Y-0.8661
N75 X-7.2347 Y-0.3937
N80 X-6.4473
N85 X-5.6599
N90 X-4.9213 Y-1.5748
N95 X-4.1339
N100 X-3.3465
N105 X-0.3937 Y-0.315
N110 Y-1.1024
N115 G80
N120 G0 Z0.6
N125 M5
N130 M9
N135 G53 G0 Z0.
N140 M30
%
