%
(HEMA-TMP-M6MM)
(T1 D=6. CR=0. - ZMIN=-7. - FLAT END MILL)
N10 G90 G94 G17 G91.1
N15 G21
N20 G53 G0 Z0.
(2D CONTOUR1)
N25 T1 M6
N30 S5000 M3
N35 G17 G90 G94
N40 G54
N45 G64 P0.01 Q0.01
N50 M8
N55 G0 X33.4 Y-6.967
N60 G43 Z15. H1
N65 G0 Z5.
N70 G1 Z1. F333.33
N75 Z-2.
N80 G18 G3 X32.8 Z-2.6 I-0.6 K0. F508.
N85 G1 X32.2
N90 G17 G3 X31.6 Y-7.567 I0. J-0.6
N95 G1 Y-17.
N100 G2 X26. Y-22.6 I-5.6 J0.
N105 G1 X-26.
N110 G2 X-31.6 Y-17. I0. J5.6
N115 G1 Y11.
N120 G2 X-15.813 Y21.818 I11.6 J0.
N125 G1 X28.021 Y4.852
N130 G2 X31.6 Y-0.37 I-2.021 J-5.222
N135 G1 Y-7.567
N140 G3 X32.2 Y-8.167 I0.6 J0.
N145 G1 X32.8
N150 G18 G2 X33.4 Z-2. I0. K0.6
N155 G0 Z5.
N160 Y-6.967
N165 G1 Z-1.6 F333.33
N170 Z-4.4
N175 G3 X32.8 Z-5. I-0.6 K0. F508.
N180 G1 X32.2
N185 G17 G3 X31.6 Y-7.567 I0. J-0.6
N190 G1 Y-17.
N195 G2 X26. Y-22.6 I-5.6 J0.
N200 G1 X-26.
N205 G2 X-31.6 Y-17. I0. J5.6
N210 G1 Y11.
N215 G2 X-15.813 Y21.818 I11.6 J0.
N220 G1 X28.021 Y4.852
N225 G2 X31.6 Y-0.37 I-2.021 J-5.222
N230 G1 Y-7.567
N235 G2 X31.3 Y-8.017 I-0.488 J0.
N240 G3 X31. Y-8.467 I0.188 J-0.45
N245 G1 Y-17.
N250 G2 X26. Y-22. I-5. J0.
N255 G1 X-26.
N260 G2 X-31. Y-17. I0. J5.
N265 G1 Y11.
N270 G2 X-16.03 Y21.258 I11. J0.
N275 G1 X27.805 Y4.292
N280 G2 X31. Y-0.37 I-1.805 J-4.663
N285 G1 Y-8.467
N290 Y-13.467
N295 G3 X31.6 Y-14.067 I0.6 J0.
N300 G1 X32.2
N305 G18 G2 X32.8 Z-4.4 I0. K0.6
N310 G0 Z15.
N315 G17
(DRILL1)
N320 G0 X-20. Y11.
N325 Z15.
N330 Z5.
N335 G98 G81 X-20. Y11. Z-7. R5. F333.33
N340 G80
N345 G0 Z15.
N350 M5
N355 M9
N360 G53 G0 Z0.
N365 M30
%
