(Project 4213 slapdown intake inside Mk1)
(Created with Estlcam 13.002)
(Machining time about 00:08:12 hours)

(Required tools:)
(209 Drill)
(3/8 Mill)

G90
M06 T1
G43
M03 S24000
G00 Z0.19685

(No. 1 Drill roughing and finishing: Drill 6)
G00 X0.38746 Y0.25000 Z0.19685
G00 Z0.01969
G01 Z-0.20000 F11.81 S24000
G00 X0.38746 Y0.25000 Z0.00000
G00 Z0.01969
G01 Z-0.20000 F11.81
G00 Z0.19685

(No. 2 Drill roughing and finishing: Drill 5)
G00 X0.88746 Y0.25000 Z0.19685
G00 Z0.01969
G01 Z-0.20000 F11.81
G00 X0.88746 Y0.25000 Z0.00000
G00 Z0.01969
G01 Z-0.20000 F11.81
G00 Z0.19685

(No. 3 Drill roughing and finishing: Drill 4)
G00 X1.38746 Y0.25000 Z0.19685
G00 Z0.01969
G01 Z-0.20000 F11.81
G00 X1.38746 Y0.25000 Z0.00000
G00 Z0.01969
G01 Z-0.20000 F11.81
G00 Z0.19685

(No. 4 Drill roughing and finishing: Drill 3)
G00 X1.88746 Y0.25000 Z0.19685
G00 Z0.01969
G01 Z-0.20000 F11.81
G00 X1.88746 Y0.25000 Z0.00000
G00 Z0.01969
G01 Z-0.20000 F11.81
G00 Z0.19685

(No. 5 Drill roughing and finishing: Drill 2)
G00 X2.38746 Y0.25000 Z0.19685
G00 Z0.01969
G01 Z-0.20000 F11.81
G00 X2.38746 Y0.25000 Z0.00000
G00 Z0.01969
G01 Z-0.20000 F11.81
G00 Z0.19685

(No. 6 Drill roughing and finishing: Drill 1)
G00 X2.88746 Y0.25000 Z0.19685
G00 Z0.01969
G01 Z-0.20000 F11.81
G00 X2.88746 Y0.25000 Z0.00000
G00 Z0.01969
G01 Z-0.20000 F11.81
G00 Z0.19685

(No. 7 Drill roughing and finishing: Drill 12)
G00 X2.88746 Y1.00000 Z0.19685
G00 Z0.01969
G01 Z-0.20000 F11.81
G00 X2.88746 Y1.00000 Z0.00000
G00 Z0.01969
G01 Z-0.20000 F11.81
G00 Z0.19685

(No. 8 Drill roughing and finishing: Drill 11)
G00 X2.38746 Y1.00000 Z0.19685
G00 Z0.01969
G01 Z-0.20000 F11.81
G00 X2.38746 Y1.00000 Z0.00000
G00 Z0.01969
G01 Z-0.20000 F11.81
G00 Z0.19685

(No. 9 Drill roughing and finishing: Drill 10)
G00 X1.88746 Y1.00000 Z0.19685
G00 Z0.01969
G01 Z-0.20000 F11.81
G00 X1.88746 Y1.00000 Z0.00000
G00 Z0.01969
G01 Z-0.20000 F11.81
G00 Z0.19685

(No. 10 Drill roughing and finishing: Drill 9)
G00 X1.38746 Y1.00000 Z0.19685
G00 Z0.01969
G01 Z-0.20000 F11.81
G00 X1.38746 Y1.00000 Z0.00000
G00 Z0.01969
G01 Z-0.20000 F11.81
G00 Z0.19685

(No. 11 Drill roughing and finishing: Drill 8)
G00 X0.88746 Y1.00000 Z0.19685
G00 Z0.01969
G01 Z-0.20000 F11.81
G00 X0.88746 Y1.00000 Z0.00000
G00 Z0.01969
G01 Z-0.20000 F11.81
G00 Z0.19685

(No. 12 Drill roughing and finishing: Drill 7)
G00 X0.38746 Y1.00000 Z0.19685
G00 Z0.01969
G01 Z-0.20000 F11.81
G00 X0.38746 Y1.00000 Z0.00000
G00 Z0.01969
G01 Z-0.20000 F11.81
G00 Z0.19685

(No. 13 Drill roughing and finishing: Drill 18)
G00 X0.38746 Y1.75000 Z0.19685
G00 Z0.01969
G01 Z-0.20000 F11.81
G00 X0.38746 Y1.75000 Z0.00000
G00 Z0.01969
G01 Z-0.20000 F11.81
G00 Z0.19685

(No. 14 Drill roughing and finishing: Drill 17)
G00 X0.88746 Y1.75000 Z0.19685
G00 Z0.01969
G01 Z-0.20000 F11.81
G00 X0.88746 Y1.75000 Z0.00000
G00 Z0.01969
G01 Z-0.20000 F11.81
G00 Z0.19685

(No. 15 Drill roughing and finishing: Drill 16)
G00 X1.38746 Y1.75000 Z0.19685
G00 Z0.01969
G01 Z-0.20000 F11.81
G00 X1.38746 Y1.75000 Z0.00000
G00 Z0.01969
G01 Z-0.20000 F11.81
G00 Z0.19685

(No. 16 Drill roughing and finishing: Drill 15)
G00 X1.88746 Y1.75000 Z0.19685
G00 Z0.01969
G01 Z-0.20000 F11.81
G00 X1.88746 Y1.75000 Z0.00000
G00 Z0.01969
G01 Z-0.20000 F11.81
G00 Z0.19685

(No. 17 Drill roughing and finishing: Drill 14)
G00 X2.38746 Y1.75000 Z0.19685
G00 Z0.01969
G01 Z-0.20000 F11.81
G00 X2.38746 Y1.75000 Z0.00000
G00 Z0.01969
G01 Z-0.20000 F11.81
G00 Z0.19685

(No. 18 Drill roughing and finishing: Drill 13)
G00 X2.88746 Y1.75000 Z0.19685
G00 Z0.01969
G01 Z-0.20000 F11.81
G00 X2.88746 Y1.75000 Z0.00000
G00 Z0.01969
G01 Z-0.20000 F11.81
G00 Z0.19685

(No. 19 Drill roughing and finishing: Drill 20)
G00 X2.11145 Y2.32303 Z0.19685
G00 Z0.01969
G01 Z-0.20000 F11.81
G00 X2.11145 Y2.32303 Z0.00000
G00 Z0.01969
G01 Z-0.20000 F11.81
G00 Z0.19685

(No. 20 Drill roughing and finishing: Drill 19)
G00 X1.04665 Y2.67697 Z0.19685
G00 Z0.01969
G01 Z-0.20000 F11.81
G00 X1.04665 Y2.67697 Z0.00000
G00 Z0.01969
G01 Z-0.20000 F11.81
G00 Z0.19685

(No. 21 Drill roughing and finishing: Drill 21)
G00 X2.17049 Y3.73601 Z0.19685
G00 Z0.01969
G01 Z-0.20000 F11.81
G00 X2.17049 Y3.73601 Z0.00000
G00 Z0.01969
G01 Z-0.20000 F11.81
G00 Z0.19685

(No. 22 Drill roughing and finishing: Drill 22)
G00 X2.62919 Y3.97589 Z0.19685
G00 Z0.01969
G01 Z-0.20000 F11.81
G00 X2.62919 Y3.97589 Z0.00000
G00 Z0.01969
G01 Z-0.20000 F11.81
G00 Z0.19685

(No. 23 Drill roughing and finishing: Drill 23)
G00 X3.14637 Y3.95428 Z0.19685
G00 Z0.01969
G01 Z-0.20000 F11.81
G00 X3.14637 Y3.95428 Z0.00000
G00 Z0.01969
G01 Z-0.20000 F11.81
G00 Z0.19685

(No. 24 Drill roughing and finishing: Drill 24)
G00 X3.58347 Y3.67697 Z0.19685
G00 Z0.01969
G01 Z-0.20000 F11.81
G00 X3.58347 Y3.67697 Z0.00000
G00 Z0.01969
G01 Z-0.20000 F11.81
G00 Z0.19685

(No. 25 Drill roughing and finishing: Drill 25)
G00 X3.82335 Y3.21827 Z0.19685
G00 Z0.01969
G01 Z-0.20000 F11.81
G00 X3.82335 Y3.21827 Z0.00000
G00 Z0.01969
G01 Z-0.20000 F11.81
G00 Z0.19685

(No. 26 Drill roughing and finishing: Drill 27)
G00 X4.64827 Y3.42697 Z0.19685
G00 Z0.01969
G01 Z-0.20000 F11.81
G00 X4.64827 Y3.42697 Z0.00000
G00 Z0.01969
G01 Z-0.20000 F11.81
G00 Z0.19685

(No. 27 Drill roughing and finishing: Drill 26)
G00 X4.64827 Y2.67697 Z0.19685
G00 Z0.01969
G01 Z-0.20000 F11.81
G00 X4.64827 Y2.67697 Z0.00000
G00 Z0.01969
G01 Z-0.20000 F11.81
G00 Z0.19685

(No. 28 Drill roughing and finishing: Drill 30)
G00 X6.80969 Y3.39170 Z0.19685
G00 Z0.01969
G01 Z-0.20000 F11.81
G00 X6.80969 Y3.39170 Z0.00000
G00 Z0.01969
G01 Z-0.20000 F11.81
G00 Z0.19685

(No. 29 Drill roughing and finishing: Drill 31)
G00 X7.68469 Y3.39170 Z0.19685
G00 Z0.01969
G01 Z-0.20000 F11.81
G00 X7.68469 Y3.39170 Z0.00000
G00 Z0.01969
G01 Z-0.20000 F11.81
G00 Z0.19685

(No. 30 Drill roughing and finishing: Drill 29)
G00 X6.37219 Y4.14947 Z0.19685
G00 Z0.01969
G01 Z-0.20000 F11.81
G00 X6.37219 Y4.14947 Z0.00000
G00 Z0.01969
G01 Z-0.20000 F11.81
G00 Z0.19685

(No. 31 Drill roughing and finishing: Drill 28)
G00 X6.13775 Y4.47587 Z0.19685
G00 Z0.01969
G01 Z-0.20000 F11.81
G00 X6.13775 Y4.47587 Z0.00000
G00 Z0.01969
G01 Z-0.20000 F11.81
G00 Z0.19685

(No. 32 Hole machining: Hole 2)
M05
M06 T2 (3/8 Mill)
G43
M03 S24000
G00 X7.32131 Y3.77683 Z0.19685
G00 Z0.01969
G01 Z0.00000 F11.81
G03 X7.53284 Y4.39998 Z-0.09771 I-0.07412 J0.37264
G03 X6.88741 Y4.27160 Z-0.19541 I-0.28566 J-0.25051
G03 X6.87715 Y4.23568 Z-0.20000 I0.35978 J-0.12213
G03 X7.32131 Y3.77683 I0.37003 J-0.08621 F23.62
G03 X7.53284 Y4.39998 I-0.07412 J0.37264
G03 X6.88741 Y4.27160 I-0.28566 J-0.25051
G03 X6.87715 Y4.23568 I0.35978 J-0.12213
G00 Z0.19685

(No. 33 Hole machining: Hole 3)
G00 X3.21104 Y3.11029 Z0.19685
G00 Z0.01969
G01 Z0.00000 F11.81
G03 X2.57015 Y3.25973 Z-0.09771 I-0.36358 J-0.11029
G03 X2.76118 Y2.62998 Z-0.19541 I0.27731 J-0.25973
G03 X2.79793 Y2.62330 Z-0.20000 I0.08628 J0.37002
G03 X3.21104 Y3.11029 I0.04953 J0.37670 F23.62
G03 X2.57015 Y3.25973 I-0.36358 J-0.11029
G03 X2.76118 Y2.62998 I0.27731 J-0.25973
G03 X2.79793 Y2.62330 I0.08628 J0.37002
G00 Z0.19685

(No. 34 Part machining: Part 1)
G00 X8.35496 Y3.55075 Z0.19685
G00 Z0.01969
G01 Z0.00000 F11.81
G01 Y2.97812 Z-0.07031
G02 X8.28982 Y2.74844 Z-0.10000 I-0.43750 J0.00000
G03 X8.35496 Y2.97812 Z-0.12969 I-0.37236 J0.22968
G01 Y3.55075 Z-0.20000
G01 Y2.97812 F23.62
G02 X7.86424 Y2.54386 I-0.43750 J0.00000
G01 X7.68252 Y2.56621
G01 X7.50071 Y2.58883
G01 X7.31893 Y2.61170
G01 X7.14910 Y2.63331
G01 X6.07506
G01 X6.07496 Y2.63322
G02 X5.76246 Y2.31250 I-0.31257 J-0.00804
G01 X4.07506
G01 X4.07496 Y2.31240
G02 X4.07483 Y2.11810 I-3.96962 J-0.09456
G02 X3.76246 Y1.81250 I-0.31256 J0.00704
G01 X3.18760
G01 X3.18750 Y1.81240
G01 Y0.00000
G02 X3.00000 Y-0.18750 I-0.18750 J0.00000
G01 X1.81250
G00 Z0.00000
G01 X1.18750
G01 X0.37307 Z-0.10000 F11.81
G01 X1.18750 Z-0.20000
G01 X0.00000 F23.62
G02 X-0.18750 Y0.00000 I0.00000 J0.18750
G01 Y0.83566
G00 Z0.00000
G01 Y1.46066
G01 Y2.00000 Z-0.06622 F11.81
G02 X-0.13636 Y2.12869 Z-0.08364 I0.18750 J0.00000
G01 X-0.04490 Y2.22561 Z-0.10000
G01 X-0.13636 Y2.12869 Z-0.11636
G03 X-0.18750 Y2.00000 Z-0.13378 I0.13636 J-0.12869
G01 Y1.46066 Z-0.20000
G01 Y2.00000 F23.62
G02 X-0.13636 Y2.12869 I0.18750 J0.00000
G01 X1.75109 Y4.12869
G02 X1.85997 Y4.18547 I0.13636 J-0.12869
G01 X3.30735 Y4.40000
G00 Z0.00000
G01 X3.92559 Y4.49163
G01 X4.73123 Y4.61104 Z-0.10000 F11.81
G01 X3.92559 Y4.49163 Z-0.20000
G01 X6.26821 Y4.83885 F23.62
G02 X8.05316 Y5.16429 I1.22906 J-1.68338
G02 X8.35496 Y4.74838 I-0.13572 J-0.41594
G01 Y4.17575
G00 Z0.19685
G00 X0.00000 Y0.00000


M05
M30
