(Project 4213 slapdown intake outside Mk2)
(Created with Estlcam 13.002)
(Machining time about 00:08:27 hours)

(Required tools:)
(209 Drill)
(3/8 Mill)

G90
M03 S24000
G00 Z5.0000

(No. 1 Drill machining: Drill 37)
G00 X12.7000 Y6.3500 Z5.0000
G00 Z0.5000
G01 Z-5.0800 F300 S24000
G00 Z5.0000

(No. 2 Drill machining: Drill 7)
G00 X114.3000 Y6.3500 Z5.0000
G00 Z0.5000
G01 Z-5.0800 F300
G00 Z5.0000

(No. 3 Drill machining: Drill 8)
G00 X127.0000 Y6.3500 Z5.0000
G00 Z0.5000
G01 Z-5.0800 F300
G00 Z5.0000

(No. 4 Drill machining: Drill 9)
G00 X139.7000 Y6.3500 Z5.0000
G00 Z0.5000
G01 Z-5.0800 F300
G00 Z5.0000

(No. 5 Drill machining: Drill 10)
G00 X152.4000 Y6.3500 Z5.0000
G00 Z0.5000
G01 Z-5.0800 F300
G00 Z5.0000

(No. 6 Drill machining: Drill 19)
G00 X165.1000 Y6.3500 Z5.0000
G00 Z0.5000
G01 Z-5.0800 F300
G00 Z5.0000

(No. 7 Drill machining: Drill 20)
G00 X177.8000 Y6.3500 Z5.0000
G00 Z0.5000
G01 Z-5.0800 F300
G00 Z5.0000

(No. 8 Drill machining: Drill 21)
G00 X190.5000 Y6.3500 Z5.0000
G00 Z0.5000
G01 Z-5.0800 F300
G00 Z5.0000

(No. 9 Drill machining: Drill 22)
G00 X203.2000 Y6.3500 Z5.0000
G00 Z0.5000
G01 Z-5.0800 F300
G00 Z5.0000

(No. 10 Drill machining: Drill 29)
G00 X215.9000 Y6.3500 Z5.0000
G00 Z0.5000
G01 Z-5.0800 F300
G00 Z5.0000

(No. 11 Drill machining: Drill 28)
G00 X215.9000 Y25.4000 Z5.0000
G00 Z0.5000
G01 Z-5.0800 F300
G00 Z5.0000

(No. 12 Drill machining: Drill 23)
G00 X203.2000 Y25.4000 Z5.0000
G00 Z0.5000
G01 Z-5.0800 F300
G00 Z5.0000

(No. 13 Drill machining: Drill 24)
G00 X190.5000 Y25.4000 Z5.0000
G00 Z0.5000
G01 Z-5.0800 F300
G00 Z5.0000

(No. 14 Drill machining: Drill 17)
G00 X177.8000 Y25.4000 Z5.0000
G00 Z0.5000
G01 Z-5.0800 F300
G00 Z5.0000

(No. 15 Drill machining: Drill 18)
G00 X165.1000 Y25.4000 Z5.0000
G00 Z0.5000
G01 Z-5.0800 F300
G00 Z5.0000

(No. 16 Drill machining: Drill 11)
G00 X152.4000 Y25.4000 Z5.0000
G00 Z0.5000
G01 Z-5.0800 F300
G00 Z5.0000

(No. 17 Drill machining: Drill 12)
G00 X139.7000 Y25.4000 Z5.0000
G00 Z0.5000
G01 Z-5.0800 F300
G00 Z5.0000

(No. 18 Drill machining: Drill 6)
G00 X127.0000 Y25.4000 Z5.0000
G00 Z0.5000
G01 Z-5.0800 F300
G00 Z5.0000

(No. 19 Drill machining: Drill 5)
G00 X114.3000 Y25.4000 Z5.0000
G00 Z0.5000
G01 Z-5.0800 F300
G00 Z5.0000

(No. 20 Drill machining: Drill 3)
G00 X114.3000 Y44.4500 Z5.0000
G00 Z0.5000
G01 Z-5.0800 F300
G00 Z5.0000

(No. 21 Drill machining: Drill 4)
G00 X127.0000 Y44.4500 Z5.0000
G00 Z0.5000
G01 Z-5.0800 F300
G00 Z5.0000

(No. 22 Drill machining: Drill 13)
G00 X139.7000 Y44.4500 Z5.0000
G00 Z0.5000
G01 Z-5.0800 F300
G00 Z5.0000

(No. 23 Drill machining: Drill 14)
G00 X152.4000 Y44.4500 Z5.0000
G00 Z0.5000
G01 Z-5.0800 F300
G00 Z5.0000

(No. 24 Drill machining: Drill 15)
G00 X165.1000 Y44.4500 Z5.0000
G00 Z0.5000
G01 Z-5.0800 F300
G00 Z5.0000

(No. 25 Drill machining: Drill 16)
G00 X177.8000 Y44.4500 Z5.0000
G00 Z0.5000
G01 Z-5.0800 F300
G00 Z5.0000

(No. 26 Drill machining: Drill 25)
G00 X190.5000 Y44.4500 Z5.0000
G00 Z0.5000
G01 Z-5.0800 F300
G00 Z5.0000

(No. 27 Drill machining: Drill 26)
G00 X203.2000 Y44.4500 Z5.0000
G00 Z0.5000
G01 Z-5.0800 F300
G00 Z5.0000

(No. 28 Drill machining: Drill 27)
G00 X215.9000 Y44.4500 Z5.0000
G00 Z0.5000
G01 Z-5.0800 F300
G00 Z5.0000

(No. 29 Drill machining: Drill 30)
G00 X199.1566 Y67.9951 Z5.0000
G00 Z0.5000
G01 Z-5.0800 F300
G00 Z5.0000

(No. 30 Drill machining: Drill 31)
G00 X172.1106 Y59.0049 Z5.0000
G00 Z0.5000
G01 Z-5.0800 F300
G00 Z5.0000

(No. 31 Drill machining: Drill 36)
G00 X170.6111 Y94.8946 Z5.0000
G00 Z0.5000
G01 Z-5.0800 F300
G00 Z5.0000

(No. 32 Drill machining: Drill 35)
G00 X158.9601 Y100.9876 Z5.0000
G00 Z0.5000
G01 Z-5.0800 F300
G00 Z5.0000

(No. 33 Drill machining: Drill 34)
G00 X145.8236 Y100.4387 Z5.0000
G00 Z0.5000
G01 Z-5.0800 F300
G00 Z5.0000

(No. 34 Drill machining: Drill 33)
G00 X134.7214 Y93.3951 Z5.0000
G00 Z0.5000
G01 Z-5.0800 F300
G00 Z5.0000

(No. 35 Drill machining: Drill 32)
G00 X128.6284 Y81.7441 Z5.0000
G00 Z0.5000
G01 Z-5.0800 F300
G00 Z5.0000

(No. 36 Drill machining: Drill 1)
G00 X107.6754 Y87.0451 Z5.0000
G00 Z0.5000
G01 Z-5.0800 F300
G00 Z5.0000

(No. 37 Drill machining: Drill 2)
G00 X107.6754 Y67.9951 Z5.0000
G00 Z0.5000
G01 Z-5.0800 F300
G00 Z5.0000

(No. 38 Hole machining: Hole 2)
M05
M06 T2 (3/8 Mill)
M03 S24000
G00 X144.4493 Y74.4164 Z5.0000
G00 Z0.5000
G01 Z0.0000 F300
G02 X156.3547 Y84.8572 Z-2.3511 I8.9667 J1.7836
G02 X159.4440 Y69.3264 Z-4.7021 I-2.9387 J-8.6572
G02 X156.8352 Y67.7211 Z-5.0800 I-6.0280 J6.8736
G02 X144.4493 Y74.4164 I-3.4192 J8.4789 F600
G02 X156.3547 Y84.8572 I8.9667 J1.7836
G02 X159.4440 Y69.3264 I-2.9387 J-8.6572
G02 X156.8352 Y67.7211 I-6.0280 J6.8736
G00 Z5.0000

(No. 39 Hole machining: Hole 1)
G00 X50.4116 Y102.7426 Z5.0000
G00 Z0.5000
G01 Z0.0000 F300
G02 X34.9902 Y99.1469 Z-2.3511 I-8.7487 J2.6539
G02 X39.5869 Y114.3001 Z-4.7021 I6.6727 J6.2497
G02 X42.6443 Y114.4861 Z-5.0800 I2.0760 J-8.9036
G02 X50.4116 Y102.7426 I-0.9814 J-9.0896 F600
G02 X34.9902 Y99.1469 I-8.7487 J2.6539
G02 X39.5869 Y114.3001 I6.6727 J6.2497
G02 X42.6443 Y114.4861 I2.0760 J-8.9036
G00 Z5.0000

(No. 40 Part machining: Part 1)
G00 X230.5039 Y33.3375 Z5.0000
G00 Z0.5000
G01 Z0.0000 F300
G01 Y50.8000 Z-2.1441
G03 X229.4537 Y53.7834 Z-2.5400 I-4.7625 J0.0000
G02 X230.5039 Y50.8000 Z-2.9359 I-3.7122 J-2.9834
G01 Y33.3375 Z-5.0800
G01 Y50.8000 F600
G03 X229.2051 Y54.0687 I-4.7625 J0.0000
G01 X209.5091 Y74.9391
G00 Z0.0000
G01 X198.6133 Y86.4846
G01 X184.4150 Y101.5294 Z-2.5400 F300
G01 X198.6133 Y86.4846 Z-5.0800
G01 X181.2636 Y104.8687 F600
G03 X178.4982 Y106.3110 I-3.4636 J-3.2687
G01 X137.5664 Y112.3778
G00 Z0.0000
G01 X121.8630 Y114.7053
G01 X105.7999 Y117.0861 Z-2.5400 F300
G01 X121.8630 Y114.7053 Z-5.0800
G01 X89.7270 Y119.4683 F600
G00 Z0.0000
G01 X74.0236 Y121.7958
G01 X66.5288 Y122.9067 Z-0.9303 F300
G03 X55.0956 Y129.2533 Z-2.5400 I-31.2361 J-42.7988
G02 X66.5288 Y122.9067 Z-4.1497 I-19.8029 J-49.1455
G01 X74.0236 Y121.7958 Z-5.0800
G01 X66.5288 Y122.9067 F600
G03 X16.3304 Y129.5838 I-31.2361 J-42.7988
G03 X13.5255 Y125.2422 I1.9576 J-4.3416
G01 Y101.1350
G00 Z0.0000
G01 Y85.2600
G01 Y64.5733 Z-2.5400 F300
G01 Y85.2600 Z-5.0800
G01 Y55.5625 F600
G01 X0.0000
G03 X-4.7625 Y50.8000 I0.0000 J-4.7625
G01 Y33.3375
G00 Z0.0000
G01 Y17.4625
G01 Y0.0000 Z-2.1441 F300
G03 X-3.7122 Y-2.9834 Z-2.5400 I4.7625 J0.0000
G02 X-4.7625 Y0.0000 Z-2.9359 I3.7122 J2.9834
G01 Y17.4625 Z-5.0800
G01 Y0.0000 F600
G03 X0.0000 Y-4.7625 I4.7625 J0.0000
G01 X109.3345
G00 Z0.0000
G01 X125.2095
G01 X145.8962 Z-2.5400 F300
G01 X125.2095 Z-5.0800
G01 X225.7414 F600
G03 X230.5039 Y0.0000 I0.0000 J4.7625
G01 Y17.4625
G00 Z5.0000
G00 X0.0000 Y0.0000


M05
M30
