(Project 4213 slapdown intake outside Mk2)
(Created with Estlcam 13.002)
(Machining time about 00:08:30 hours)

(Required tools:)
(209 Drill)
(3/8 Mill)

G90
M06 T1
G43
M03 S24000
G00 Z0.19685

(No. 1 Drill machining: Drill 37)
G00 X0.50000 Y0.25000 Z0.19685
G00 Z0.01969
G01 Z-0.20000 F11.81 S24000
G00 Z0.19685

(No. 2 Drill machining: Drill 7)
G00 X4.50000 Y0.25000 Z0.19685
G00 Z0.01969
G01 Z-0.20000 F11.81
G00 Z0.19685

(No. 3 Drill machining: Drill 8)
G00 X5.00000 Y0.25000 Z0.19685
G00 Z0.01969
G01 Z-0.20000 F11.81
G00 Z0.19685

(No. 4 Drill machining: Drill 9)
G00 X5.50000 Y0.25000 Z0.19685
G00 Z0.01969
G01 Z-0.20000 F11.81
G00 Z0.19685

(No. 5 Drill machining: Drill 10)
G00 X6.00000 Y0.25000 Z0.19685
G00 Z0.01969
G01 Z-0.20000 F11.81
G00 Z0.19685

(No. 6 Drill machining: Drill 19)
G00 X6.50000 Y0.25000 Z0.19685
G00 Z0.01969
G01 Z-0.20000 F11.81
G00 Z0.19685

(No. 7 Drill machining: Drill 20)
G00 X7.00000 Y0.25000 Z0.19685
G00 Z0.01969
G01 Z-0.20000 F11.81
G00 Z0.19685

(No. 8 Drill machining: Drill 21)
G00 X7.50000 Y0.25000 Z0.19685
G00 Z0.01969
G01 Z-0.20000 F11.81
G00 Z0.19685

(No. 9 Drill machining: Drill 22)
G00 X8.00000 Y0.25000 Z0.19685
G00 Z0.01969
G01 Z-0.20000 F11.81
G00 Z0.19685

(No. 10 Drill machining: Drill 29)
G00 X8.50000 Y0.25000 Z0.19685
G00 Z0.01969
G01 Z-0.20000 F11.81
G00 Z0.19685

(No. 11 Drill machining: Drill 28)
G00 X8.50000 Y1.00000 Z0.19685
G00 Z0.01969
G01 Z-0.20000 F11.81
G00 Z0.19685

(No. 12 Drill machining: Drill 23)
G00 X8.00000 Y1.00000 Z0.19685
G00 Z0.01969
G01 Z-0.20000 F11.81
G00 Z0.19685

(No. 13 Drill machining: Drill 24)
G00 X7.50000 Y1.00000 Z0.19685
G00 Z0.01969
G01 Z-0.20000 F11.81
G00 Z0.19685

(No. 14 Drill machining: Drill 17)
G00 X7.00000 Y1.00000 Z0.19685
G00 Z0.01969
G01 Z-0.20000 F11.81
G00 Z0.19685

(No. 15 Drill machining: Drill 18)
G00 X6.50000 Y1.00000 Z0.19685
G00 Z0.01969
G01 Z-0.20000 F11.81
G00 Z0.19685

(No. 16 Drill machining: Drill 11)
G00 X6.00000 Y1.00000 Z0.19685
G00 Z0.01969
G01 Z-0.20000 F11.81
G00 Z0.19685

(No. 17 Drill machining: Drill 12)
G00 X5.50000 Y1.00000 Z0.19685
G00 Z0.01969
G01 Z-0.20000 F11.81
G00 Z0.19685

(No. 18 Drill machining: Drill 6)
G00 X5.00000 Y1.00000 Z0.19685
G00 Z0.01969
G01 Z-0.20000 F11.81
G00 Z0.19685

(No. 19 Drill machining: Drill 5)
G00 X4.50000 Y1.00000 Z0.19685
G00 Z0.01969
G01 Z-0.20000 F11.81
G00 Z0.19685

(No. 20 Drill machining: Drill 3)
G00 X4.50000 Y1.75000 Z0.19685
G00 Z0.01969
G01 Z-0.20000 F11.81
G00 Z0.19685

(No. 21 Drill machining: Drill 4)
G00 X5.00000 Y1.75000 Z0.19685
G00 Z0.01969
G01 Z-0.20000 F11.81
G00 Z0.19685

(No. 22 Drill machining: Drill 13)
G00 X5.50000 Y1.75000 Z0.19685
G00 Z0.01969
G01 Z-0.20000 F11.81
G00 Z0.19685

(No. 23 Drill machining: Drill 14)
G00 X6.00000 Y1.75000 Z0.19685
G00 Z0.01969
G01 Z-0.20000 F11.81
G00 Z0.19685

(No. 24 Drill machining: Drill 15)
G00 X6.50000 Y1.75000 Z0.19685
G00 Z0.01969
G01 Z-0.20000 F11.81
G00 Z0.19685

(No. 25 Drill machining: Drill 16)
G00 X7.00000 Y1.75000 Z0.19685
G00 Z0.01969
G01 Z-0.20000 F11.81
G00 Z0.19685

(No. 26 Drill machining: Drill 25)
G00 X7.50000 Y1.75000 Z0.19685
G00 Z0.01969
G01 Z-0.20000 F11.81
G00 Z0.19685

(No. 27 Drill machining: Drill 26)
G00 X8.00000 Y1.75000 Z0.19685
G00 Z0.01969
G01 Z-0.20000 F11.81
G00 Z0.19685

(No. 28 Drill machining: Drill 27)
G00 X8.50000 Y1.75000 Z0.19685
G00 Z0.01969
G01 Z-0.20000 F11.81
G00 Z0.19685

(No. 29 Drill machining: Drill 30)
G00 X7.84081 Y2.67697 Z0.19685
G00 Z0.01969
G01 Z-0.20000 F11.81
G00 Z0.19685

(No. 30 Drill machining: Drill 31)
G00 X6.77601 Y2.32303 Z0.19685
G00 Z0.01969
G01 Z-0.20000 F11.81
G00 Z0.19685

(No. 31 Drill machining: Drill 36)
G00 X6.71697 Y3.73601 Z0.19685
G00 Z0.01969
G01 Z-0.20000 F11.81
G00 Z0.19685

(No. 32 Drill machining: Drill 35)
G00 X6.25827 Y3.97589 Z0.19685
G00 Z0.01969
G01 Z-0.20000 F11.81
G00 Z0.19685

(No. 33 Drill machining: Drill 34)
G00 X5.74109 Y3.95428 Z0.19685
G00 Z0.01969
G01 Z-0.20000 F11.81
G00 Z0.19685

(No. 34 Drill machining: Drill 33)
G00 X5.30399 Y3.67697 Z0.19685
G00 Z0.01969
G01 Z-0.20000 F11.81
G00 Z0.19685

(No. 35 Drill machining: Drill 32)
G00 X5.06411 Y3.21827 Z0.19685
G00 Z0.01969
G01 Z-0.20000 F11.81
G00 Z0.19685

(No. 36 Drill machining: Drill 1)
G00 X4.23919 Y3.42697 Z0.19685
G00 Z0.01969
G01 Z-0.20000 F11.81
G00 Z0.19685

(No. 37 Drill machining: Drill 2)
G00 X4.23919 Y2.67697 Z0.19685
G00 Z0.01969
G01 Z-0.20000 F11.81
G00 Z0.19685

(No. 38 Hole machining: Hole 2)
M05
M06 T2 (3/8 Mill)
G43
M03 S24000
G00 X5.66736 Y2.92588 Z0.19685
G00 Z0.01969
G01 Z0.00000 F11.81
G03 X6.29051 Y2.71434 Z-0.09771 I0.37264 J0.07412
G03 X6.16213 Y3.35978 Z-0.19541 I-0.25051 J0.28566
G03 X6.12621 Y3.37003 Z-0.20000 I-0.12213 J-0.35978
G03 X5.66736 Y2.92588 I-0.08621 J-0.37003 F23.62
G03 X6.29051 Y2.71434 I0.37264 J0.07412
G03 X6.16213 Y3.35978 I-0.25051 J0.28566
G03 X6.12621 Y3.37003 I-0.12213 J-0.35978
G00 Z0.19685

(No. 39 Hole machining: Hole 1)
G00 X2.01433 Y4.08351 Z0.19685
G00 Z0.01969
G01 Z0.00000 F11.81
G03 X1.51026 Y4.50648 Z-0.09770 I-0.37414 J0.06597
G03 X1.39600 Y3.85845 Z-0.19539 I0.12994 J-0.35700
G03 X1.42588 Y3.83580 Z-0.20000 I0.24420 J0.29103
G03 X2.01433 Y4.08351 I0.21432 J0.31369 F23.62
G03 X1.51026 Y4.50648 I-0.37414 J0.06597
G03 X1.39600 Y3.85845 I0.12994 J-0.35700
G03 X1.42588 Y3.83580 I0.24420 J0.29103
G00 Z0.19685

(No. 40 Part machining: Part 1)
G00 X9.07496 Y0.68750 Z0.19685
G00 Z0.01969
G01 Z0.00000 F11.81
G01 Y0.00000 Z-0.08441
G02 X9.03361 Y-0.11746 Z-0.10000 I-0.18750 J0.00000
G03 X9.07496 Y0.00000 Z-0.11559 I-0.14615 J0.11746
G01 Y0.68750 Z-0.20000
G01 Y0.00000 F23.62
G02 X8.88746 Y-0.18750 I-0.18750 J0.00000
G01 X4.92951
G00 Z0.00000
G01 X4.30451
G01 X3.49007 Z-0.10000 F11.81
G01 X4.30451 Z-0.20000
G01 X0.00000 F23.62
G02 X-0.18750 Y0.00000 I0.00000 J0.18750
G01 Y0.68750
G00 Z0.00000
G01 Y1.31250
G01 Y2.00000 Z-0.08441 F11.81
G02 X-0.14615 Y2.11746 Z-0.10000 I0.18750 J0.00000
G03 X-0.18750 Y2.00000 Z-0.11559 I0.14615 J-0.11746
G01 Y1.31250 Z-0.20000
G01 Y2.00000 F23.62
G02 X0.00000 Y2.18750 I0.18750 J0.00000
G01 X0.53250
G01 Y3.35669
G00 Z0.00000
G01 Y3.98169
G01 Y4.79613 Z-0.10000 F11.81
G01 Y3.98169 Z-0.20000
G01 Y4.93080 F23.62
G02 X0.65621 Y5.10711 I0.18750 J0.00000
G02 X2.61924 Y4.83885 I0.73274 J-1.95451
G01 X2.91431 Y4.79511
G00 Z0.00000
G01 X3.53256 Y4.70348
G01 X4.16496 Y4.60975 Z-0.10000 F11.81
G01 X3.53256 Y4.70348 Z-0.20000
G01 X4.79776 Y4.51596 F23.62
G00 Z0.00000
G01 X5.41600 Y4.42432
G01 X6.22163 Y4.30491 Z-0.10000 F11.81
G01 X5.41600 Y4.42432 Z-0.20000
G01 X7.02749 Y4.18547 F23.62
G02 X7.13636 Y4.12869 I-0.02749 J-0.18547
G01 X7.81942 Y3.40491
G00 Z0.00000
G01 X8.24839 Y2.95036
G01 X8.80737 Y2.35804 Z-0.10000 F11.81
G01 X8.24839 Y2.95036 Z-0.20000
G01 X9.02382 Y2.12869 F23.62
G02 X9.07496 Y2.00000 I-0.13636 J-0.12869
G01 Y1.31250
G00 Z0.19685
G00 X0.00000 Y0.00000


M05
M30
