(Project 4213 slapdown intake gearbox)
(Created with Estlcam 13.002)
(Machining time about 00:10:39 hours)

(Required tools:)
(Example tool)
(New tool)

G90
M06 T1
G43
M03 S24000
G00 Z0.19685

(No. 1 Drill machining: Drill 2)
G00 X1.20277 Y3.39170 Z0.19685
G00 Z0.01969
G01 Z-0.20000 F10.00 S4000
G00 Z0.19685

(No. 2 Drill machining: Drill 3)
G00 X2.07777 Y3.39170 Z0.19685
G00 Z0.01969
G01 Z-0.20000 F10.00
G00 Z0.19685

(No. 3 Drill machining: Drill 4)
G00 X2.51527 Y4.14947 Z0.19685
G00 Z0.01969
G01 Z-0.20000 F10.00
G00 Z0.19685

(No. 4 Drill machining: Drill 5)
G00 X2.73833 Y4.44044 Z0.19685
G00 Z0.01969
G01 Z-0.20000 F10.00
G00 Z0.19685

(No. 5 Drill machining: Drill 7)
G00 X3.21178 Y4.84085 Z0.19685
G00 Z0.01969
G01 Z-0.20000 F10.00
G00 Z0.19685

(No. 6 Drill machining: Drill 6)
G00 X3.21178 Y4.54085 Z0.19685
G00 Z0.01969
G01 Z-0.20000 F10.00
G00 Z0.19685

(No. 7 Drill machining: Drill 13)
G00 X4.50000 Y1.75000 Z0.19685
G00 Z0.01969
G01 Z-0.20000 F10.00
G00 Z0.19685

(No. 8 Drill machining: Drill 14)
G00 X5.00000 Y1.75000 Z0.19685
G00 Z0.01969
G01 Z-0.20000 F10.00
G00 Z0.19685

(No. 9 Drill machining: Drill 20)
G00 X5.50000 Y1.75000 Z0.19685
G00 Z0.01969
G01 Z-0.20000 F10.00
G00 Z0.19685

(No. 10 Drill machining: Drill 21)
G00 X6.00000 Y1.75000 Z0.19685
G00 Z0.01969
G01 Z-0.20000 F10.00
G00 Z0.19685

(No. 11 Drill machining: Drill 26)
G00 X6.50000 Y1.00000 Z0.19685
G00 Z0.01969
G01 Z-0.20000 F10.00
G00 Z0.19685

(No. 12 Drill machining: Drill 22)
G00 X6.00000 Y1.00000 Z0.19685
G00 Z0.01969
G01 Z-0.20000 F10.00
G00 Z0.19685

(No. 13 Drill machining: Drill 19)
G00 X5.50000 Y1.00000 Z0.19685
G00 Z0.01969
G01 Z-0.20000 F10.00
G00 Z0.19685

(No. 14 Drill machining: Drill 16)
G00 X5.00000 Y1.00000 Z0.19685
G00 Z0.01969
G01 Z-0.20000 F10.00
G00 Z0.19685

(No. 15 Drill machining: Drill 15)
G00 X4.50000 Y1.00000 Z0.19685
G00 Z0.01969
G01 Z-0.20000 F10.00
G00 Z0.19685

(No. 16 Drill machining: Drill 17)
G00 X4.50000 Y0.25000 Z0.19685
G00 Z0.01969
G01 Z-0.20000 F10.00
G00 Z0.19685

(No. 17 Drill machining: Drill 18)
G00 X5.00000 Y0.25000 Z0.19685
G00 Z0.01969
G01 Z-0.20000 F10.00
G00 Z0.19685

(No. 18 Drill machining: Drill 24)
G00 X5.50000 Y0.25000 Z0.19685
G00 Z0.01969
G01 Z-0.20000 F10.00
G00 Z0.19685

(No. 19 Drill machining: Drill 23)
G00 X6.00000 Y0.25000 Z0.19685
G00 Z0.01969
G01 Z-0.20000 F10.00
G00 Z0.19685

(No. 20 Drill machining: Drill 25)
G00 X6.50000 Y0.25000 Z0.19685
G00 Z0.01969
G01 Z-0.20000 F10.00
G00 Z0.19685

(No. 21 Drill machining: Drill 29)
G00 X7.00000 Y0.25000 Z0.19685
G00 Z0.01969
G01 Z-0.20000 F10.00
G00 Z0.19685

(No. 22 Drill machining: Drill 30)
G00 X7.50000 Y0.25000 Z0.19685
G00 Z0.01969
G01 Z-0.20000 F10.00
G00 Z0.19685

(No. 23 Drill machining: Drill 33)
G00 X8.00000 Y0.25000 Z0.19685
G00 Z0.01969
G01 Z-0.20000 F10.00
G00 Z0.19685

(No. 24 Drill machining: Drill 34)
G00 X8.50000 Y0.25000 Z0.19685
G00 Z0.01969
G01 Z-0.20000 F10.00
G00 Z0.19685

(No. 25 Drill machining: Drill 35)
G00 X8.50000 Y1.00000 Z0.19685
G00 Z0.01969
G01 Z-0.20000 F10.00
G00 Z0.19685

(No. 26 Drill machining: Drill 36)
G00 X8.50000 Y1.75000 Z0.19685
G00 Z0.01969
G01 Z-0.20000 F10.00
G00 Z0.19685

(No. 27 Drill machining: Drill 38)
G00 X7.84081 Y2.67697 Z0.19685
G00 Z0.01969
G01 Z-0.20000 F10.00
G00 Z0.19685

(No. 28 Drill machining: Drill 37)
G00 X8.00000 Y1.75000 Z0.19685
G00 Z0.01969
G01 Z-0.20000 F10.00
G00 Z0.19685

(No. 29 Drill machining: Drill 32)
G00 X8.00000 Y1.00000 Z0.19685
G00 Z0.01969
G01 Z-0.20000 F10.00
G00 Z0.19685

(No. 30 Drill machining: Drill 31)
G00 X7.50000 Y1.00000 Z0.19685
G00 Z0.01969
G01 Z-0.20000 F10.00
G00 Z0.19685

(No. 31 Drill machining: Drill 28)
G00 X7.00000 Y1.00000 Z0.19685
G00 Z0.01969
G01 Z-0.20000 F10.00
G00 Z0.19685

(No. 32 Drill machining: Drill 27)
G00 X6.50000 Y1.75000 Z0.19685
G00 Z0.01969
G01 Z-0.20000 F10.00
G00 Z0.19685

(No. 33 Drill machining: Drill 39)
G00 X6.71697 Y3.73601 Z0.19685
G00 Z0.01969
G01 Z-0.20000 F10.00
G00 Z0.19685

(No. 34 Drill machining: Drill 40)
G00 X6.25827 Y3.97589 Z0.19685
G00 Z0.01969
G01 Z-0.20000 F10.00
G00 Z0.19685

(No. 35 Drill machining: Drill 8)
G00 X5.66650 Y4.38032 Z0.19685
G00 Z0.01969
G01 Z-0.20000 F10.00
G00 Z0.19685

(No. 36 Drill machining: Drill 9)
G00 X5.74109 Y3.95428 Z0.19685
G00 Z0.01969
G01 Z-0.20000 F10.00
G00 Z0.19685

(No. 37 Drill machining: Drill 10)
G00 X5.30399 Y3.67697 Z0.19685
G00 Z0.01969
G01 Z-0.20000 F10.00
G00 Z0.19685

(No. 38 Drill machining: Drill 11)
G00 X5.06411 Y3.21827 Z0.19685
G00 Z0.01969
G01 Z-0.20000 F10.00
G00 Z0.19685

(No. 39 Drill machining: Drill 12)
G00 X4.23919 Y2.67697 Z0.19685
G00 Z0.01969
G01 Z-0.20000 F10.00
G00 Z0.19685

(No. 40 Drill machining: Drill 1)
G00 X0.50000 Y0.25000 Z0.19685
G00 Z0.01969
G01 Z-0.20000 F10.00
G00 Z0.19685

(No. 41 Hole machining: Hole 1)
M05
M06 T2 (3/8 Mill)
G43
M03 S24000
G00 X1.53905 Y3.81580 Z0.19685
G00 Z0.01969
G01 Z0.00000 F10.00
G02 X1.30712 Y4.25239 Z-0.20000 I0.10122 J0.33367
G02 X1.40191 Y4.40396 I0.33315 J-0.10292 F17.00
G02 X1.97985 Y4.22865 I0.23836 J-0.25449
G02 X1.53905 Y3.81580 I-0.33958 J-0.07918
G02 X1.30712 Y4.25239 I0.10122 J0.33367
G00 Z0.19685

(No. 42 Hole machining: Hole 2)
G00 X4.02677 Y3.84062 Z0.19685
G00 Z0.01969
G01 Z0.00000 F10.00
G02 X4.42804 Y4.12670 Z-0.20000 I0.33972 J-0.05204
G02 X4.58142 Y4.05676 I-0.06155 J-0.33812 F17.00
G02 X4.49128 Y3.46836 I-0.21493 J-0.26818
G02 X4.02677 Y3.84062 I-0.12479 J0.32022
G02 X4.42804 Y4.12670 I0.33972 J-0.05204
G00 Z0.19685

(No. 43 Hole machining: Hole 3)
G00 X5.75098 Y3.19499 Z0.19685
G00 Z0.01969
G01 Z0.00000 F10.00
G02 X6.23651 Y3.28802 Z-0.20000 I0.28904 J-0.19500
G02 X6.35342 Y3.15280 I-0.19649 J-0.28803 F17.00
G02 X6.01566 Y2.65216 I-0.31340 J-0.15282
G02 X5.75098 Y3.19499 I0.02436 J0.34782
G02 X6.23651 Y3.28802 I0.28904 J-0.19500
G00 Z0.19685

(No. 44 Hole machining: Hole 4)
G00 X6.97978 Y2.23799 Z0.19685
G00 Z0.01969
G01 Z0.00000 F10.00
G02 X7.46859 Y2.16414 Z-0.20000 I0.20768 J-0.28002
G02 X7.53380 Y1.99781 I-0.28113 J-0.20617 F17.00
G02 X7.04879 Y1.63810 I-0.34634 J-0.03984
G02 X6.97978 Y2.23799 I0.13867 J0.31986
G02 X7.46859 Y2.16414 I0.20768 J-0.28002
G00 Z0.19685

(No. 45 Part machining: Part 1)
G00 X7.76838 Y-0.21875 Z0.19685
G00 Z0.01969
G01 Z0.00000 F10.00
G01 X8.04312 Z-0.10000
G01 X7.76838 Z-0.20000
G01 X8.88746 F17.00
G03 X9.10621 Y0.00000 I0.00000 J0.21875
G01 Y0.54557
G00 Z0.00000
G01 Y1.18307
G01 Y1.45781 Z-0.10000 F10.00
G01 Y1.18307 Z-0.20000
G01 Y2.00000 F17.00
G03 X9.04655 Y2.15014 I-0.21875 J0.00000
G01 X7.15909 Y4.15014
G03 X7.11963 Y4.18314 I-0.15909 J-0.15014
G03 X4.83930 Y5.20789 I-4.25939 J-6.42868
G00 Z0.00000
G03 X4.21714 Y5.34606 I-1.94844 J-7.30373
G03 X3.94590 Y5.38970 Z-0.10000 I-1.36031 J-7.59037 F10.00
G02 X4.21714 Y5.34606 Z-0.20000 I-1.08907 J-7.63401
G03 X0.79566 Y5.18642 I-1.36031 J-7.59037 F17.00
G03 X0.63012 Y5.13023 I0.51968 J-1.80278
G03 X0.50125 Y4.93080 I0.08988 J-0.19943
G01 Y3.89352
G00 Z0.00000
G01 Y3.25602
G01 Y2.98127 Z-0.10000 F10.00
G01 Y3.25602 Z-0.20000
G01 Y2.21875 F17.00
G01 X0.12777
G00 Z0.00000
G01 X0.00000
G03 X-0.21875 Y2.00000 I0.00000 J-0.21875
G01 Y1.83379
G01 Y1.55905 Z-0.10000 F10.00
G01 Y1.83379 Z-0.20000
G01 Y1.21907 F17.00
G00 Z0.00000
G01 Y0.58157
G01 Y0.30682 Z-0.10000 F10.00
G01 Y0.58157 Z-0.20000
G01 Y0.00000 F17.00
G03 X0.00000 Y-0.21875 I0.21875 J0.00000
G01 X7.13088
G00 Z0.00000
G01 X7.76838
G00 Z0.19685
G00 X0.00000 Y0.00000


M05
M30
