(Project 4213 slapdown intake gearbox inside)
(Created with Estlcam 13.002)
(Machining time about 00:08:01 hours)

(Required tools:)
(Example tool)
(New tool)

G90
M06 T1
G43
M03 S24000
G00 Z0.19685
(No. 1 Drill machining: Drill 30)
G00 X7.68469 Y3.39170 Z0.19685
G00 Z0.01969
G01 Z-0.20000 F10.00 S4000
G00 Z0.19685

(No. 2 Drill machining: Drill 29)
G00 X6.80969 Y3.39170 Z0.19685
G00 Z0.01969
G01 Z-0.20000 F10.00
G00 Z0.19685

(No. 3 Drill machining: Drill 28)
G00 X6.37219 Y4.14947 Z0.19685
G00 Z0.01969
G01 Z-0.20000 F10.00
G00 Z0.19685

(No. 4 Drill machining: Drill 27)
G00 X6.14913 Y4.44044 Z0.19685
G00 Z0.01969
G01 Z-0.20000 F10.00
G00 Z0.19685

(No. 5 Drill machining: Drill 26)
G00 X5.67568 Y4.54085 Z0.19685
G00 Z0.01969
G01 Z-0.20000 F10.00
G00 Z0.19685

(No. 6 Drill machining: Drill 25)
G00 X5.67568 Y4.84085 Z0.19685
G00 Z0.01969
G01 Z-0.20000 F10.00
G00 Z0.19685

(No. 7 Drill machining: Drill 20)
G00 X3.22096 Y4.38032 Z0.19685
G00 Z0.01969
G01 Z-0.20000 F10.00
G00 Z0.19685

(No. 8 Drill machining: Drill 21)
G00 X3.14637 Y3.95428 Z0.19685
G00 Z0.01969
G01 Z-0.20000 F10.00
G00 Z0.19685

(No. 9 Drill machining: Drill 19)
G00 X2.62919 Y3.97589 Z0.19685
G00 Z0.01969
G01 Z-0.20000 F10.00
G00 Z0.19685

(No. 10 Drill machining: Drill 18)
G00 X2.17049 Y3.73601 Z0.19685
G00 Z0.01969
G01 Z-0.20000 F10.00
G00 Z0.19685

(No. 11 Drill machining: Drill 22)
G00 X3.58347 Y3.67697 Z0.19685
G00 Z0.01969
G01 Z-0.20000 F10.00
G00 Z0.19685

(No. 12 Drill machining: Drill 23)
G00 X3.82335 Y3.21827 Z0.19685
G00 Z0.01969
G01 Z-0.20000 F10.00
G00 Z0.19685

(No. 13 Drill machining: Drill 24)
G00 X4.64827 Y2.67697 Z0.19685
G00 Z0.01969
G01 Z-0.20000 F10.00
G00 Z0.19685

(No. 14 Drill machining: Drill 16)
G00 X2.88746 Y1.75000 Z0.19685
G00 Z0.01969
G01 Z-0.20000 F10.00
G00 Z0.19685

(No. 15 Drill machining: Drill 13)
G00 X2.38746 Y1.75000 Z0.19685
G00 Z0.01969
G01 Z-0.20000 F10.00
G00 Z0.19685

(No. 16 Drill machining: Drill 12)
G00 X2.38746 Y1.00000 Z0.19685
G00 Z0.01969
G01 Z-0.20000 F10.00
G00 Z0.19685

(No. 17 Drill machining: Drill 9)
G00 X1.88746 Y1.00000 Z0.19685
G00 Z0.01969
G01 Z-0.20000 F10.00
G00 Z0.19685

(No. 18 Drill machining: Drill 8)
G00 X1.38746 Y1.00000 Z0.19685
G00 Z0.01969
G01 Z-0.20000 F10.00
G00 Z0.19685

(No. 19 Drill machining: Drill 5)
G00 X0.88746 Y1.00000 Z0.19685
G00 Z0.01969
G01 Z-0.20000 F10.00
G00 Z0.19685

(No. 20 Drill machining: Drill 2)
G00 X0.38746 Y1.00000 Z0.19685
G00 Z0.01969
G01 Z-0.20000 F10.00
G00 Z0.19685

(No. 21 Drill machining: Drill 1)
G00 X0.38746 Y0.25000 Z0.19685
G00 Z0.01969
G01 Z-0.20000 F10.00
G00 Z0.19685

(No. 22 Drill machining: Drill 6)
G00 X0.88746 Y0.25000 Z0.19685
G00 Z0.01969
G01 Z-0.20000 F10.00
G00 Z0.19685

(No. 23 Drill machining: Drill 7)
G00 X1.38746 Y0.25000 Z0.19685
G00 Z0.01969
G01 Z-0.20000 F10.00
G00 Z0.19685

(No. 24 Drill machining: Drill 10)
G00 X1.88746 Y0.25000 Z0.19685
G00 Z0.01969
G01 Z-0.20000 F10.00
G00 Z0.19685

(No. 25 Drill machining: Drill 11)
G00 X2.38746 Y0.25000 Z0.19685
G00 Z0.01969
G01 Z-0.20000 F10.00
G00 Z0.19685

(No. 26 Drill machining: Drill 15)
G00 X2.88746 Y0.25000 Z0.19685
G00 Z0.01969
G01 Z-0.20000 F10.00
G00 Z0.19685

(No. 27 Drill machining: Drill 14)
G00 X2.88746 Y1.00000 Z0.19685
G00 Z0.01969
G01 Z-0.20000 F10.00
G00 Z0.19685

(No. 28 Drill machining: Drill 4)
G00 X0.88746 Y1.75000 Z0.19685
G00 Z0.01969
G01 Z-0.20000 F10.00
G00 Z0.19685

(No. 29 Drill machining: Drill 3)
G00 X0.38746 Y1.75000 Z0.19685
G00 Z0.01969
G01 Z-0.20000 F10.00
G00 Z0.19685

(No. 30 Drill machining: Drill 17)
G00 X1.04665 Y2.67697 Z0.19685
G00 Z0.01969
G01 Z-0.20000 F10.00
G00 Z0.19685

(No. 31 Hole machining: Hole 1)
M05
M06 T2 (3/8 Mill)
G43
M03 S24000
G00 X1.46588 Y2.21628 Z0.19685
G00 Z0.01969
G01 Z0.00000 F10.00
G02 X1.95957 Y2.19070 Z-0.20000 I0.23412 J-0.25832
G02 X2.04077 Y2.03156 I-0.25957 J-0.23273 F17.00
G02 X1.59335 Y1.62605 I-0.34077 J-0.07360
G02 X1.46588 Y2.21628 I0.10665 J0.33192
G02 X1.95957 Y2.19070 I0.23412 J-0.25832
G00 Z0.19685

(No. 32 Hole machining: Hole 2)
G00 X2.58910 Y2.76584 Z0.19685
G00 Z0.01969
G01 Z0.00000 F10.00
G02 X2.61462 Y3.25955 Z-0.20000 I0.25836 J0.23416
G02 X3.11700 Y3.22120 I0.23284 J-0.25955 F17.00
G02 X2.58910 Y2.76584 I-0.26954 J-0.22120
G02 X2.61462 Y3.25955 I0.25836 J0.23416
G00 Z0.19685

(No. 33 Hole machining: Hole 3)
G00 X4.18826 Y3.70244 Z0.19685
G00 Z0.01969
G01 Z0.00000 F10.00
G02 X4.44419 Y4.12358 Z-0.20000 I0.33271 J0.08614
G02 X4.61272 Y4.11979 I0.07677 J-0.33499 F17.00
G02 X4.76193 Y3.54352 I-0.09175 J-0.33121
G02 X4.18826 Y3.70244 I-0.24096 J0.24506
G02 X4.44419 Y4.12358 I0.33271 J0.08614
G00 Z0.19685

(No. 34 Hole machining: Hole 4)
G00 X6.89850 Y4.14947 Z0.19685
G00 Z0.01969
G01 Z0.00000 F10.00
G02 X7.24897 Y4.49815 Z-0.20000 I0.34868 J0.00000
G02 X7.42153 Y4.45144 I-0.00178 J-0.34868 F17.00
G02 Y3.84750 I-0.17434 J-0.30197
G02 X6.89850 Y4.14947 I-0.17434 J0.30197
G02 X7.24897 Y4.49815 I0.34868 J0.00000
G00 Z0.19685

(No. 35 Part machining: Part 1)
G00 X7.40025 Y5.34431 Z0.19685
G00 Z0.01969
G01 Z0.00000 F10.00
G03 X6.85647 Y5.42257 Z-0.20000 I-1.37016 J-7.59294
G03 X1.75725 Y4.17578 I-0.82639 J-7.67119 F17.00
G03 X1.72837 Y4.15014 I0.13021 J-0.17578
G01 X-0.15909 Y2.15014
G03 X-0.21875 Y2.00000 I0.15909 J-0.15014
G01 Y0.00000
G03 X0.00000 Y-0.21875 I0.21875 J0.00000
G01 X3.00000
G03 X3.21875 Y0.00000 I0.00000 J0.21875
G01 Y1.78091
G01 X3.21909 Y1.78125
G01 X3.76246
G03 X4.10621 Y2.12500 I0.00000 J0.34375
G01 Y2.28091
G01 X4.10655 Y2.28125
G01 X5.76246
G03 X6.10534 Y2.60201 I-0.00017 J0.34383
G01 X6.10537 Y2.60206
G01 X7.14712
G01 X7.31501 Y2.58070
G01 X7.49683 Y2.55782
G03 X7.86238 Y2.51262 I4.52705 J35.10979
G03 X8.38621 Y2.97812 I0.05505 J0.46554
G01 Y4.74838
G03 X8.03642 Y5.20178 I-0.46875 J0.00000
G03 X7.40025 Y5.34431 I-1.97728 J-7.33421
G03 X6.85647 Y5.42257 I-1.37016 J-7.59294
G00 Z0.19685
G00 X0.00000 Y0.00000


M05
M30
