%
(HEDC-P001)
(T1 D=0.1875 CR=0. - ZMIN=-1.185 - FLAT END MILL)
N10 G90 G94 G17 G91.1
N15 G20
(WHEN USING FUSION FOR PERSONAL USE, THE FEEDRATE OF RAPID)
(MOVES IS REDUCED TO MATCH THE FEEDRATE OF CUTTING MOVES,)
(WHICH CAN INCREASE MACHINING TIME. UNRESTRICTED RAPID MOVES)
(ARE AVAILABLE WITH A FUSION SUBSCRIPTION.)
N20 G53 G0 Z0.
(FACE1)
N25 T1 M6
N30 S5000 M3
N35 G17 G90 G94
N40 G54
N45 G64 P0.0004 Q0.0004
N50 M8
N55 G0 X6.4219 Y-2.4077
N60 G43 Z0.6 H1
N65 G1 Z0.2 F30.
N70 Z0.0187 F20.
N75 G18 G3 X6.4031 Z0. I-0.0188 K0. F30.
N80 G1 X6.3941
N85 X-0.0942
N90 G17 G2 Y-2.279 I0. J0.0644
N95 G1 X6.3941
N100 G3 Y-2.1502 I0. J0.0644
N105 G1 X-0.0942
N110 G2 Y-2.0215 I0. J0.0644
N115 G1 X6.3941
N120 G3 Y-1.8927 I0. J0.0644
N125 G1 X-0.0942
N130 G2 Y-1.764 I0. J0.0644
N135 G1 X6.3941
N140 G3 Y-1.6353 I0. J0.0644
N145 G1 X-0.0942
N150 G2 Y-1.5065 I0. J0.0644
N155 G1 X6.3941
N160 G3 Y-1.3778 I0. J0.0644
N165 G1 X-0.0942
N170 G2 Y-1.249 I0. J0.0644
N175 G1 X6.3941
N180 G3 Y-1.1203 I0. J0.0644
N185 G1 X-0.0942
N190 G2 Y-0.9916 I0. J0.0644
N195 G1 X6.3941
N200 G3 Y-0.8628 I0. J0.0644
N205 G1 X-0.0942
N210 G2 Y-0.7341 I0. J0.0644
N215 G1 X6.3941
N220 G3 Y-0.6053 I0. J0.0644
N225 G1 X-0.0942
N230 G2 Y-0.4766 I0. J0.0644
N235 G1 X6.3941
N240 G3 Y-0.3479 I0. J0.0644
N245 G1 X-0.0942
N250 G2 Y-0.2191 I0. J0.0644
N255 G1 X6.3941
N260 G3 Y-0.0904 I0. J0.0644
N265 G1 X-0.0942
N270 G18 G3 X-0.1129 Z0.0187 I0. K0.0187
N275 G1 Z0.6
N280 G17
(WHEN USING FUSION FOR PERSONAL USE, THE FEEDRATE OF RAPID)
(MOVES IS REDUCED TO MATCH THE FEEDRATE OF CUTTING MOVES,)
(WHICH CAN INCREASE MACHINING TIME. UNRESTRICTED RAPID MOVES)
(ARE AVAILABLE WITH A FUSION SUBSCRIPTION.)
(ADAPTIVE1)
N285 G64 P0.004 Q0.004
N290 G0 X6.4749 Y-1.0061
N295 G1 Z0.6 F30.
N300 Z0.2
N305 Z-0.2125
N310 Z-0.2312
N315 X6.4747 Y-1.0063 Z-0.2345
N320 X6.4741 Y-1.0069 Z-0.2377
N325 X6.4731 Y-1.0078 Z-0.2406
N330 X6.4717 Y-1.0091 Z-0.2433
N335 X6.47 Y-1.0107 Z-0.2456
N340 X6.468 Y-1.0125 Z-0.2475
N345 X6.4659 Y-1.0145 Z-0.2489
N350 X6.4635 Y-1.0166 Z-0.2497
N355 X6.4611 Y-1.0188 Z-0.25
N360 G3 X6.3934 Y-1.0966 I0.325 J-0.3515
N365 G1 X6.3921 Y-1.0987
N370 X6.3902 Y-1.1012
N375 X6.385 Y-1.1074
N380 X6.3842 Y-1.1083
N385 X6.3779 Y-1.1147
N390 X6.3771 Y-1.1154
N395 X6.3728 Y-1.1196
N400 X6.3679 Y-1.1254
N405 X6.3625 Y-1.1329
N410 X6.3568 Y-1.1425
N415 X6.3507 Y-1.1549
N420 X6.3442 Y-1.1711
N425 X6.3375 Y-1.193
N430 X6.3307 Y-1.2235
N435 X6.3263 Y-1.2545
N440 X6.3251 Y-1.2676
N445 X6.3254 Y-1.2779
N450 X6.3282 Y-1.2879
N455 X6.3334 Y-1.2968
N460 X6.3406 Y-1.3043
N465 X6.3494 Y-1.3097
N470 G3 X6.3746 Y-1.3015 Z-0.242 I0.0085 J0.0167
N475 G1 X6.3757 Y-1.299
N480 X6.3763 Y-1.2965
N485 X6.4074 Y-1.1335
N490 G3 X6.4035 Y-1.1181 I-0.0184 J0.0035
N495 X6.3771 Y-1.1154 Z-0.25 I-0.0145 J-0.0119
N500 G1 X6.3708 Y-1.121
N505 X6.3688 Y-1.1225
N510 X6.3636 Y-1.126
N515 X6.3565 Y-1.1304
N520 X6.3494 Y-1.1343
N525 X6.3423 Y-1.1376
N530 X6.3411 Y-1.138
N535 X6.3356 Y-1.1402
N540 X6.3304 Y-1.1432
N545 X6.3247 Y-1.1471
N550 X6.3184 Y-1.1524
N555 X6.312 Y-1.1585
N560 X6.3053 Y-1.1661
N565 X6.298 Y-1.1759
N570 X6.2908 Y-1.1873
N575 X6.2847 Y-1.199
N580 X6.2795 Y-1.2111
N585 X6.2761 Y-1.2215
N590 X6.2734 Y-1.2325
N595 X6.2718 Y-1.2424
N600 X6.271 Y-1.252
N605 Y-1.2554
N610 X6.2724 Y-1.2664
N615 X6.2765 Y-1.2766
N620 X6.2831 Y-1.2855
N625 X6.2916 Y-1.2925
N630 X6.3017 Y-1.2971
N635 X6.3125 Y-1.2991
N640 G3 X6.3309 Y-1.2852 Z-0.2433 I0.0003 J0.0187
N645 G1 X6.3322 Y-1.2807 Z-0.242
N650 X6.3323 Y-1.2803
N655 X6.3648 Y-1.1608
N660 G3 X6.3646 Y-1.1503 I-0.0181 J0.0049
N665 X6.3411 Y-1.138 Z-0.25 I-0.0179 J-0.0056
N670 G1 X6.3352 Y-1.14
N675 X6.3281 Y-1.142
N680 X6.3196 Y-1.1438
N685 X6.3139 Y-1.1449
N690 X6.3068 Y-1.1452
N695 X6.3008 Y-1.1457
N700 X6.2949 Y-1.1469
N705 X6.2892 Y-1.1486
N710 X6.2834 Y-1.151
N715 X6.2775 Y-1.1539
N720 X6.2712 Y-1.1577
N725 X6.2651 Y-1.1622
N730 X6.2587 Y-1.1676
N735 X6.2524 Y-1.1739
N740 X6.2465 Y-1.1809
N745 X6.2409 Y-1.1887
N750 X6.2362 Y-1.1964
N755 X6.2319 Y-1.205
N760 X6.2286 Y-1.2133
N765 X6.2261 Y-1.2212
N770 X6.2241 Y-1.23
N775 X6.2229 Y-1.2382
N780 X6.2225 Y-1.246
N785 X6.2226 Y-1.2546
N790 X6.223 Y-1.2588
N795 X6.2254 Y-1.2693
N800 X6.2302 Y-1.2788
N805 X6.2372 Y-1.2869
N810 X6.246 Y-1.2931
N815 X6.256 Y-1.2969
N820 X6.2666 Y-1.2983
N825 X6.2854
N830 X6.2925
N835 X6.3068 Y-1.2988
N840 X6.3125 Y-1.2991
N845 G3 X6.3316 Y-1.2806 Z-0.242 I0.0003 J0.0187
N850 G1 Y-1.2793
N855 X6.3255 Y-1.1645
N860 Y-1.164
N865 X6.3254 Y-1.163 Z-0.2423
N870 G3 X6.3068 Y-1.1452 Z-0.25 I-0.0187 J-0.001
N875 G1 X6.2925 Y-1.1457
N880 X6.2854
N885 X6.2602
N890 X6.2542 Y-1.1461
N895 X6.2483 Y-1.1469
N900 X6.2424 Y-1.1483
N905 X6.2368 Y-1.1502
N910 X6.2309 Y-1.1528
N915 X6.2251 Y-1.1559
N920 X6.219 Y-1.1598
N925 X6.213 Y-1.1644
N930 X6.2071 Y-1.1697
N935 X6.2014 Y-1.1757
N940 X6.1959 Y-1.1825
N945 X6.1908 Y-1.1901
N950 X6.1863 Y-1.198
N955 X6.1826 Y-1.2059
N960 X6.1793 Y-1.2148
N965 X6.177 Y-1.223
N970 X6.1753 Y-1.2312
N975 X6.1743 Y-1.2399
N980 X6.174 Y-1.2477
N985 X6.1744 Y-1.2559
N990 X6.1749 Y-1.26
N995 X6.1775 Y-1.2702
N1000 X6.1824 Y-1.2795
N1005 X6.1894 Y-1.2873
N1010 X6.1981 Y-1.2933
N1015 X6.2079 Y-1.297
N1020 X6.2183 Y-1.2983
N1025 X6.2666
N1030 G3 X6.2847 Y-1.2789 Z-0.242 I-0.0007 J0.0187
N1035 G1 X6.2846 Y-1.2785
N1040 X6.2784 Y-1.1655
N1045 Y-1.1651
N1050 X6.2783 Y-1.1634 Z-0.2425
N1055 G3 X6.2602 Y-1.1457 Z-0.25 I-0.0187 J-0.001
N1060 G1 X6.2104
N1065 X6.2044 Y-1.1461
N1070 X6.1985 Y-1.1469
N1075 X6.1927 Y-1.1484
N1080 X6.187 Y-1.1504
N1085 X6.1814 Y-1.153
N1090 X6.1755 Y-1.1562
N1095 X6.1695 Y-1.1602
N1100 X6.1636 Y-1.1648
N1105 X6.1578 Y-1.1701
N1110 X6.1521 Y-1.1763
N1115 X6.1467 Y-1.1831
N1120 X6.1417 Y-1.1906
N1125 X6.1373 Y-1.1987
N1130 X6.1337 Y-1.2066
N1135 X6.1305 Y-1.2156
N1140 X6.1282 Y-1.2239
N1145 X6.1267 Y-1.232
N1150 X6.1258 Y-1.2408
N1155 X6.1256 Y-1.2487
N1160 X6.1261 Y-1.2569
N1165 X6.1266 Y-1.2605
N1170 X6.1292 Y-1.2706
N1175 X6.1342 Y-1.2797
N1180 X6.1412 Y-1.2875
N1185 X6.1498 Y-1.2933
N1190 X6.1596 Y-1.297
N1195 X6.1699 Y-1.2983
N1200 X6.2183
N1205 G3 X6.2364 Y-1.2789 Z-0.242 I-0.0007 J0.0187
N1210 G1 Y-1.2782
N1215 X6.2286 Y-1.1655
N1220 Y-1.1651
N1225 X6.2285 Y-1.1632 Z-0.2425
N1230 G3 X6.2104 Y-1.1457 Z-0.25 I-0.0187 J-0.0013
N1235 G1 X6.1607
N1240 X6.1547 Y-1.1461
N1245 X6.1488 Y-1.1471
N1250 X6.143 Y-1.1487
N1255 X6.1374 Y-1.1508
N1260 X6.1317 Y-1.1534
N1265 X6.1258 Y-1.1568
N1270 X6.1198 Y-1.1609
N1275 X6.1139 Y-1.1657
N1280 X6.1082 Y-1.1711
N1285 X6.1025 Y-1.1774
N1290 X6.0972 Y-1.1844
N1295 X6.0923 Y-1.1921
N1300 X6.088 Y-1.2002
N1305 X6.0845 Y-1.2082
N1310 X6.0815 Y-1.2172
N1315 X6.0794 Y-1.2255
N1320 X6.078 Y-1.2337
N1325 X6.0772 Y-1.2424
N1330 Y-1.2503
N1335 X6.0778 Y-1.2585
N1340 X6.0781 Y-1.2607
N1345 X6.0811 Y-1.2714
N1350 X6.0867 Y-1.281
N1355 X6.0944 Y-1.289
N1360 X6.1038 Y-1.295
N1365 X6.1144 Y-1.2984
N1370 X6.1255 Y-1.2992
N1375 X6.129 Y-1.299
N1380 X6.1432 Y-1.2985
N1385 X6.1504 Y-1.2983
N1390 X6.1699
N1395 G3 X6.188 Y-1.2789 Z-0.242 I-0.0007 J0.0187
N1400 G1 X6.1879 Y-1.278
N1405 X6.1789 Y-1.1655
N1410 Y-1.1651
N1415 X6.1787 Y-1.163 Z-0.2426
N1420 G3 X6.1607 Y-1.1457 Z-0.25 I-0.0187 J-0.0015
N1425 G1 X6.1504
N1430 X6.1432 Y-1.1455
N1435 X6.129 Y-1.145
N1440 X6.1255 Y-1.1448
N1445 X6.1219 Y-1.1442
N1450 X6.116 Y-1.1431
N1455 X6.11 Y-1.1432
N1460 X6.1041 Y-1.144
N1465 X6.0982 Y-1.1454
N1470 X6.0925 Y-1.1473
N1475 X6.0866 Y-1.1498
N1480 X6.0807 Y-1.1529
N1485 X6.0747 Y-1.1567
N1490 X6.0685 Y-1.1613
N1495 X6.0625 Y-1.1666
N1500 X6.0568 Y-1.1726
N1505 X6.0512 Y-1.1794
N1510 X6.046 Y-1.1869
N1515 X6.0412 Y-1.1951
N1520 X6.0372 Y-1.2034
N1525 X6.0341 Y-1.2117
N1530 X6.0314 Y-1.2208
N1535 X6.0297 Y-1.2291
N1540 X6.0286 Y-1.2377
N1545 X6.0283 Y-1.2464
N1550 X6.0285 Y-1.2542
N1555 X6.0295 Y-1.2626
N1560 X6.0311 Y-1.2707
N1565 X6.0332 Y-1.2779
N1570 X6.0361 Y-1.2857
N1575 X6.0366 Y-1.2867
N1580 X6.0428 Y-1.2964
N1585 X6.0513 Y-1.3041
N1590 X6.0615 Y-1.3093
N1595 X6.0727 Y-1.3117
N1600 X6.0842 Y-1.3111
N1605 X6.0951 Y-1.3076
N1610 G3 X6.1046 Y-1.2953 Z-0.2456 I-0.0087 J0.0166
N1615 G1 X6.1078 Y-1.2823 Z-0.242
N1620 Y-1.2819
N1625 X6.1351 Y-1.1675
N1630 X6.1352 Y-1.1671
N1635 X6.1353 Y-1.1666 Z-0.2421
N1640 G3 X6.1219 Y-1.1442 Z-0.25 I-0.0182 J0.0043
N1645 G1 X6.1077 Y-1.1409
N1650 X6.1006 Y-1.1385
N1655 X6.0957 Y-1.1367
N1660 X6.0935 Y-1.1357
N1665 X6.0879 Y-1.1333
N1670 X6.0821 Y-1.132
N1675 X6.0761 Y-1.1314
N1680 X6.0701
N1685 X6.0642 Y-1.132
N1690 X6.0583 Y-1.1332
N1695 X6.0521 Y-1.1349
N1700 X6.0458 Y-1.1373
N1705 X6.0391 Y-1.1404
N1710 X6.0323 Y-1.1442
N1715 X6.0257 Y-1.1487
N1720 X6.0189 Y-1.1541
N1725 X6.0123 Y-1.1604
N1730 X6.006 Y-1.1673
N1735 X6.0002 Y-1.175
N1740 X5.9948 Y-1.1834
N1745 X5.9899 Y-1.1924
N1750 X5.9857 Y-1.2021
N1755 X5.9821 Y-1.2124
N1760 X5.9794 Y-1.223
N1765 X5.9775 Y-1.234
N1770 X5.9765 Y-1.2443
N1775 X5.9764 Y-1.2544
N1780 X5.9771 Y-1.2646
N1785 X5.9785 Y-1.2733
N1790 X5.9806 Y-1.2825
N1795 X5.9834 Y-1.2912
N1800 X5.9865 Y-1.2987
N1805 X5.9905 Y-1.3066
N1810 X5.9949 Y-1.3138
N1815 X5.9994 Y-1.3199
N1820 X6.005 Y-1.3263
N1825 X6.0059 Y-1.3273
N1830 X6.0146 Y-1.3338
N1835 X6.0248 Y-1.3379
N1840 X6.0356 Y-1.3393
N1845 X6.0464 Y-1.3377
N1850 X6.0565 Y-1.3334
N1855 X6.065 Y-1.3266
N1860 X6.0721 Y-1.3208
N1865 X6.0793 Y-1.3162
N1870 X6.0844 Y-1.3129
N1875 X6.0864 Y-1.3117
N1880 X6.0951 Y-1.3076
N1885 G3 X6.1052 Y-1.2907 Z-0.2444 I-0.0087 J0.0166
N1890 G1 X6.1051 Y-1.2819 Z-0.242
N1895 X6.105 Y-1.2815
N1900 X6.1036 Y-1.1617
N1905 Y-1.1613
N1910 X6.1035 Y-1.1521 Z-0.2445
N1915 G3 X6.0935 Y-1.1357 Z-0.25 I-0.0187 J-0.0002
N1920 G1 X6.0864 Y-1.1323
N1925 X6.0821 Y-1.1296
N1930 X6.0793 Y-1.1278
N1935 X6.0721 Y-1.1232
N1940 X6.0694 Y-1.121
N1945 X6.0646 Y-1.1174
N1950 X6.0592 Y-1.1148
N1955 X6.0535 Y-1.1129
N1960 X6.0476 Y-1.1116
N1965 X6.0417 Y-1.1109
N1970 X6.0357 Y-1.1108
N1975 X6.0294 Y-1.1111
N1980 X6.0228 Y-1.112
N1985 X6.0156 Y-1.1136
N1990 X6.0083 Y-1.1159
N1995 X6.0007 Y-1.1189
N2000 X5.9928 Y-1.1228
N2005 X5.9849 Y-1.1276
N2010 X5.9771 Y-1.1332
N2015 X5.9692 Y-1.1398
N2020 X5.9614 Y-1.1475
N2025 X5.9541 Y-1.1561
N2030 X5.9472 Y-1.1655
N2035 X5.9409 Y-1.1758
N2040 X5.9353 Y-1.187
N2045 X5.9304 Y-1.1988
N2050 X5.9265 Y-1.2111
N2055 X5.9236 Y-1.2238
N2060 X5.9217 Y-1.2368
N2065 X5.9208 Y-1.2499
N2070 X5.921 Y-1.263
N2075 X5.9222 Y-1.276
N2080 X5.9245 Y-1.2887
N2085 X5.9277 Y-1.3012
N2090 X5.9314 Y-1.312
N2095 X5.9362 Y-1.3226
N2100 X5.9411 Y-1.3318
N2105 X5.9463 Y-1.3398
N2110 X5.9525 Y-1.3478
N2115 X5.9584 Y-1.3544
N2120 X5.9649 Y-1.3605
N2125 X5.972 Y-1.3661
N2130 X5.9787 Y-1.3706
N2135 X5.9818 Y-1.3724
N2140 X5.9923 Y-1.3766
N2145 X6.0035 Y-1.378
N2150 X6.0147 Y-1.3765
N2155 X6.0252 Y-1.3721
N2160 X6.0341 Y-1.3652
N2165 X6.0411 Y-1.3563
N2170 X6.0448 Y-1.3499
N2175 X6.0508 Y-1.3416
N2180 X6.0562 Y-1.3357
N2185 X6.065 Y-1.3266
N2190 G3 X6.0699 Y-1.3146 Z-0.2464 I-0.0139 J0.0126
N2195 G1 X6.0704 Y-1.2984 Z-0.242
N2200 Y-1.298
N2205 X6.0753 Y-1.149
N2210 Y-1.1486
N2215 X6.0757 Y-1.1357 Z-0.2455
N2220 G3 X6.0694 Y-1.121 Z-0.25 I-0.0187 J0.0006
N2225 G1 X6.065 Y-1.1174
N2230 X6.0562 Y-1.1083
N2235 X6.0508 Y-1.1024
N2240 X6.0499 Y-1.1012
N2245 X6.0462 Y-1.0965
N2250 X6.0415 Y-1.0928
N2255 X6.0363 Y-1.0897
N2260 X6.0309 Y-1.0872
N2265 X6.0252 Y-1.0852
N2270 X6.0194 Y-1.0837
N2275 X6.0132 Y-1.0827
N2280 X6.0065 Y-1.0822
N2285 X5.999 Y-1.0821
N2290 X5.9914 Y-1.0827
N2295 X5.9831 Y-1.0841
N2300 X5.9742 Y-1.0862
N2305 X5.9654 Y-1.0891
N2310 X5.9561 Y-1.0931
N2315 X5.9464 Y-1.0981
N2320 X5.9369 Y-1.104
N2325 X5.9274 Y-1.1111
N2330 X5.9179 Y-1.1194
N2335 X5.9086 Y-1.129
N2340 X5.8999 Y-1.1396
N2345 X5.8918 Y-1.1512
N2350 X5.8843 Y-1.1639
N2355 X5.8777 Y-1.1777
N2360 X5.872 Y-1.1924
N2365 X5.8675 Y-1.2079
N2370 X5.8641 Y-1.2239
N2375 X5.862 Y-1.2404
N2380 X5.8612 Y-1.257
N2385 X5.8617 Y-1.2735
N2390 X5.8636 Y-1.2897
N2395 X5.8667 Y-1.3054
N2400 X5.8709 Y-1.3206
N2405 X5.8763 Y-1.335
N2410 X5.8826 Y-1.3487
N2415 X5.8899 Y-1.3616
N2420 X5.8978 Y-1.3732
N2425 X5.9057 Y-1.383
N2430 X5.9144 Y-1.3922
N2435 X5.9222 Y-1.3992
N2440 X5.931 Y-1.406
N2445 X5.9394 Y-1.4114
N2450 X5.9475 Y-1.4158
N2455 X5.9566 Y-1.4198
N2460 X5.9649 Y-1.4226
N2465 X5.9732 Y-1.4248
N2470 X5.978 Y-1.4256
N2475 X5.9891 Y-1.4261
N2480 X6. Y-1.4237
N2485 X6.0099 Y-1.4187
N2490 X6.0183 Y-1.4114
N2495 X6.0245 Y-1.4021
N2500 X6.0282 Y-1.3916
N2505 X6.0295 Y-1.3857
N2510 X6.0297 Y-1.384 Z-0.2495
N2515 X6.0321 Y-1.3563 Z-0.242
N2520 Y-1.3559
N2525 X6.0515 Y-1.1304
N2530 X6.0516 Y-1.13
N2535 X6.053 Y-1.1133 Z-0.2466
N2540 G3 X6.0499 Y-1.1012 Z-0.25 I-0.0187 J0.0016
N2545 G1 X6.0448 Y-1.0941
N2550 X6.0406 Y-1.087
N2555 X6.037 Y-1.0799
N2560 X6.0366 Y-1.079
N2565 X6.0339 Y-1.0736
N2570 X6.0304 Y-1.0688
N2575 X6.0262 Y-1.0645
N2580 X6.0216 Y-1.0607
N2585 X6.0166 Y-1.0574
N2590 X6.0113 Y-1.0545
N2595 X6.0057 Y-1.0521
N2600 X5.9992 Y-1.0498
N2605 X5.9923 Y-1.0481
N2610 X5.9846 Y-1.0467
N2615 X5.9762 Y-1.046
N2620 X5.9674 Y-1.0459
N2625 X5.9579 Y-1.0466
N2630 X5.9477 Y-1.0481
N2635 X5.9373 Y-1.0505
N2640 X5.9263 Y-1.0541
N2645 X5.9148 Y-1.0588
N2650 X5.9034 Y-1.0647
N2655 X5.8919 Y-1.0717
N2660 X5.8802 Y-1.0803
N2665 X5.8685 Y-1.0904
N2670 X5.8574 Y-1.1018
N2675 X5.8468 Y-1.1143
N2680 X5.8368 Y-1.1284
N2685 X5.8276 Y-1.144
N2690 X5.8193 Y-1.1609
N2695 X5.8122 Y-1.1789
N2700 X5.8064 Y-1.1978
N2705 X5.8022 Y-1.2174
N2710 X5.7994 Y-1.2375
N2715 X5.7983 Y-1.2578
N2720 X5.7989 Y-1.2783
N2725 X5.801 Y-1.2985
N2730 X5.8048 Y-1.3185
N2735 X5.8101 Y-1.3379
N2740 X5.8168 Y-1.3563
N2745 X5.8247 Y-1.3737
N2750 X5.8337 Y-1.3898
N2755 X5.8436 Y-1.4048
N2760 X5.8544 Y-1.4184
N2765 X5.8657 Y-1.4305
N2770 X5.8776 Y-1.4414
N2775 X5.8898 Y-1.4509
N2780 X5.9017 Y-1.4587
N2785 X5.9136 Y-1.4652
N2790 X5.9247 Y-1.4702
N2795 X5.9351 Y-1.4738
N2800 X5.9458 Y-1.4767
N2805 X5.9553 Y-1.4784
N2810 X5.9654 Y-1.4794
N2815 X5.9748 Y-1.4796
N2820 X5.9834 Y-1.4791
N2825 X5.9887 Y-1.4783
N2830 X5.9987 Y-1.4756
N2835 X6.0079 Y-1.4706
N2840 X6.0156 Y-1.4636
N2845 X6.0214 Y-1.455
N2850 X6.025 Y-1.4453
N2855 X6.0262 Y-1.435
N2860 Y-1.4281
N2865 X6.0263 Y-1.4209
N2870 X6.0267 Y-1.4056
N2875 X6.027 Y-1.3996
N2880 X6.028 Y-1.3925
N2885 X6.0282 Y-1.3916
N2890 X6.0285 Y-1.3889 Z-0.2493
N2895 X6.0293 Y-1.3622 Z-0.242
N2900 Y-1.3618
N2905 X6.0372 Y-1.1087
N2910 Y-1.1083
N2915 X6.0379 Y-1.0865 Z-0.2479
N2920 X6.0378 Y-1.084 Z-0.2486
N2925 X6.0374 Y-1.0814 Z-0.2493
N2930 X6.0366 Y-1.079 Z-0.25
N2935 X6.0339 Y-1.0728
N2940 X6.0315 Y-1.0657
N2945 X6.0295 Y-1.0583
N2950 X6.0283 Y-1.0529
N2955 X6.0268 Y-1.0471
N2960 X6.0244 Y-1.0416
N2965 X6.0212 Y-1.0364
N2970 X6.0176 Y-1.0317
N2975 X6.0134 Y-1.0273
N2980 X6.0089 Y-1.0234
N2985 X6.004 Y-1.0197
N2990 X5.9981 Y-1.016
N2995 X5.9916 Y-1.0126
N3000 X5.9845 Y-1.0096
N3005 X5.9763 Y-1.0069
N3010 X5.9675 Y-1.0048
N3015 X5.9581 Y-1.0033
N3020 X5.9475 Y-1.0025
N3025 X5.9366
N3030 X5.9249 Y-1.0035
N3035 X5.9124 Y-1.0056
N3040 X5.8993 Y-1.0088
N3045 X5.8861 Y-1.0132
N3050 X5.8723 Y-1.0192
N3055 X5.858 Y-1.0267
N3060 X5.8437 Y-1.0358
N3065 X5.8299 Y-1.0462
N3070 X5.8161 Y-1.0584
N3075 X5.8025 Y-1.0726
N3080 X5.7895 Y-1.0885
N3085 X5.7773 Y-1.1062
N3090 X5.7663 Y-1.1253
N3095 X5.7567 Y-1.1456
N3100 X5.7485 Y-1.1672
N3105 X5.7418 Y-1.1901
N3110 X5.737 Y-1.2139
N3115 X5.734 Y-1.2383
N3120 X5.7329 Y-1.2632
N3125 X5.7339 Y-1.2882
N3130 X5.7369 Y-1.313
N3135 X5.7418 Y-1.3373
N3140 X5.7486 Y-1.3609
N3145 X5.7571 Y-1.3835
N3150 X5.7672 Y-1.405
N3155 X5.7788 Y-1.4252
N3160 X5.7916 Y-1.4438
N3165 X5.8053 Y-1.4607
N3170 X5.8199 Y-1.4759
N3175 X5.8349 Y-1.4894
N3180 X5.8503 Y-1.501
N3185 X5.866 Y-1.5111
N3190 X5.8817 Y-1.5193
N3195 X5.8972 Y-1.526
N3200 X5.9125 Y-1.5312
N3205 X5.9268 Y-1.5348
N3210 X5.9409 Y-1.5372
N3215 X5.9528 Y-1.5382
N3220 X5.9646 Y-1.5383
N3225 X5.9753 Y-1.5375
N3230 X5.9853 Y-1.5359
N3235 X5.9952 Y-1.5335
N3240 X5.9961 Y-1.5332
N3245 X6.006 Y-1.5285
N3250 X6.0144 Y-1.5215
N3255 X6.0209 Y-1.5127
N3260 X6.0249 Y-1.5025
N3265 X6.0262 Y-1.4916
N3270 Y-1.435
N3275 Y-1.4349
N3280 G2 X6.0211 Y-1.406 Z-0.242 I0.9557 J0.1858
N3285 X6.0137 Y-1.3509 I0.9609 J0.1569
N3290 G1 X6.0136 Y-1.3489
N3295 X6.0147 Y-1.139
N3300 X6.0148 Y-1.1369
N3305 G2 X6.0228 Y-1.0818 I0.9671 J-0.1123
N3310 X6.0283 Y-1.053 Z-0.25 I0.9591 J-0.1674
N3315 G1 Y-1.0529
N3320 X6.028 Y-1.0515
N3325 X6.027 Y-1.0444
N3330 X6.0267 Y-1.0373
N3335 X6.0263 Y-1.0231
N3340 X6.026 Y-1.0171
N3345 X6.0245 Y-1.0112
N3350 X6.0223 Y-1.0057
N3355 X6.0195 Y-1.0003
N3360 X6.0163 Y-0.9953
N3365 X6.0125 Y-0.9904
N3370 X6.0081 Y-0.9855
N3375 X6.0029 Y-0.9807
N3380 X5.9968 Y-0.9758
N3385 X5.9901 Y-0.9713
N3390 X5.9824 Y-0.9669
N3395 X5.9736 Y-0.9629
N3400 X5.9643 Y-0.9595
N3405 X5.9538 Y-0.9566
N3410 X5.9422 Y-0.9543
N3415 X5.9302 Y-0.953
N3420 X5.917 Y-0.9526
N3425 X5.9027 Y-0.9533
N3430 X5.888 Y-0.9552
N3435 X5.8727 Y-0.9585
N3440 X5.8565 Y-0.9634
N3445 X5.8396 Y-0.9699
N3450 X5.8226 Y-0.9782
N3455 X5.8059 Y-0.9881
N3460 X5.7888 Y-1.
N3465 X5.7717 Y-1.0142
N3470 X5.755 Y-1.0305
N3475 X5.739 Y-1.0489
N3480 X5.7241 Y-1.069
N3485 X5.7106 Y-1.0907
N3490 X5.6985 Y-1.1142
N3495 X5.688 Y-1.1394
N3500 X5.6792 Y-1.1662
N3505 X5.6725 Y-1.1941
N3510 X5.668 Y-1.223
N3515 X5.6658 Y-1.2526
N3520 X5.666 Y-1.2823
N3525 X5.6686 Y-1.3121
N3530 X5.6735 Y-1.3414
N3535 X5.6807 Y-1.3701
N3540 X5.6901 Y-1.3979
N3545 X5.7016 Y-1.4244
N3550 X5.7149 Y-1.4495
N3555 X5.7299 Y-1.473
N3560 X5.7463 Y-1.4946
N3565 X5.7638 Y-1.5143
N3570 X5.7822 Y-1.5318
N3575 X5.8013 Y-1.5472
N3580 X5.8208 Y-1.5606
N3585 X5.8406 Y-1.5719
N3590 X5.8605 Y-1.5813
N3595 X5.88 Y-1.5886
N3600 X5.8991 Y-1.5941
N3605 X5.9172 Y-1.5978
N3610 X5.9347 Y-1.5999
N3615 X5.9492 Y-1.6004
N3620 X5.9635 Y-1.5998
N3625 X5.975 Y-1.5984
N3630 X5.9868 Y-1.596
N3635 X5.9968 Y-1.5931
N3640 X5.998 Y-1.5926
N3645 X6.0074 Y-1.5877
N3650 X6.0153 Y-1.5807
N3655 X6.0212 Y-1.572
N3660 X6.025 Y-1.5622
N3665 X6.0262 Y-1.5517
N3670 Y-1.4916
N3675 G3 X6.0235 Y-1.4818 Z-0.2472 I-0.0187 J0.
N3680 G2 X6.0207 Y-1.4723 Z-0.2445 I0.016 J0.0098
N3685 G1 X6.0206 Y-1.4632 Z-0.242
N3690 Y-1.4628
N3695 X6.0152 Y-1.0625
N3700 G2 X6.0178 Y-1.0528 I0.0187 J0.0003
N3705 G1 X6.0187 Y-1.0512
N3710 G3 X6.0263 Y-1.0231 Z-0.25 I-0.0547 J0.0299
N3715 G1 X6.0262 Y-1.0159
N3720 Y-0.9836
N3725 X6.0259 Y-0.9776
N3730 X6.0247 Y-0.9717
N3735 X6.0229 Y-0.966
N3740 X6.0206 Y-0.9605
N3745 X6.0177 Y-0.9552
N3750 X6.0141 Y-0.9494
N3755 X6.0098 Y-0.9438
N3760 X6.0046 Y-0.9379
N3765 X5.9984 Y-0.9321
N3770 X5.9915 Y-0.9265
N3775 X5.9834 Y-0.9209
N3780 X5.9744 Y-0.9157
N3785 X5.9643 Y-0.911
N3790 X5.9528 Y-0.9067
N3795 X5.9406 Y-0.9031
N3800 X5.9273 Y-0.9005
N3805 X5.9125 Y-0.8987
N3810 X5.8967 Y-0.8981
N3815 X5.8803 Y-0.8988
N3820 X5.8627 Y-0.9009
N3825 X5.8439 Y-0.9048
N3830 X5.8245 Y-0.9104
N3835 X5.8051 Y-0.9178
N3840 X5.7851 Y-0.9273
N3845 X5.7645 Y-0.9391
N3850 X5.7438 Y-0.9534
N3855 X5.7233 Y-0.9701
N3860 X5.7035 Y-0.9891
N3865 X5.6849 Y-1.0101
N3870 X5.6676 Y-1.0332
N3875 X5.6515 Y-1.0586
N3880 X5.6369 Y-1.0862
N3885 X5.6246 Y-1.1149
N3890 X5.6146 Y-1.1446
N3895 X5.6068 Y-1.1749
N3900 X5.6013 Y-1.2057
N3905 X5.598 Y-1.2368
N3910 X5.5969 Y-1.2681
N3915 X5.5981 Y-1.2994
N3920 X5.6016 Y-1.3305
N3925 X5.6074 Y-1.3612
N3930 X5.6153 Y-1.3915
N3935 X5.6255 Y-1.4211
N3940 X5.6377 Y-1.4499
N3945 X5.6521 Y-1.4777
N3950 X5.6684 Y-1.5044
N3955 X5.6868 Y-1.5297
N3960 X5.7071 Y-1.5535
N3965 X5.7288 Y-1.5752
N3970 X5.7516 Y-1.5946
N3975 X5.7752 Y-1.6117
N3980 X5.7994 Y-1.6263
N3985 X5.8237 Y-1.6385
N3990 X5.8476 Y-1.6481
N3995 X5.8707 Y-1.6554
N4000 X5.8931 Y-1.6605
N4005 X5.9145 Y-1.6635
N4010 X5.9347 Y-1.6648
N4015 X5.9512 Y-1.6645
N4020 X5.9665 Y-1.663
N4025 X5.9788 Y-1.6608
N4030 X5.991 Y-1.6575
N4035 X5.9971 Y-1.6554
N4040 X6.0067 Y-1.6506
N4045 X6.0148 Y-1.6436
N4050 X6.021 Y-1.6348
N4055 X6.0249 Y-1.6248
N4060 X6.0262 Y-1.6141
N4065 Y-1.5517
N4070 G3 X6.0054 Y-1.5337 I-0.0187 J-0.0007
N4075 G1 X6.0022 Y-1.5341 Z-0.2497
N4080 X5.999 Y-1.5345 Z-0.2489
N4085 X5.9961 Y-1.5348 Z-0.2475
N4090 X5.9934 Y-1.5351 Z-0.2456
N4095 X5.9911 Y-1.5354 Z-0.2433
N4100 X5.9893 Y-1.5356 Z-0.2406
N4105 X5.9879 Y-1.5357 Z-0.2377
N4110 X5.987 Y-1.5358 Z-0.2345
N4115 X5.9868 Y-1.5359 Z-0.2312
N4120 Z-0.2125
N4125 X6.008 Y-1.0294
N4130 Z-0.2312
N4135 X6.0081 Y-1.0292 Z-0.2345
N4140 X6.0085 Y-1.0284 Z-0.2377
N4145 X6.0092 Y-1.0272 Z-0.2406
N4150 X6.0102 Y-1.0256 Z-0.2433
N4155 X6.0114 Y-1.0236 Z-0.2456
N4160 X6.0127 Y-1.0213 Z-0.2475
N4165 X6.0143 Y-1.0188 Z-0.2489
N4170 X6.0159 Y-1.0161 Z-0.2497
N4175 X6.0175 Y-1.0133 Z-0.25
N4180 G3 X6.0262 Y-0.9836 I-0.0536 J0.0318
N4185 G1 Y-0.9378
N4190 X6.0259 Y-0.9318
N4195 X6.0248 Y-0.9259
N4200 X6.0232 Y-0.9201
N4205 X6.0209 Y-0.9143
N4210 X6.0181 Y-0.9084
N4215 X6.0144 Y-0.9021
N4220 X6.0098 Y-0.8956
N4225 X6.0045 Y-0.8891
N4230 X5.9979 Y-0.8824
N4235 X5.9906 Y-0.876
N4240 X5.9819 Y-0.8695
N4245 X5.972 Y-0.8633
N4250 X5.9611 Y-0.8577
N4255 X5.9486 Y-0.8524
N4260 X5.9348 Y-0.8479
N4265 X5.9201 Y-0.8443
N4270 X5.9036 Y-0.8417
N4275 X5.8855 Y-0.8403
N4280 X5.8668 Y-0.8404
N4285 X5.847 Y-0.8421
N4290 X5.8257 Y-0.8456
N4295 X5.8032 Y-0.8512
N4300 X5.7799 Y-0.8591
N4305 X5.7568 Y-0.869
N4310 X5.733 Y-0.8815
N4315 X5.7089 Y-0.8968
N4320 X5.6849 Y-0.9149
N4325 X5.6616 Y-0.9357
N4330 X5.6399 Y-0.9583
N4335 X5.6201 Y-0.9825
N4340 X5.6021 Y-1.0081
N4345 X5.586 Y-1.0349
N4350 X5.5719 Y-1.0628
N4355 X5.5597 Y-1.0917
N4360 X5.5495 Y-1.1212
N4365 X5.5412 Y-1.1514
N4370 X5.5348 Y-1.1821
N4375 X5.5304 Y-1.213
N4380 X5.5279 Y-1.2442
N4385 X5.5275 Y-1.2755
N4390 X5.529 Y-1.3068
N4395 X5.5325 Y-1.3379
N4400 X5.538 Y-1.3687
N4405 X5.5453 Y-1.3991
N4410 X5.5544 Y-1.429
N4415 X5.5654 Y-1.4583
N4420 X5.5784 Y-1.4868
N4425 X5.5931 Y-1.5144
N4430 X5.6096 Y-1.541
N4435 X5.6278 Y-1.5665
N4440 X5.6476 Y-1.5907
N4445 X5.669 Y-1.6136
N4450 X5.6919 Y-1.6349
N4455 X5.7163 Y-1.6545
N4460 X5.742 Y-1.6722
N4465 X5.769 Y-1.688
N4470 X5.7972 Y-1.7017
N4475 X5.8251 Y-1.7126
N4480 X5.8524 Y-1.7208
N4485 X5.8787 Y-1.7265
N4490 X5.9037 Y-1.7298
N4495 X5.9266 Y-1.731
N4500 X5.9462 Y-1.7304
N4505 X5.9635 Y-1.7285
N4510 X5.9769 Y-1.7259
N4515 X5.9899 Y-1.7223
N4520 X6.0008 Y-1.7183
N4525 X6.0093 Y-1.7131
N4530 X6.0164 Y-1.7062
N4535 X6.0218 Y-1.6978
N4540 X6.0251 Y-1.6884
N4545 X6.0262 Y-1.6785
N4550 Y-1.6141
N4555 G3 X6.0054 Y-1.5962 I-0.0187 J-0.0007
N4560 G1 X6.0022 Y-1.5965 Z-0.2497
N4565 X5.999 Y-1.5969 Z-0.2489
N4570 X5.9961 Y-1.5972 Z-0.2475
N4575 X5.9934 Y-1.5975 Z-0.2456
N4580 X5.9911 Y-1.5978 Z-0.2433
N4585 X5.9893 Y-1.598 Z-0.2406
N4590 X5.9879 Y-1.5981 Z-0.2377
N4595 X5.987 Y-1.5982 Z-0.2345
N4600 X5.9868 Y-1.5983 Z-0.2312
N4605 Z-0.2125
N4610 X6.008 Y-0.9836
N4615 Z-0.2312
N4620 X6.0081 Y-0.9833 Z-0.2345
N4625 X6.0085 Y-0.9826 Z-0.2377
N4630 X6.0092 Y-0.9814 Z-0.2406
N4635 X6.0102 Y-0.9798 Z-0.2433
N4640 X6.0114 Y-0.9778 Z-0.2456
N4645 X6.0127 Y-0.9755 Z-0.2475
N4650 X6.0143 Y-0.973 Z-0.2489
N4655 X6.0159 Y-0.9703 Z-0.2497
N4660 X6.0175 Y-0.9675 Z-0.25
N4665 G3 X6.0262 Y-0.9378 I-0.0536 J0.0318
N4670 G1 Y-0.888
N4675 X6.0259 Y-0.8821
N4680 X6.0249 Y-0.8761
N4685 X6.0234 Y-0.8703
N4690 X6.0212 Y-0.8641
N4695 X6.0184 Y-0.8578
N4700 X6.0146 Y-0.8509
N4705 X6.01 Y-0.8441
N4710 X6.0043 Y-0.8368
N4715 X5.9976 Y-0.8295
N4720 X5.9899 Y-0.8223
N4725 X5.9805 Y-0.815
N4730 X5.9703 Y-0.8082
N4735 X5.9582 Y-0.8015
N4740 X5.9446 Y-0.7953
N4745 X5.93 Y-0.7901
N4750 X5.9134 Y-0.7856
N4755 X5.8949 Y-0.7822
N4760 X5.8756 Y-0.7802
N4765 X5.8546 Y-0.7797
N4770 X5.8315 Y-0.781
N4775 X5.807 Y-0.7844
N4780 X5.7817 Y-0.79
N4785 X5.7562 Y-0.7979
N4790 X5.7293 Y-0.8085
N4795 X5.7016 Y-0.8222
N4800 X5.6748 Y-0.8383
N4805 X5.6492 Y-0.8563
N4810 X5.625 Y-0.8762
N4815 X5.6023 Y-0.8977
N4820 X5.5812 Y-0.9208
N4825 X5.5616 Y-0.9452
N4830 X5.5437 Y-0.9709
N4835 X5.5274 Y-0.9976
N4840 X5.5128 Y-1.0253
N4845 X5.4999 Y-1.0538
N4850 X5.4886 Y-1.083
N4855 X5.4791 Y-1.1128
N4860 X5.4713 Y-1.1431
N4865 X5.4652 Y-1.1738
N4870 X5.4609 Y-1.2048
N4875 X5.4583 Y-1.2359
N4880 X5.4574 Y-1.2672
N4885 X5.4583 Y-1.2985
N4890 X5.4608 Y-1.3297
N4895 X5.465 Y-1.3607
N4900 X5.471 Y-1.3914
N4905 X5.4787 Y-1.4217
N4910 X5.488 Y-1.4516
N4915 X5.499 Y-1.4809
N4920 X5.5116 Y-1.5096
N4925 X5.5258 Y-1.5375
N4930 X5.5415 Y-1.5645
N4935 X5.5587 Y-1.5907
N4940 X5.5774 Y-1.6158
N4945 X5.5975 Y-1.6397
N4950 X5.6191 Y-1.6624
N4955 X5.6419 Y-1.6838
N4960 X5.6661 Y-1.7037
N4965 X5.6913 Y-1.7221
N4970 X5.7059 Y-1.7314
N4975 X5.7133 Y-1.7352
N4980 X5.7212 Y-1.7375
N4985 X5.7294 Y-1.7383
N4990 X6.005 Y-1.7382
N4995 X6.0082
N5000 X6.0099 Y-1.738
N5005 X6.0117 Y-1.7377
N5010 X6.0135 Y-1.7371
N5015 X6.0153 Y-1.7364
N5020 X6.0174 Y-1.7352
N5025 X6.0194 Y-1.7336
N5030 X6.021 Y-1.732
N5035 X6.0224 Y-1.7305
N5040 X6.0237 Y-1.7285
N5045 X6.0247 Y-1.7265
N5050 X6.0254 Y-1.7247
N5055 X6.0258 Y-1.7229
N5060 X6.0261 Y-1.7212
N5065 X6.0262 Y-1.7194
N5070 Y-1.6785
N5075 G3 X6.0054 Y-1.6606 I-0.0187 J-0.0007
N5080 G1 X6.0022 Y-1.6609 Z-0.2497
N5085 X5.999 Y-1.6613 Z-0.2489
N5090 X5.9961 Y-1.6616 Z-0.2475
N5095 X5.9934 Y-1.6619 Z-0.2456
N5100 X5.9911 Y-1.6622 Z-0.2433
N5105 X5.9893 Y-1.6624 Z-0.2406
N5110 X5.9879 Y-1.6626 Z-0.2377
N5115 X5.987 Y-1.6627 Z-0.2345
N5120 X5.9868 Z-0.2312
N5125 Z-0.2125
N5130 X6.008 Y-0.9338
N5135 Z-0.2312
N5140 X6.0081 Y-0.9336 Z-0.2345
N5145 X6.0085 Y-0.9329 Z-0.2377
N5150 X6.0092 Y-0.9317 Z-0.2406
N5155 X6.0102 Y-0.9301 Z-0.2433
N5160 X6.0114 Y-0.9281 Z-0.2456
N5165 X6.0127 Y-0.9258 Z-0.2475
N5170 X6.0143 Y-0.9232 Z-0.2489
N5175 X6.0159 Y-0.9205 Z-0.2497
N5180 X6.0175 Y-0.9177 Z-0.25
N5185 G3 X6.0262 Y-0.888 I-0.0536 J0.0318
N5190 G1 Y-0.8344
N5195 X6.0259 Y-0.8284
N5200 X6.0249 Y-0.8225
N5205 X6.0235 Y-0.8167
N5210 X6.0212 Y-0.8101
N5215 X6.0183 Y-0.8034
N5220 X6.0143 Y-0.796
N5225 X6.0096 Y-0.7887
N5230 X6.0035 Y-0.7808
N5235 X5.9966 Y-0.7731
N5240 X5.9882 Y-0.7652
N5245 X5.9783 Y-0.7573
N5250 X5.9672 Y-0.7497
N5255 X5.954 Y-0.7422
N5260 X5.9397 Y-0.7356
N5265 X5.9236 Y-0.7296
N5270 X5.9049 Y-0.7243
N5275 X5.8849 Y-0.7204
N5280 X5.8634 Y-0.7179
N5285 X5.8394 Y-0.7171
N5290 X5.8135 Y-0.7183
N5295 X5.7861 Y-0.7218
N5300 X5.7585 Y-0.7276
N5305 X5.729 Y-0.7363
N5310 X5.6998 Y-0.7476
N5315 X5.6716 Y-0.761
N5320 X5.6443 Y-0.7764
N5325 X5.6182 Y-0.7936
N5330 X5.5932 Y-0.8125
N5335 X5.5695 Y-0.8329
N5340 X5.5471 Y-0.8548
N5345 X5.5261 Y-0.878
N5350 X5.5065 Y-0.9024
N5355 X5.4884 Y-0.9279
N5360 X5.4716 Y-0.9543
N5365 X5.4563 Y-0.9816
N5370 X5.4425 Y-1.0097
N5375 X5.4302 Y-1.0384
N5380 X5.4194 Y-1.0678
N5385 X5.4101 Y-1.0977
N5390 X5.4024 Y-1.128
N5395 X5.3963 Y-1.1587
N5400 X5.3917 Y-1.1897
N5405 X5.3886 Y-1.2208
N5410 X5.387 Y-1.2521
N5415 Y-1.2833
N5420 X5.3884 Y-1.3146
N5425 X5.3915 Y-1.3458
N5430 X5.3961 Y-1.3767
N5435 X5.4022 Y-1.4074
N5440 X5.4098 Y-1.4377
N5445 X5.419 Y-1.4677
N5450 X5.4295 Y-1.4971
N5455 X5.4415 Y-1.526
N5460 X5.4549 Y-1.5543
N5465 X5.4696 Y-1.5819
N5470 X5.4858 Y-1.6087
N5475 X5.5033 Y-1.6346
N5480 X5.5222 Y-1.6596
N5485 X5.5423 Y-1.6836
N5490 X5.5637 Y-1.7064
N5495 X5.5839 Y-1.726
N5500 X5.5929 Y-1.7326
N5505 X5.6032 Y-1.7368
N5510 X5.6143 Y-1.7383
N5515 X5.7294
N5520 G3 X5.7474 Y-1.7174 I-0.0007 J0.0187
N5525 G1 X5.747 Y-1.7142 Z-0.2497
N5530 X5.7467 Y-1.711 Z-0.2489
N5535 X5.7463 Y-1.7081 Z-0.2475
N5540 X5.746 Y-1.7054 Z-0.2456
N5545 X5.7458 Y-1.7031 Z-0.2433
N5550 X5.7456 Y-1.7013 Z-0.2406
N5555 X5.7454 Y-1.6999 Z-0.2377
N5560 X5.7453 Y-1.699 Z-0.2345
N5565 Y-1.6988 Z-0.2312
N5570 Z-0.2125
N5575 X6.008 Y-0.8802
N5580 Z-0.2312
N5585 X6.0081 Y-0.8799 Z-0.2345
N5590 X6.0085 Y-0.8792 Z-0.2377
N5595 X6.0092 Y-0.878 Z-0.2406
N5600 X6.0102 Y-0.8764 Z-0.2433
N5605 X6.0114 Y-0.8744 Z-0.2456
N5610 X6.0127 Y-0.8721 Z-0.2475
N5615 X6.0143 Y-0.8696 Z-0.2489
N5620 X6.0159 Y-0.8669 Z-0.2497
N5625 X6.0175 Y-0.8641 Z-0.25
N5630 G3 X6.0262 Y-0.8344 I-0.0536 J0.0318
N5635 G1 Y-0.7815
N5640 X6.0259 Y-0.7743
N5645 X6.0251 Y-0.7683
N5650 X6.0237 Y-0.7621
N5655 X6.0218 Y-0.7557
N5660 X6.0189 Y-0.7485
N5665 X6.0153 Y-0.7413
N5670 X6.0105 Y-0.7333
N5675 X6.0049 Y-0.7254
N5680 X6.0014 Y-0.7213
N5685 X5.9945 Y-0.7147
N5690 X5.9864 Y-0.7098
N5695 X5.9774 Y-0.7068
N5700 X5.968 Y-0.7057
N5705 G3 X5.9499 Y-0.7251 Z-0.242 I0.0007 J-0.0187
N5710 X5.9532 Y-0.7351 I0.0187 J0.0006
N5715 G1 X5.9921 Y-0.7915
N5720 G3 X6.0069 Y-0.7996 I0.0154 J0.0107
N5725 X6.0262 Y-0.7815 Z-0.25 I0.0006 J0.0187
N5730 G1 Y-0.7246
N5735 X6.0261 Y-0.7228
N5740 X6.0258 Y-0.7211
N5745 X6.0254 Y-0.7193
N5750 X6.0247 Y-0.7175
N5755 X6.0237 Y-0.7155
N5760 X6.0224 Y-0.7135
N5765 X6.021 Y-0.712
N5770 X6.0194 Y-0.7104
N5775 X6.0174 Y-0.7088
N5780 X6.0153 Y-0.7076
N5785 X6.0135 Y-0.7069
N5790 X6.0117 Y-0.7063
N5795 X6.0099 Y-0.706
N5800 X6.0082 Y-0.7058
N5805 X5.9939 Y-0.7057
N5810 X5.7024
N5815 X5.6834 Y-0.7067
N5820 X5.6694 Y-0.7085
N5825 X5.6529 Y-0.7121
N5830 X5.6349 Y-0.7175
N5835 X5.6145 Y-0.7254
N5840 X5.5914 Y-0.7366
N5845 X5.5666 Y-0.7512
N5850 X5.541 Y-0.7692
N5855 X5.5169 Y-0.7891
N5860 X5.4942 Y-0.8107
N5865 X5.4729 Y-0.8336
N5870 X5.4529 Y-0.8577
N5875 X5.4343 Y-0.8829
N5880 X5.417 Y-0.9089
N5885 X5.401 Y-0.9358
N5890 X5.3863 Y-0.9635
N5895 X5.373 Y-0.9918
N5900 X5.3611 Y-1.0207
N5905 X5.3506 Y-1.0502
N5910 X5.3415 Y-1.0801
N5915 X5.3337 Y-1.1105
N5920 X5.3274 Y-1.1411
N5925 X5.3224 Y-1.172
N5930 X5.3188 Y-1.2031
N5935 X5.3166 Y-1.2343
N5940 X5.3157 Y-1.2656
N5945 X5.3162 Y-1.2969
N5950 X5.3182 Y-1.3281
N5955 X5.3215 Y-1.3592
N5960 X5.3263 Y-1.3901
N5965 X5.3324 Y-1.4208
N5970 X5.3399 Y-1.4512
N5975 X5.3487 Y-1.4812
N5980 X5.3588 Y-1.5109
N5985 X5.3702 Y-1.54
N5990 X5.3828 Y-1.5686
N5995 X5.3967 Y-1.5967
N6000 X5.4119 Y-1.624
N6005 X5.4284 Y-1.6506
N6010 X5.4461 Y-1.6764
N6015 X5.4649 Y-1.7014
N6020 X5.4823 Y-1.7224
N6025 X5.4892 Y-1.7291
N6030 X5.4974 Y-1.7341
N6035 X5.5065 Y-1.7372
N6040 X5.516 Y-1.7383
N6045 X5.6143
N6050 G3 X5.6323 Y-1.7174 I-0.0007 J0.0187
N6055 G1 X5.6319 Y-1.7142 Z-0.2497
N6060 X5.6315 Y-1.711 Z-0.2489
N6065 X5.6312 Y-1.7081 Z-0.2475
N6070 X5.6309 Y-1.7054 Z-0.2456
N6075 X5.6306 Y-1.7031 Z-0.2433
N6080 X5.6304 Y-1.7013 Z-0.2406
N6085 X5.6303 Y-1.6999 Z-0.2377
N6090 X5.6302 Y-1.699 Z-0.2345
N6095 X5.6301 Y-1.6988 Z-0.2312
N6100 Z-0.2125
N6105 X5.7482 Y-0.724
N6110 Z-0.2312
N6115 X5.748 Y-0.7239 Z-0.2345
N6120 X5.7472 Y-0.7235 Z-0.2377
N6125 X5.7461 Y-0.7228 Z-0.2406
N6130 X5.7444 Y-0.7218 Z-0.2433
N6135 X5.7425 Y-0.7206 Z-0.2456
N6140 X5.7402 Y-0.7193 Z-0.2475
N6145 X5.7376 Y-0.7177 Z-0.2489
N6150 X5.7349 Y-0.7161 Z-0.2497
N6155 X5.7321 Y-0.7145 Z-0.25
N6160 G3 X5.7024 Y-0.7057 I-0.0318 J-0.0536
N6165 G1 X5.5816
N6170 X5.5715 Y-0.7063
N6175 X5.561 Y-0.7076
N6180 X5.5483 Y-0.7103
N6185 X5.5353 Y-0.7143
N6190 X5.5195 Y-0.7204
N6195 X5.5031 Y-0.7284
N6200 X5.4839 Y-0.7397
N6205 X5.4626 Y-0.7546
N6210 X5.44 Y-0.7734
N6215 X5.4176 Y-0.7952
N6220 X5.3968 Y-0.8187
N6225 X5.3775 Y-0.8433
N6230 X5.3597 Y-0.869
N6235 X5.3431 Y-0.8955
N6240 X5.3279 Y-0.9229
N6245 X5.3139 Y-0.9509
N6250 X5.3012 Y-0.9795
N6255 X5.2898 Y-1.0086
N6260 X5.2797 Y-1.0382
N6265 X5.2709 Y-1.0683
N6270 X5.2633 Y-1.0986
N6275 X5.2571 Y-1.1293
N6280 X5.2521 Y-1.1602
N6285 X5.2483 Y-1.1912
N6290 X5.2458 Y-1.2224
N6295 X5.2445 Y-1.2537
N6300 Y-1.285
N6305 X5.2458 Y-1.3163
N6310 X5.2483 Y-1.3474
N6315 X5.2521 Y-1.3785
N6320 X5.2572 Y-1.4094
N6325 X5.2635 Y-1.44
N6330 X5.2711 Y-1.4704
N6335 X5.2799 Y-1.5004
N6340 X5.2898 Y-1.5301
N6345 X5.3009 Y-1.5593
N6350 X5.3132 Y-1.5881
N6355 X5.3267 Y-1.6164
N6360 X5.3413 Y-1.6441
N6365 X5.357 Y-1.6711
N6370 X5.3738 Y-1.6975
N6375 X5.3893 Y-1.7196
N6380 X5.3963 Y-1.7274
N6385 X5.405 Y-1.7333
N6390 X5.4148 Y-1.737
N6395 X5.4252 Y-1.7383
N6400 X5.516
N6405 G3 X5.534 Y-1.7174 I-0.0007 J0.0187
N6410 G1 X5.5336 Y-1.7142 Z-0.2497
N6415 X5.5333 Y-1.711 Z-0.2489
N6420 X5.5329 Y-1.7081 Z-0.2475
N6425 X5.5326 Y-1.7054 Z-0.2456
N6430 X5.5324 Y-1.7031 Z-0.2433
N6435 X5.5322 Y-1.7013 Z-0.2406
N6440 X5.532 Y-1.6999 Z-0.2377
N6445 X5.5319 Y-1.699 Z-0.2345
N6450 Y-1.6988 Z-0.2312
N6455 Z-0.2125
N6460 X5.6274 Y-0.724
N6465 Z-0.2312
N6470 X5.6271 Y-0.7239 Z-0.2345
N6475 X5.6264 Y-0.7235 Z-0.2377
N6480 X5.6252 Y-0.7228 Z-0.2406
N6485 X5.6236 Y-0.7218 Z-0.2433
N6490 X5.6216 Y-0.7206 Z-0.2456
N6495 X5.6193 Y-0.7193 Z-0.2475
N6500 X5.6167 Y-0.7177 Z-0.2489
N6505 X5.614 Y-0.7161 Z-0.2497
N6510 X5.6112 Y-0.7145 Z-0.25
N6515 G3 X5.5816 Y-0.7057 I-0.0318 J-0.0536
N6520 G1 X5.4891
N6525 X5.4754 Y-0.7064
N6530 X5.4659 Y-0.7077
N6535 X5.4556 Y-0.7099
N6540 X5.4432 Y-0.7136
N6545 X5.4305 Y-0.7185
N6550 X5.4155 Y-0.7258
N6555 X5.3998 Y-0.7351
N6560 X5.3816 Y-0.7478
N6565 X5.3619 Y-0.7642
N6570 X5.3406 Y-0.785
N6575 X5.32 Y-0.8086
N6580 X5.3012 Y-0.8335
N6585 X5.2838 Y-0.8596
N6590 X5.2679 Y-0.8865
N6595 X5.2534 Y-0.9142
N6600 X5.24 Y-0.9426
N6605 X5.228 Y-0.9714
N6610 X5.2171 Y-1.0008
N6615 X5.2075 Y-1.0306
N6620 X5.199 Y-1.0607
N6625 X5.1918 Y-1.0911
N6630 X5.1857 Y-1.1218
N6635 X5.1808 Y-1.1527
N6640 X5.177 Y-1.1838
N6645 X5.1745 Y-1.215
N6650 X5.173 Y-1.2462
N6655 X5.1728 Y-1.2775
N6660 X5.1736 Y-1.3088
N6665 X5.1757 Y-1.34
N6670 X5.1789 Y-1.3712
N6675 X5.1832 Y-1.4021
N6680 X5.1887 Y-1.433
N6685 X5.1953 Y-1.4635
N6690 X5.2031 Y-1.4938
N6695 X5.212 Y-1.5238
N6700 X5.222 Y-1.5535
N6705 X5.2331 Y-1.5828
N6710 X5.2452 Y-1.6116
N6715 X5.2584 Y-1.64
N6720 X5.2727 Y-1.6678
N6725 X5.288 Y-1.6951
N6730 X5.3025 Y-1.7186
N6735 X5.3038 Y-1.7204
N6740 X5.3108 Y-1.7279
N6745 X5.3193 Y-1.7335
N6750 X5.3289 Y-1.7371
N6755 X5.3391 Y-1.7383
N6760 X5.4252
N6765 G3 X5.4431 Y-1.7174 I-0.0007 J0.0187
N6770 G1 X5.4428 Y-1.7142 Z-0.2497
N6775 X5.4424 Y-1.711 Z-0.2489
N6780 X5.4421 Y-1.7081 Z-0.2475
N6785 X5.4418 Y-1.7054 Z-0.2456
N6790 X5.4415 Y-1.7031 Z-0.2433
N6795 X5.4413 Y-1.7013 Z-0.2406
N6800 X5.4411 Y-1.6999 Z-0.2377
N6805 X5.441 Y-1.699 Z-0.2345
N6810 Y-1.6988 Z-0.2312
N6815 Z-0.2125
N6820 X5.5349 Y-0.724
N6825 Z-0.2312
N6830 X5.5347 Y-0.7239 Z-0.2345
N6835 X5.534 Y-0.7235 Z-0.2377
N6840 X5.5328 Y-0.7228 Z-0.2406
N6845 X5.5312 Y-0.7218 Z-0.2433
N6850 X5.5292 Y-0.7206 Z-0.2456
N6855 X5.5269 Y-0.7193 Z-0.2475
N6860 X5.5243 Y-0.7177 Z-0.2489
N6865 X5.5216 Y-0.7161 Z-0.2497
N6870 X5.5188 Y-0.7145 Z-0.25
N6875 G3 X5.4891 Y-0.7057 I-0.0318 J-0.0536
N6880 G1 X5.3967
N6885 X5.3874 Y-0.7062
N6890 X5.3788 Y-0.7073
N6895 X5.3684 Y-0.7096
N6900 X5.3578 Y-0.7128
N6905 X5.3457 Y-0.7175
N6910 X5.332 Y-0.7241
N6915 X5.3176 Y-0.7326
N6920 X5.3014 Y-0.744
N6925 X5.2833 Y-0.759
N6930 X5.2644 Y-0.7774
N6935 X5.2439 Y-0.801
N6940 X5.2252 Y-0.8261
N6945 X5.2083 Y-0.8524
N6950 X5.1928 Y-0.8796
N6955 X5.1787 Y-0.9076
N6960 X5.166 Y-0.9361
N6965 X5.1544 Y-0.9652
N6970 X5.144 Y-0.9947
N6975 X5.1348 Y-1.0246
N6980 X5.1267 Y-1.0549
N6985 X5.1197 Y-1.0854
N6990 X5.1138 Y-1.1161
N6995 X5.109 Y-1.147
N7000 X5.1054 Y-1.1781
N7005 X5.1028 Y-1.2093
N7010 X5.1013 Y-1.2405
N7015 X5.1008 Y-1.2718
N7020 X5.1014 Y-1.3031
N7025 X5.1031 Y-1.3344
N7030 X5.1059 Y-1.3655
N7035 X5.1097 Y-1.3966
N7040 X5.1145 Y-1.4275
N7045 X5.1204 Y-1.4582
N7050 X5.1274 Y-1.4887
N7055 X5.1354 Y-1.519
N7060 X5.1445 Y-1.5489
N7065 X5.1545 Y-1.5786
N7070 X5.1656 Y-1.6078
N7075 X5.1777 Y-1.6367
N7080 X5.1907 Y-1.6652
N7085 X5.2048 Y-1.6931
N7090 X5.217 Y-1.7148
N7095 X5.2197 Y-1.7189
N7100 X5.2267 Y-1.727
N7105 X5.2355 Y-1.7331
N7110 X5.2454 Y-1.7369
N7115 X5.256 Y-1.7383
N7120 X5.3391
N7125 G3 X5.357 Y-1.7174 I-0.0007 J0.0187
N7130 G1 X5.3567 Y-1.7142 Z-0.2497
N7135 X5.3563 Y-1.711 Z-0.2489
N7140 X5.356 Y-1.7081 Z-0.2475
N7145 X5.3557 Y-1.7054 Z-0.2456
N7150 X5.3554 Y-1.7031 Z-0.2433
N7155 X5.3552 Y-1.7013 Z-0.2406
N7160 X5.355 Y-1.6999 Z-0.2377
N7165 X5.3549 Y-1.699 Z-0.2345
N7170 Y-1.6988 Z-0.2312
N7175 Z-0.2125
N7180 X5.4425 Y-0.724
N7185 Z-0.2312
N7190 X5.4422 Y-0.7239 Z-0.2345
N7195 X5.4415 Y-0.7235 Z-0.2377
N7200 X5.4403 Y-0.7228 Z-0.2406
N7205 X5.4387 Y-0.7218 Z-0.2433
N7210 X5.4367 Y-0.7206 Z-0.2456
N7215 X5.4344 Y-0.7193 Z-0.2475
N7220 X5.4319 Y-0.7177 Z-0.2489
N7225 X5.4292 Y-0.7161 Z-0.2497
N7230 X5.4264 Y-0.7145 Z-0.25
N7235 G3 X5.3967 Y-0.7057 I-0.0318 J-0.0536
N7240 G1 X5.3114
N7245 X5.3035 Y-0.7061
N7250 X5.2949 Y-0.7073
N7255 X5.2855 Y-0.7093
N7260 X5.2753 Y-0.7123
N7265 X5.2632 Y-0.717
N7270 X5.2511 Y-0.7229
N7275 X5.237 Y-0.7312
N7280 X5.2223 Y-0.7415
N7285 X5.2055 Y-0.7555
N7290 X5.188 Y-0.7726
N7295 X5.1688 Y-0.7946
N7300 X5.1502 Y-0.8197
N7305 X5.1334 Y-0.8461
N7310 X5.1183 Y-0.8735
N7315 X5.1045 Y-0.9016
N7320 X5.0921 Y-0.9304
N7325 X5.0809 Y-0.9596
N7330 X5.0709 Y-0.9892
N7335 X5.062 Y-1.0192
N7340 X5.0542 Y-1.0495
N7345 X5.0474 Y-1.0801
N7350 X5.0417 Y-1.1109
N7355 X5.0371 Y-1.1418
N7360 X5.0335 Y-1.1729
N7365 X5.0309 Y-1.2041
N7370 X5.0293 Y-1.2353
N7375 X5.0287 Y-1.2666
N7380 X5.0291 Y-1.2979
N7385 X5.0305 Y-1.3292
N7390 X5.0329 Y-1.3604
N7395 X5.0363 Y-1.3915
N7400 X5.0406 Y-1.4225
N7405 X5.0459 Y-1.4533
N7410 X5.0522 Y-1.484
N7415 X5.0594 Y-1.5144
N7420 X5.0677 Y-1.5446
N7425 X5.0769 Y-1.5745
N7430 X5.087 Y-1.6041
N7435 X5.0981 Y-1.6334
N7440 X5.1101 Y-1.6623
N7445 X5.1231 Y-1.6907
N7450 X5.1344 Y-1.7121
N7455 X5.138 Y-1.7179
N7460 X5.145 Y-1.7264
N7465 X5.1539 Y-1.7328
N7470 X5.1641 Y-1.7369
N7475 X5.175 Y-1.7383
N7480 X5.256
N7485 G3 X5.274 Y-1.7174 I-0.0007 J0.0187
N7490 G1 X5.2736 Y-1.7142 Z-0.2497
N7495 X5.2733 Y-1.711 Z-0.2489
N7500 X5.2729 Y-1.7081 Z-0.2475
N7505 X5.2726 Y-1.7054 Z-0.2456
N7510 X5.2724 Y-1.7031 Z-0.2433
N7515 X5.2722 Y-1.7013 Z-0.2406
N7520 X5.272 Y-1.6999 Z-0.2377
N7525 X5.2719 Y-1.699 Z-0.2345
N7530 Y-1.6988 Z-0.2312
N7535 Z-0.2125
N7540 X5.3572 Y-0.724
N7545 Z-0.2312
N7550 X5.3569 Y-0.7239 Z-0.2345
N7555 X5.3562 Y-0.7235 Z-0.2377
N7560 X5.355 Y-0.7228 Z-0.2406
N7565 X5.3534 Y-0.7218 Z-0.2433
N7570 X5.3514 Y-0.7206 Z-0.2456
N7575 X5.3491 Y-0.7193 Z-0.2475
N7580 X5.3466 Y-0.7177 Z-0.2489
N7585 X5.3439 Y-0.7161 Z-0.2497
N7590 X5.3411 Y-0.7145 Z-0.25
N7595 G3 X5.3114 Y-0.7057 I-0.0318 J-0.0536
N7600 G1 X5.2332
N7605 X5.222 Y-0.7063
N7610 X5.2135 Y-0.7074
N7615 X5.2049 Y-0.7093
N7620 X5.1947 Y-0.7123
N7625 X5.1834 Y-0.7167
N7630 X5.1718 Y-0.7224
N7635 X5.158 Y-0.7305
N7640 X5.1443 Y-0.7401
N7645 X5.1285 Y-0.7532
N7650 X5.1116 Y-0.7697
N7655 X5.0937 Y-0.7902
N7660 X5.0751 Y-0.8153
N7665 X5.0585 Y-0.8418
N7670 X5.0435 Y-0.8693
N7675 X5.0301 Y-0.8976
N7680 X5.018 Y-0.9265
N7685 X5.0072 Y-0.9558
N7690 X4.9975 Y-0.9856
N7695 X4.9889 Y-1.0156
N7700 X4.9813 Y-1.046
N7705 X4.9748 Y-1.0766
N7710 X4.9693 Y-1.1074
N7715 X4.9648 Y-1.1384
N7720 X4.9613 Y-1.1695
N7725 X4.9587 Y-1.2007
N7730 X4.9571 Y-1.2319
N7735 X4.9565 Y-1.2632
N7740 X4.9567 Y-1.2945
N7745 X4.9579 Y-1.3258
N7750 X4.96 Y-1.357
N7755 X4.963 Y-1.3881
N7760 X4.967 Y-1.4192
N7765 X4.9718 Y-1.4501
N7770 X4.9776 Y-1.4809
N7775 X4.9842 Y-1.5114
N7780 X4.9918 Y-1.5418
N7785 X5.0003 Y-1.5719
N7790 X5.0096 Y-1.6018
N7795 X5.0199 Y-1.6313
N7800 X5.0311 Y-1.6606
N7805 X5.0433 Y-1.6894
N7810 X5.0538 Y-1.7104
N7815 X5.0579 Y-1.7172
N7820 X5.0649 Y-1.7259
N7825 X5.0738 Y-1.7326
N7830 X5.0842 Y-1.7368
N7835 X5.0953 Y-1.7383
N7840 X5.175
N7845 G3 X5.1929 Y-1.7174 I-0.0007 J0.0187
N7850 G1 X5.1926 Y-1.7142 Z-0.2497
N7855 X5.1922 Y-1.711 Z-0.2489
N7860 X5.1919 Y-1.7081 Z-0.2475
N7865 X5.1916 Y-1.7054 Z-0.2456
N7870 X5.1913 Y-1.7031 Z-0.2433
N7875 X5.1911 Y-1.7013 Z-0.2406
N7880 X5.191 Y-1.6999 Z-0.2377
N7885 X5.1909 Y-1.699 Z-0.2345
N7890 X5.1908 Y-1.6988 Z-0.2312
N7895 Z-0.2125
N7900 X5.279 Y-0.724
N7905 Z-0.2312
N7910 X5.2787 Y-0.7239 Z-0.2345
N7915 X5.278 Y-0.7235 Z-0.2377
N7920 X5.2768 Y-0.7228 Z-0.2406
N7925 X5.2752 Y-0.7218 Z-0.2433
N7930 X5.2732 Y-0.7206 Z-0.2456
N7935 X5.2709 Y-0.7193 Z-0.2475
N7940 X5.2684 Y-0.7177 Z-0.2489
N7945 X5.2656 Y-0.7161 Z-0.2497
N7950 X5.2629 Y-0.7145 Z-0.25
N7955 G3 X5.2332 Y-0.7057 I-0.0318 J-0.0536
N7960 G1 X5.1479
N7965 X5.1419 Y-0.7061
N7970 X5.1337 Y-0.7072
N7975 X5.125 Y-0.7092
N7980 X5.1146 Y-0.7124
N7985 X5.1041 Y-0.7167
N7990 X5.0921 Y-0.7227
N7995 X5.079 Y-0.7306
N8000 X5.0651 Y-0.7405
N8005 X5.05 Y-0.7534
N8010 X5.0333 Y-0.77
N8015 X5.0161 Y-0.7903
N8020 X4.9978 Y-0.8156
N8025 X4.9815 Y-0.8424
N8030 X4.967 Y-0.8701
N8035 X4.954 Y-0.8985
N8040 X4.9424 Y-0.9276
N8045 X4.932 Y-0.9571
N8050 X4.9227 Y-0.987
N8055 X4.9145 Y-1.0172
N8060 X4.9074 Y-1.0477
N8065 X4.9012 Y-1.0783
N8070 X4.896 Y-1.1092
N8075 X4.8918 Y-1.1402
N8080 X4.8885 Y-1.1713
N8085 X4.8861 Y-1.2025
N8090 X4.8846 Y-1.2338
N8095 X4.884 Y-1.2651
N8100 X4.8843 Y-1.2963
N8105 X4.8854 Y-1.3276
N8110 X4.8874 Y-1.3588
N8115 X4.8903 Y-1.39
N8120 X4.8941 Y-1.4211
N8125 X4.8987 Y-1.452
N8130 X4.9041 Y-1.4828
N8135 X4.9104 Y-1.5135
N8140 X4.9175 Y-1.544
N8145 X4.9255 Y-1.5742
N8150 X4.9343 Y-1.6042
N8155 X4.944 Y-1.634
N8160 X4.9545 Y-1.6635
N8165 X4.9663 Y-1.6925
N8170 X4.9758 Y-1.7115
N8175 X4.9792 Y-1.7171
N8180 X4.9862 Y-1.7259
N8185 X4.9951 Y-1.7326
N8190 X5.0055 Y-1.7368
N8195 X5.0166 Y-1.7383
N8200 X5.0953
N8205 G3 X5.1133 Y-1.7174 I-0.0007 J0.0187
N8210 G1 X5.1129 Y-1.7142 Z-0.2497
N8215 X5.1126 Y-1.711 Z-0.2489
N8220 X5.1122 Y-1.7081 Z-0.2475
N8225 X5.1119 Y-1.7054 Z-0.2456
N8230 X5.1117 Y-1.7031 Z-0.2433
N8235 X5.1115 Y-1.7013 Z-0.2406
N8240 X5.1113 Y-1.6999 Z-0.2377
N8245 X5.1112 Y-1.699 Z-0.2345
N8250 Y-1.6988 Z-0.2312
N8255 Z-0.2125
N8260 X5.1936 Y-0.724
N8265 Z-0.2312
N8270 X5.1934 Y-0.7239 Z-0.2345
N8275 X5.1927 Y-0.7235 Z-0.2377
N8280 X5.1915 Y-0.7228 Z-0.2406
N8285 X5.1899 Y-0.7218 Z-0.2433
N8290 X5.1879 Y-0.7206 Z-0.2456
N8295 X5.1856 Y-0.7193 Z-0.2475
N8300 X5.183 Y-0.7177 Z-0.2489
N8305 X5.1803 Y-0.7161 Z-0.2497
N8310 X5.1775 Y-0.7145 Z-0.25
N8315 G3 X5.1479 Y-0.7057 I-0.0318 J-0.0536
N8320 G1 X5.0697
N8325 X5.0637 Y-0.7061
N8330 X5.0555 Y-0.7072
N8335 X5.047 Y-0.7092
N8340 X5.0368 Y-0.7124
N8345 X5.0264 Y-0.7166
N8350 X5.0147 Y-0.7225
N8355 X5.0018 Y-0.7304
N8360 X4.9884 Y-0.7401
N8365 X4.9736 Y-0.7527
N8370 X4.9575 Y-0.7689
N8375 X4.9409 Y-0.7884
N8380 X4.9229 Y-0.8136
N8385 X4.9067 Y-0.8404
N8390 X4.8924 Y-0.8682
N8395 X4.8796 Y-0.8968
N8400 X4.8682 Y-0.926
N8405 X4.8581 Y-0.9556
N8410 X4.8491 Y-0.9855
N8415 X4.8411 Y-1.0158
N8420 X4.8342 Y-1.0463
N8425 X4.8282 Y-1.077
N8430 X4.8232 Y-1.1079
N8435 X4.8191 Y-1.1389
N8440 X4.8159 Y-1.1701
N8445 X4.8135 Y-1.2013
N8450 X4.812 Y-1.2325
N8455 X4.8114 Y-1.2638
N8460 X4.8116 Y-1.2951
N8465 X4.8127 Y-1.3264
N8470 X4.8145 Y-1.3576
N8475 X4.8172 Y-1.3888
N8480 X4.8207 Y-1.4199
N8485 X4.825 Y-1.4509
N8490 X4.83 Y-1.4818
N8495 X4.8359 Y-1.5125
N8500 X4.8426 Y-1.5431
N8505 X4.8501 Y-1.5735
N8510 X4.8583 Y-1.6036
N8515 X4.8674 Y-1.6336
N8520 X4.8774 Y-1.6632
N8525 X4.8885 Y-1.6918
N8530 X4.8975 Y-1.7105
N8535 X4.9011 Y-1.7166
N8540 X4.908 Y-1.7256
N8545 X4.9171 Y-1.7325
N8550 X4.9276 Y-1.7368
N8555 X4.9388 Y-1.7383
N8560 X5.0166
N8565 G3 X5.0346 Y-1.7174 I-0.0007 J0.0187
N8570 G1 X5.0342 Y-1.7142 Z-0.2497
N8575 X5.0339 Y-1.711 Z-0.2489
N8580 X5.0336 Y-1.7081 Z-0.2475
N8585 X5.0332 Y-1.7054 Z-0.2456
N8590 X5.033 Y-1.7031 Z-0.2433
N8595 X5.0328 Y-1.7013 Z-0.2406
N8600 X5.0326 Y-1.6999 Z-0.2377
N8605 X5.0325 Y-1.699 Z-0.2345
N8610 Y-1.6988 Z-0.2312
N8615 Z-0.2125
N8620 X5.1154 Y-0.724
N8625 Z-0.2312
N8630 X5.1152 Y-0.7239 Z-0.2345
N8635 X5.1145 Y-0.7235 Z-0.2377
N8640 X5.1133 Y-0.7228 Z-0.2406
N8645 X5.1117 Y-0.7218 Z-0.2433
N8650 X5.1097 Y-0.7206 Z-0.2456
N8655 X5.1074 Y-0.7193 Z-0.2475
N8660 X5.1048 Y-0.7177 Z-0.2489
N8665 X5.1021 Y-0.7161 Z-0.2497
N8670 X5.0993 Y-0.7145 Z-0.25
N8675 G3 X5.0697 Y-0.7057 I-0.0318 J-0.0536
N8680 G1 X4.9986
N8685 X4.9877 Y-0.7063
N8690 X4.9798 Y-0.7073
N8695 X4.9715 Y-0.7091
N8700 X4.9618 Y-0.712
N8705 X4.9517 Y-0.7159
N8710 X4.9405 Y-0.7214
N8715 X4.9279 Y-0.7288
N8720 X4.9151 Y-0.7378
N8725 X4.9007 Y-0.7498
N8730 X4.8856 Y-0.7645
N8735 X4.8695 Y-0.7829
N8740 X4.8521 Y-0.8064
N8745 X4.8356 Y-0.833
N8750 X4.821 Y-0.8607
N8755 X4.808 Y-0.8891
N8760 X4.7965 Y-0.9182
N8765 X4.7863 Y-0.9478
N8770 X4.7773 Y-0.9778
N8775 X4.7693 Y-1.008
N8780 X4.7623 Y-1.0385
N8785 X4.7563 Y-1.0693
N8790 X4.7513 Y-1.1001
N8795 X4.7471 Y-1.1312
N8800 X4.7438 Y-1.1623
N8805 X4.7413 Y-1.1935
N8810 X4.7397 Y-1.2247
N8815 X4.7389 Y-1.256
N8820 X4.7388 Y-1.2873
N8825 X4.7396 Y-1.3186
N8830 X4.7411 Y-1.3498
N8835 X4.7434 Y-1.381
N8840 X4.7465 Y-1.4122
N8845 X4.7503 Y-1.4432
N8850 X4.7549 Y-1.4742
N8855 X4.7603 Y-1.505
N8860 X4.7664 Y-1.5357
N8865 X4.7732 Y-1.5662
N8870 X4.7808 Y-1.5966
N8875 X4.7893 Y-1.6267
N8880 X4.7986 Y-1.6566
N8885 X4.8092 Y-1.686
N8890 X4.8184 Y-1.7064
N8895 X4.8234 Y-1.7155
N8900 X4.8287 Y-1.7232
N8905 X4.8356 Y-1.7295
N8910 X4.8436 Y-1.7343
N8915 X4.8525 Y-1.7373
N8920 X4.8617 Y-1.7383
N8925 X4.9388
N8930 G3 X4.9568 Y-1.7174 I-0.0007 J0.0187
N8935 G1 X4.9564 Y-1.7142 Z-0.2497
N8940 X4.9561 Y-1.711 Z-0.2489
N8945 X4.9557 Y-1.7081 Z-0.2475
N8950 X4.9554 Y-1.7054 Z-0.2456
N8955 X4.9552 Y-1.7031 Z-0.2433
N8960 X4.955 Y-1.7013 Z-0.2406
N8965 X4.9548 Y-1.6999 Z-0.2377
N8970 X4.9547 Y-1.699 Z-0.2345
N8975 Y-1.6988 Z-0.2312
N8980 Z-0.2125
N8985 X5.0443 Y-0.724
N8990 Z-0.2312
N8995 X5.0441 Y-0.7239 Z-0.2345
N9000 X5.0434 Y-0.7235 Z-0.2377
N9005 X5.0422 Y-0.7228 Z-0.2406
N9010 X5.0406 Y-0.7218 Z-0.2433
N9015 X5.0386 Y-0.7206 Z-0.2456
N9020 X5.0363 Y-0.7193 Z-0.2475
N9025 X5.0337 Y-0.7177 Z-0.2489
N9030 X5.031 Y-0.7161 Z-0.2497
N9035 X5.0282 Y-0.7145 Z-0.25
N9040 G3 X4.9986 Y-0.7057 I-0.0318 J-0.0536
N9045 G1 X4.9204
N9050 X4.9115 Y-0.7062
N9055 X4.9042 Y-0.7072
N9060 X4.8956 Y-0.709
N9065 X4.8861 Y-0.7118
N9070 X4.8763 Y-0.7157
N9075 X4.8646 Y-0.7213
N9080 X4.853 Y-0.7281
N9085 X4.8397 Y-0.7375
N9090 X4.826 Y-0.7488
N9095 X4.8107 Y-0.7639
N9100 X4.7951 Y-0.7817
N9105 X4.7782 Y-0.8045
N9110 X4.7617 Y-0.8311
N9115 X4.7471 Y-0.8588
N9120 X4.7343 Y-0.8873
N9125 X4.7229 Y-0.9165
N9130 X4.7128 Y-0.9461
N9135 X4.7039 Y-0.9761
N9140 X4.6961 Y-1.0064
N9145 X4.6893 Y-1.0369
N9150 X4.6834 Y-1.0677
N9155 X4.6784 Y-1.0986
N9160 X4.6743 Y-1.1296
N9165 X4.6711 Y-1.1607
N9170 X4.6686 Y-1.1919
N9175 X4.667 Y-1.2232
N9180 X4.6661 Y-1.2544
N9185 X4.666 Y-1.2857
N9190 X4.6667 Y-1.317
N9195 X4.6681 Y-1.3483
N9200 X4.6702 Y-1.3795
N9205 X4.6731 Y-1.4107
N9210 X4.6767 Y-1.4417
N9215 X4.681 Y-1.4727
N9220 X4.686 Y-1.5036
N9225 X4.6917 Y-1.5344
N9230 X4.6982 Y-1.565
N9235 X4.7054 Y-1.5955
N9240 X4.7134 Y-1.6257
N9245 X4.7223 Y-1.6557
N9250 X4.7325 Y-1.6853
N9255 X4.7409 Y-1.7045
N9260 X4.7465 Y-1.7151
N9265 X4.7518 Y-1.7229
N9270 X4.7587 Y-1.7294
N9275 X4.7668 Y-1.7342
N9280 X4.7757 Y-1.7372
N9285 X4.7851 Y-1.7383
N9290 X4.8617
N9295 G3 X4.8797 Y-1.7174 I-0.0007 J0.0187
N9300 G1 X4.8793 Y-1.7142 Z-0.2497
N9305 X4.879 Y-1.711 Z-0.2489
N9310 X4.8787 Y-1.7081 Z-0.2475
N9315 X4.8784 Y-1.7054 Z-0.2456
N9320 X4.8781 Y-1.7031 Z-0.2433
N9325 X4.8779 Y-1.7013 Z-0.2406
N9330 X4.8777 Y-1.6999 Z-0.2377
N9335 X4.8776 Y-1.699 Z-0.2345
N9340 Y-1.6988 Z-0.2312
N9345 Z-0.2125
N9350 X4.9661 Y-0.724
N9355 Z-0.2312
N9360 X4.9659 Y-0.7239 Z-0.2345
N9365 X4.9652 Y-0.7235 Z-0.2377
N9370 X4.964 Y-0.7228 Z-0.2406
N9375 X4.9624 Y-0.7218 Z-0.2433
N9380 X4.9604 Y-0.7206 Z-0.2456
N9385 X4.9581 Y-0.7193 Z-0.2475
N9390 X4.9555 Y-0.7177 Z-0.2489
N9395 X4.9528 Y-0.7161 Z-0.2497
N9400 X4.95 Y-0.7145 Z-0.25
N9405 G3 X4.9204 Y-0.7057 I-0.0318 J-0.0536
N9410 G1 X4.8421
N9415 X4.8361 Y-0.7061
N9420 X4.8288 Y-0.707
N9425 X4.8203 Y-0.7088
N9430 X4.811 Y-0.7116
N9435 X4.8011 Y-0.7155
N9440 X4.7895 Y-0.7211
N9445 X4.7782 Y-0.7278
N9450 X4.7648 Y-0.7371
N9455 X4.7515 Y-0.7482
N9460 X4.7363 Y-0.763
N9465 X4.721 Y-0.7806
N9470 X4.7044 Y-0.803
N9475 X4.6879 Y-0.8296
N9480 X4.6734 Y-0.8573
N9485 X4.6606 Y-0.8858
N9490 X4.6493 Y-0.915
N9495 X4.6394 Y-0.9447
N9500 X4.6306 Y-0.9747
N9505 X4.6229 Y-1.0051
N9510 X4.6162 Y-1.0356
N9515 X4.6104 Y-1.0664
N9520 X4.6055 Y-1.0973
N9525 X4.6015 Y-1.1283
N9530 X4.5983 Y-1.1595
N9535 X4.5959 Y-1.1906
N9540 X4.5942 Y-1.2219
N9545 X4.5933 Y-1.2532
N9550 X4.5932 Y-1.2845
N9555 X4.5937 Y-1.3158
N9560 X4.595 Y-1.347
N9565 X4.597 Y-1.3783
N9570 X4.5996 Y-1.4094
N9575 X4.603 Y-1.4405
N9580 X4.607 Y-1.4716
N9585 X4.6118 Y-1.5025
N9590 X4.6172 Y-1.5333
N9595 X4.6233 Y-1.564
N9600 X4.6301 Y-1.5946
N9605 X4.6378 Y-1.6249
N9610 X4.6463 Y-1.655
N9615 X4.6563 Y-1.6847
N9620 X4.6644 Y-1.7037
N9625 X4.6702 Y-1.7148
N9630 X4.6755 Y-1.7227
N9635 X4.6824 Y-1.7292
N9640 X4.6905 Y-1.7342
N9645 X4.6995 Y-1.7372
N9650 X4.7089 Y-1.7383
N9655 X4.7851
N9660 G3 X4.8031 Y-1.7174 I-0.0007 J0.0187
N9665 G1 X4.8027 Y-1.7142 Z-0.2497
N9670 X4.8024 Y-1.711 Z-0.2489
N9675 X4.802 Y-1.7081 Z-0.2475
N9680 X4.8017 Y-1.7054 Z-0.2456
N9685 X4.8015 Y-1.7031 Z-0.2433
N9690 X4.8013 Y-1.7013 Z-0.2406
N9695 X4.8011 Y-1.6999 Z-0.2377
N9700 X4.801 Y-1.699 Z-0.2345
N9705 Y-1.6988 Z-0.2312
N9710 Z-0.2125
N9715 X4.8879 Y-0.724
N9720 Z-0.2312
N9725 X4.8877 Y-0.7239 Z-0.2345
N9730 X4.887 Y-0.7235 Z-0.2377
N9735 X4.8858 Y-0.7228 Z-0.2406
N9740 X4.8842 Y-0.7218 Z-0.2433
N9745 X4.8822 Y-0.7206 Z-0.2456
N9750 X4.8799 Y-0.7193 Z-0.2475
N9755 X4.8773 Y-0.7177 Z-0.2489
N9760 X4.8746 Y-0.7161 Z-0.2497
N9765 X4.8718 Y-0.7145 Z-0.25
N9770 G3 X4.8421 Y-0.7057 I-0.0318 J-0.0536
N9775 G1 X4.771
N9780 X4.7608 Y-0.7063
N9785 X4.7536 Y-0.7072
N9790 X4.7451 Y-0.709
N9795 X4.736 Y-0.7118
N9800 X4.7261 Y-0.7156
N9805 X4.7147 Y-0.7211
N9810 X4.7035 Y-0.7278
N9815 X4.6902 Y-0.7371
N9820 X4.6771 Y-0.7479
N9825 X4.6621 Y-0.7625
N9830 X4.647 Y-0.7799
N9835 X4.6307 Y-0.8019
N9840 X4.6141 Y-0.8285
N9845 X4.5997 Y-0.8562
N9850 X4.587 Y-0.8848
N9855 X4.5758 Y-0.9141
N9860 X4.5659 Y-0.9438
N9865 X4.5573 Y-0.9738
N9870 X4.5497 Y-1.0042
N9875 X4.5431 Y-1.0348
N9880 X4.5374 Y-1.0655
N9885 X4.5326 Y-1.0965
N9890 X4.5286 Y-1.1275
N9895 X4.5254 Y-1.1586
N9900 X4.523 Y-1.1898
N9905 X4.5213 Y-1.2211
N9910 X4.5204 Y-1.2524
N9915 X4.5202 Y-1.2837
N9920 X4.5207 Y-1.3149
N9925 X4.5218 Y-1.3462
N9930 X4.5237 Y-1.3774
N9935 X4.5262 Y-1.4086
N9940 X4.5294 Y-1.4398
N9945 X4.5332 Y-1.4708
N9950 X4.5377 Y-1.5018
N9955 X4.5428 Y-1.5327
N9960 X4.5486 Y-1.5634
N9965 X4.5552 Y-1.594
N9970 X4.5625 Y-1.6244
N9975 X4.5707 Y-1.6546
N9980 X4.5805 Y-1.6844
N9985 X4.5884 Y-1.7031
N9990 X4.5942 Y-1.7145
N9995 X4.5995 Y-1.7225
N10000 X4.6064 Y-1.7291
N10005 X4.6146 Y-1.7341
N10010 X4.6236 Y-1.7372
N10015 X4.6331 Y-1.7383
N10020 X4.7089
N10025 G3 X4.7269 Y-1.7174 I-0.0007 J0.0187
N10030 G1 X4.7266 Y-1.7142 Z-0.2497
N10035 X4.7262 Y-1.711 Z-0.2489
N10040 X4.7259 Y-1.7081 Z-0.2475
N10045 X4.7256 Y-1.7054 Z-0.2456
N10050 X4.7253 Y-1.7031 Z-0.2433
N10055 X4.7251 Y-1.7013 Z-0.2406
N10060 X4.7249 Y-1.6999 Z-0.2377
N10065 X4.7248 Y-1.699 Z-0.2345
N10070 Y-1.6988 Z-0.2312
N10075 Z-0.2125
N10080 X4.8168 Y-0.724
N10085 Z-0.2312
N10090 X4.8166 Y-0.7239 Z-0.2345
N10095 X4.8159 Y-0.7235 Z-0.2377
N10100 X4.8147 Y-0.7228 Z-0.2406
N10105 X4.8131 Y-0.7218 Z-0.2433
N10110 X4.8111 Y-0.7206 Z-0.2456
N10115 X4.8088 Y-0.7193 Z-0.2475
N10120 X4.8062 Y-0.7177 Z-0.2489
N10125 X4.8035 Y-0.7161 Z-0.2497
N10130 X4.8007 Y-0.7145 Z-0.25
N10135 G3 X4.771 Y-0.7057 I-0.0318 J-0.0536
N10140 G1 X4.6928
N10145 X4.6863 Y-0.7061
N10150 X4.6791 Y-0.707
N10155 X4.6706 Y-0.7088
N10160 X4.6616 Y-0.7115
N10165 X4.6517 Y-0.7154
N10170 X4.6404 Y-0.7209
N10175 X4.6292 Y-0.7275
N10180 X4.616 Y-0.7368
N10185 X4.603 Y-0.7475
N10190 X4.5882 Y-0.762
N10195 X4.5732 Y-0.7792
N10200 X4.5571 Y-0.8009
N10205 X4.5406 Y-0.8275
N10210 X4.5261 Y-0.8553
N10215 X4.5135 Y-0.8839
N10220 X4.5024 Y-0.9131
N10225 X4.4926 Y-0.9429
N10230 X4.484 Y-0.973
N10235 X4.4765 Y-1.0033
N10240 X4.4699 Y-1.0339
N10245 X4.4643 Y-1.0647
N10250 X4.4596 Y-1.0957
N10255 X4.4556 Y-1.1267
N10260 X4.4525 Y-1.1578
N10265 X4.4501 Y-1.189
N10270 X4.4484 Y-1.2203
N10275 X4.4475 Y-1.2516
N10280 X4.4472 Y-1.2828
N10285 X4.4476 Y-1.3141
N10290 X4.4487 Y-1.3454
N10295 X4.4504 Y-1.3767
N10300 X4.4527 Y-1.4079
N10305 X4.4557 Y-1.439
N10310 X4.4593 Y-1.4701
N10315 X4.4636 Y-1.5011
N10320 X4.4685 Y-1.532
N10325 X4.4741 Y-1.5628
N10330 X4.4803 Y-1.5935
N10335 X4.4874 Y-1.6239
N10340 X4.4954 Y-1.6542
N10345 X4.505 Y-1.684
N10350 X4.5127 Y-1.7026
N10355 X4.5186 Y-1.7143
N10360 X4.5239 Y-1.7224
N10365 X4.5308 Y-1.7291
N10370 X4.539 Y-1.7341
N10375 X4.5481 Y-1.7372
N10380 X4.5576 Y-1.7383
N10385 X4.6331
N10390 G3 X4.6511 Y-1.7174 I-0.0007 J0.0187
N10395 G1 X4.6507 Y-1.7142 Z-0.2497
N10400 X4.6504 Y-1.711 Z-0.2489
N10405 X4.65 Y-1.7081 Z-0.2475
N10410 X4.6497 Y-1.7054 Z-0.2456
N10415 X4.6495 Y-1.7031 Z-0.2433
N10420 X4.6493 Y-1.7013 Z-0.2406
N10425 X4.6491 Y-1.6999 Z-0.2377
N10430 X4.649 Y-1.699 Z-0.2345
N10435 Y-1.6988 Z-0.2312
N10440 Z-0.2125
N10445 X4.7386 Y-0.724
N10450 Z-0.2312
N10455 X4.7384 Y-0.7239 Z-0.2345
N10460 X4.7376 Y-0.7235 Z-0.2377
N10465 X4.7365 Y-0.7228 Z-0.2406
N10470 X4.7348 Y-0.7218 Z-0.2433
N10475 X4.7329 Y-0.7206 Z-0.2456
N10480 X4.7306 Y-0.7193 Z-0.2475
N10485 X4.728 Y-0.7177 Z-0.2489
N10490 X4.7253 Y-0.7161 Z-0.2497
N10495 X4.7225 Y-0.7145 Z-0.25
N10500 G3 X4.6928 Y-0.7057 I-0.0318 J-0.0536
N10505 G1 X4.6217
N10510 X4.6117 Y-0.7063
N10515 X4.6046 Y-0.7072
N10520 X4.5961 Y-0.709
N10525 X4.5872 Y-0.7117
N10530 X4.5773 Y-0.7155
N10535 X4.5662 Y-0.7209
N10540 X4.555 Y-0.7275
N10545 X4.5418 Y-0.7368
N10550 X4.529 Y-0.7474
N10555 X4.5144 Y-0.7617
N10560 X4.4994 Y-0.7788
N10565 X4.4835 Y-0.8003
N10570 X4.467 Y-0.8269
N10575 X4.4526 Y-0.8546
N10580 X4.44 Y-0.8833
N10585 X4.4289 Y-0.9126
N10590 X4.4192 Y-0.9423
N10595 X4.4107 Y-0.9724
N10600 X4.4032 Y-1.0028
N10605 X4.3968 Y-1.0334
N10610 X4.3912 Y-1.0642
N10615 X4.3865 Y-1.0952
N10620 X4.3826 Y-1.1262
N10625 X4.3795 Y-1.1573
N10630 X4.3771 Y-1.1885
N10635 X4.3754 Y-1.2198
N10640 X4.3744 Y-1.2511
N10645 X4.3741 Y-1.2824
N10650 X4.3745 Y-1.3136
N10655 X4.3754 Y-1.3449
N10660 X4.377 Y-1.3762
N10665 X4.3793 Y-1.4074
N10670 X4.3821 Y-1.4385
N10675 X4.3855 Y-1.4697
N10680 X4.3896 Y-1.5007
N10685 X4.3943 Y-1.5316
N10690 X4.3996 Y-1.5625
N10695 X4.4057 Y-1.5932
N10700 X4.4125 Y-1.6237
N10705 X4.4203 Y-1.654
N10710 X4.4298 Y-1.6838
N10715 X4.4373 Y-1.7023
N10720 X4.4433 Y-1.7142
N10725 X4.4485 Y-1.7223
N10730 X4.4554 Y-1.729
N10735 X4.4636 Y-1.734
N10740 X4.4727 Y-1.7372
N10745 X4.4823 Y-1.7383
N10750 X4.5576
N10755 G3 X4.5756 Y-1.7174 I-0.0007 J0.0187
N10760 G1 X4.5752 Y-1.7142 Z-0.2497
N10765 X4.5749 Y-1.711 Z-0.2489
N10770 X4.5745 Y-1.7081 Z-0.2475
N10775 X4.5742 Y-1.7054 Z-0.2456
N10780 X4.574 Y-1.7031 Z-0.2433
N10785 X4.5737 Y-1.7013 Z-0.2406
N10790 X4.5736 Y-1.6999 Z-0.2377
N10795 X4.5735 Y-1.699 Z-0.2345
N10800 Y-1.6988 Z-0.2312
N10805 Z-0.2125
N10810 X4.6675 Y-0.724
N10815 Z-0.2312
N10820 X4.6673 Y-0.7239 Z-0.2345
N10825 X4.6665 Y-0.7235 Z-0.2377
N10830 X4.6654 Y-0.7228 Z-0.2406
N10835 X4.6638 Y-0.7218 Z-0.2433
N10840 X4.6618 Y-0.7206 Z-0.2456
N10845 X4.6595 Y-0.7193 Z-0.2475
N10850 X4.6569 Y-0.7177 Z-0.2489
N10855 X4.6542 Y-0.7161 Z-0.2497
N10860 X4.6514 Y-0.7145 Z-0.25
N10865 G3 X4.6217 Y-0.7057 I-0.0318 J-0.0536
N10870 G1 X4.5435
N10875 X4.5375 Y-0.7061
N10880 X4.5303 Y-0.707
N10885 X4.5217 Y-0.7089
N10890 X4.5129 Y-0.7116
N10895 X4.503 Y-0.7155
N10900 X4.4919 Y-0.7209
N10905 X4.4807 Y-0.7276
N10910 X4.4675 Y-0.7369
N10915 X4.4547 Y-0.7476
N10920 X4.4401 Y-0.7619
N10925 X4.4251 Y-0.7792
N10930 X4.4094 Y-0.8007
N10935 X4.3929 Y-0.8273
N10940 X4.3786 Y-0.8552
N10945 X4.3661 Y-0.8838
N10950 X4.3552 Y-0.9132
N10955 X4.3456 Y-0.9429
N10960 X4.3371 Y-0.9731
N10965 X4.3298 Y-1.0035
N10970 X4.3234 Y-1.0341
N10975 X4.3179 Y-1.0649
N10980 X4.3133 Y-1.0959
N10985 X4.3095 Y-1.1269
N10990 X4.3064 Y-1.1581
N10995 X4.304 Y-1.1893
N11000 X4.3023 Y-1.2205
N11005 X4.3014 Y-1.2518
N11010 X4.301 Y-1.2831
N11015 X4.3013 Y-1.3144
N11020 X4.3022 Y-1.3457
N11025 X4.3037 Y-1.3769
N11030 X4.3058 Y-1.4081
N11035 X4.3086 Y-1.4393
N11040 X4.3119 Y-1.4704
N11045 X4.3158 Y-1.5015
N11050 X4.3203 Y-1.5325
N11055 X4.3255 Y-1.5633
N11060 X4.3313 Y-1.594
N11065 X4.338 Y-1.6246
N11070 X4.3458 Y-1.6549
N11075 X4.3551 Y-1.6845
N11080 X4.3624 Y-1.7025
N11085 X4.3682 Y-1.7141
N11090 X4.3734 Y-1.7222
N11095 X4.3804 Y-1.729
N11100 X4.3886 Y-1.734
N11105 X4.3977 Y-1.7372
N11110 X4.4073 Y-1.7383
N11115 X4.4823
N11120 G3 X4.5003 Y-1.7174 I-0.0007 J0.0187
N11125 G1 X4.4999 Y-1.7142 Z-0.2497
N11130 X4.4996 Y-1.711 Z-0.2489
N11135 X4.4993 Y-1.7081 Z-0.2475
N11140 X4.4989 Y-1.7054 Z-0.2456
N11145 X4.4987 Y-1.7031 Z-0.2433
N11150 X4.4985 Y-1.7013 Z-0.2406
N11155 X4.4983 Y-1.6999 Z-0.2377
N11160 X4.4982 Y-1.699 Z-0.2345
N11165 Y-1.6988 Z-0.2312
N11170 Z-0.2125
N11175 X4.5893 Y-0.724
N11180 Z-0.2312
N11185 X4.5891 Y-0.7239 Z-0.2345
N11190 X4.5883 Y-0.7235 Z-0.2377
N11195 X4.5872 Y-0.7228 Z-0.2406
N11200 X4.5855 Y-0.7218 Z-0.2433
N11205 X4.5836 Y-0.7206 Z-0.2456
N11210 X4.5813 Y-0.7193 Z-0.2475
N11215 X4.5787 Y-0.7177 Z-0.2489
N11220 X4.576 Y-0.7161 Z-0.2497
N11225 X4.5732 Y-0.7145 Z-0.25
N11230 G3 X4.5435 Y-0.7057 I-0.0318 J-0.0536
N11235 G1 X4.4724
N11240 X4.4637 Y-0.7062
N11245 X4.4565 Y-0.7071
N11250 X4.4481 Y-0.7089
N11255 X4.4392 Y-0.7116
N11260 X4.4295 Y-0.7154
N11265 X4.4184 Y-0.7207
N11270 X4.4073 Y-0.7273
N11275 X4.3942 Y-0.7365
N11280 X4.3816 Y-0.747
N11285 X4.367 Y-0.7612
N11290 X4.3524 Y-0.778
N11295 X4.3367 Y-0.7992
N11300 X4.3201 Y-0.8258
N11305 X4.3058 Y-0.8536
N11310 X4.2932 Y-0.8822
N11315 X4.2823 Y-0.9115
N11320 X4.2726 Y-0.9413
N11325 X4.2642 Y-0.9714
N11330 X4.2569 Y-1.0019
N11335 X4.2505 Y-1.0325
N11340 X4.245 Y-1.0633
N11345 X4.2404 Y-1.0943
N11350 X4.2365 Y-1.1253
N11355 X4.2334 Y-1.1564
N11360 X4.231 Y-1.1877
N11365 X4.2293 Y-1.2189
N11370 X4.2283 Y-1.2502
N11375 X4.2279 Y-1.2815
N11380 X4.2281 Y-1.3128
N11385 X4.2289 Y-1.344
N11390 X4.2303 Y-1.3753
N11395 X4.2322 Y-1.4065
N11400 X4.2348 Y-1.4377
N11405 X4.2379 Y-1.4688
N11410 X4.2416 Y-1.4999
N11415 X4.246 Y-1.5309
N11420 X4.2509 Y-1.5618
N11425 X4.2566 Y-1.5926
N11430 X4.2631 Y-1.6232
N11435 X4.2707 Y-1.6536
N11440 X4.2798 Y-1.6832
N11445 X4.2871 Y-1.7016
N11450 X4.2945 Y-1.7166
N11455 X4.2947 Y-1.717
N11460 X4.3017 Y-1.7258
N11465 X4.3107 Y-1.7326
N11470 X4.3211 Y-1.7368
N11475 X4.3323 Y-1.7383
N11480 X4.4073
N11485 G3 X4.4253 Y-1.7174 I-0.0007 J0.0187
N11490 G1 X4.4249 Y-1.7142 Z-0.2497
N11495 X4.4245 Y-1.711 Z-0.2489
N11500 X4.4242 Y-1.7081 Z-0.2475
N11505 X4.4239 Y-1.7054 Z-0.2456
N11510 X4.4236 Y-1.7031 Z-0.2433
N11515 X4.4234 Y-1.7013 Z-0.2406
N11520 X4.4233 Y-1.6999 Z-0.2377
N11525 X4.4232 Y-1.699 Z-0.2345
N11530 X4.4231 Y-1.6988 Z-0.2312
N11535 Z-0.2125
N11540 X4.5182 Y-0.724
N11545 Z-0.2312
N11550 X4.518 Y-0.7239 Z-0.2345
N11555 X4.5172 Y-0.7235 Z-0.2377
N11560 X4.5161 Y-0.7228 Z-0.2406
N11565 X4.5144 Y-0.7218 Z-0.2433
N11570 X4.5125 Y-0.7206 Z-0.2456
N11575 X4.5102 Y-0.7193 Z-0.2475
N11580 X4.5076 Y-0.7177 Z-0.2489
N11585 X4.5049 Y-0.7161 Z-0.2497
N11590 X4.5021 Y-0.7145 Z-0.25
N11595 G3 X4.4724 Y-0.7057 I-0.0318 J-0.0536
N11600 G1 X4.3942
N11605 X4.3882 Y-0.7061
N11610 X4.3807 Y-0.7072
N11615 X4.3719 Y-0.7093
N11620 X4.3631 Y-0.7122
N11625 X4.3527 Y-0.7165
N11630 X4.3419 Y-0.7221
N11635 X4.3302 Y-0.7294
N11640 X4.3172 Y-0.7389
N11645 X4.304 Y-0.7505
N11650 X4.2896 Y-0.7651
N11655 X4.2741 Y-0.7838
N11660 X4.2584 Y-0.8061
N11665 X4.2425 Y-0.8331
N11670 X4.2287 Y-0.8612
N11675 X4.2166 Y-0.89
N11680 X4.2061 Y-0.9195
N11685 X4.1969 Y-0.9494
N11690 X4.1888 Y-0.9797
N11695 X4.1818 Y-1.0102
N11700 X4.1758 Y-1.0408
N11705 X4.1706 Y-1.0717
N11710 X4.1662 Y-1.1027
N11715 X4.1626 Y-1.1338
N11720 X4.1597 Y-1.1649
N11725 X4.1574 Y-1.1961
N11730 X4.1559 Y-1.2274
N11735 X4.155 Y-1.2587
N11740 X4.1547 Y-1.29
N11745 X4.1549 Y-1.3213
N11750 X4.1558 Y-1.3525
N11755 X4.1573 Y-1.3838
N11760 X4.1593 Y-1.415
N11765 X4.1619 Y-1.4462
N11770 X4.165 Y-1.4773
N11775 X4.1688 Y-1.5084
N11780 X4.1732 Y-1.5394
N11785 X4.1782 Y-1.5703
N11790 X4.1839 Y-1.601
N11795 X4.1906 Y-1.6316
N11800 X4.1985 Y-1.6619
N11805 X4.2068 Y-1.6875
N11810 X4.2143 Y-1.7057
N11815 X4.2188 Y-1.7145
N11820 X4.2241 Y-1.7225
N11825 X4.231 Y-1.7291
N11830 X4.2392 Y-1.7341
N11835 X4.2482 Y-1.7372
N11840 X4.2578 Y-1.7383
N11845 X4.3323
N11850 G3 X4.3502 Y-1.7174 I-0.0007 J0.0187
N11855 G1 X4.3499 Y-1.7142 Z-0.2497
N11860 X4.3495 Y-1.711 Z-0.2489
N11865 X4.3492 Y-1.7081 Z-0.2475
N11870 X4.3489 Y-1.7054 Z-0.2456
N11875 X4.3486 Y-1.7031 Z-0.2433
N11880 X4.3484 Y-1.7013 Z-0.2406
N11885 X4.3483 Y-1.6999 Z-0.2377
N11890 X4.3482 Y-1.699 Z-0.2345
N11895 X4.3481 Y-1.6988 Z-0.2312
N11900 Z-0.2125
N11905 X4.44 Y-0.724
N11910 Z-0.2312
N11915 X4.4398 Y-0.7239 Z-0.2345
N11920 X4.439 Y-0.7235 Z-0.2377
N11925 X4.4378 Y-0.7228 Z-0.2406
N11930 X4.4362 Y-0.7218 Z-0.2433
N11935 X4.4342 Y-0.7206 Z-0.2456
N11940 X4.4319 Y-0.7193 Z-0.2475
N11945 X4.4294 Y-0.7177 Z-0.2489
N11950 X4.4267 Y-0.7161 Z-0.2497
N11955 X4.4239 Y-0.7145 Z-0.25
N11960 G3 X4.3942 Y-0.7057 I-0.0318 J-0.0536
N11965 G1 X4.3231
N11970 X4.3163 Y-0.7061
N11975 X4.309 Y-0.707
N11980 X4.301 Y-0.7088
N11985 X4.2916 Y-0.7116
N11990 X4.2822 Y-0.7152
N11995 X4.2712 Y-0.7206
N12000 X4.2599 Y-0.7272
N12005 X4.2475 Y-0.7359
N12010 X4.2343 Y-0.7469
N12015 X4.2201 Y-0.7607
N12020 X4.2056 Y-0.7774
N12025 X4.1899 Y-0.7986
N12030 X4.1733 Y-0.8252
N12035 X4.159 Y-0.853
N12040 X4.1465 Y-0.8817
N12045 X4.1356 Y-0.911
N12050 X4.126 Y-0.9408
N12055 X4.1177 Y-0.971
N12060 X4.1104 Y-1.0014
N12065 X4.1042 Y-1.0321
N12070 X4.0988 Y-1.0629
N12075 X4.0942 Y-1.0938
N12080 X4.0904 Y-1.1249
N12085 X4.0873 Y-1.156
N12090 X4.0849 Y-1.1872
N12095 X4.0831 Y-1.2185
N12100 X4.082 Y-1.2498
N12105 X4.0815 Y-1.281
N12110 Y-1.3123
N12115 X4.0822 Y-1.3436
N12120 X4.0834 Y-1.3749
N12125 X4.0851 Y-1.4061
N12130 X4.0875 Y-1.4373
N12135 X4.0903 Y-1.4685
N12140 X4.0938 Y-1.4996
N12145 X4.0978 Y-1.5306
N12150 X4.1025 Y-1.5616
N12155 X4.1079 Y-1.5924
N12160 X4.1142 Y-1.6231
N12165 X4.1216 Y-1.6535
N12170 X4.1303 Y-1.6822
N12175 X4.1375 Y-1.7009
N12180 X4.1449 Y-1.716
N12185 X4.1453 Y-1.7167
N12190 X4.1523 Y-1.7257
N12195 X4.1613 Y-1.7325
N12200 X4.1718 Y-1.7368
N12205 X4.183 Y-1.7383
N12210 X4.2578
N12215 G3 X4.2757 Y-1.7174 I-0.0007 J0.0187
N12220 G1 X4.2754 Y-1.7142 Z-0.2497
N12225 X4.275 Y-1.711 Z-0.2489
N12230 X4.2747 Y-1.7081 Z-0.2475
N12235 X4.2744 Y-1.7054 Z-0.2456
N12240 X4.2741 Y-1.7031 Z-0.2433
N12245 X4.2739 Y-1.7013 Z-0.2406
N12250 X4.2737 Y-1.6999 Z-0.2377
N12255 Y-1.699 Z-0.2345
N12260 X4.2736 Y-1.6988 Z-0.2312
N12265 Z-0.2125
N12270 X4.3689 Y-0.724
N12275 Z-0.2312
N12280 X4.3687 Y-0.7239 Z-0.2345
N12285 X4.3679 Y-0.7235 Z-0.2377
N12290 X4.3667 Y-0.7228 Z-0.2406
N12295 X4.3651 Y-0.7218 Z-0.2433
N12300 X4.3632 Y-0.7206 Z-0.2456
N12305 X4.3609 Y-0.7193 Z-0.2475
N12310 X4.3583 Y-0.7177 Z-0.2489
N12315 X4.3556 Y-0.7161 Z-0.2497
N12320 X4.3528 Y-0.7145 Z-0.25
N12325 G3 X4.3231 Y-0.7057 I-0.0318 J-0.0536
N12330 G1 X4.252
N12335 X4.2426 Y-0.7062
N12340 X4.2354 Y-0.7072
N12345 X4.2269 Y-0.709
N12350 X4.2183 Y-0.7116
N12355 X4.2085 Y-0.7154
N12360 X4.1977 Y-0.7206
N12365 X4.1865 Y-0.7272
N12370 X4.1736 Y-0.7363
N12375 X4.161 Y-0.7467
N12380 X4.1467 Y-0.7607
N12385 X4.132 Y-0.7775
N12390 X4.1166 Y-0.7984
N12395 X4.1001 Y-0.8248
N12400 X4.0858 Y-0.8526
N12405 X4.0733 Y-0.8813
N12410 X4.0624 Y-0.9106
N12415 X4.0529 Y-0.9404
N12420 X4.0446 Y-0.9706
N12425 X4.0373 Y-1.001
N12430 X4.0311 Y-1.0317
N12435 X4.0257 Y-1.0625
N12440 X4.0211 Y-1.0935
N12445 X4.0173 Y-1.1245
N12450 X4.0142 Y-1.1557
N12455 X4.0117 Y-1.1869
N12460 X4.0099 Y-1.2181
N12465 X4.0088 Y-1.2494
N12470 X4.0082 Y-1.2807
N12475 Y-1.312
N12480 X4.0088 Y-1.3433
N12485 X4.0099 Y-1.3745
N12490 X4.0116 Y-1.4058
N12495 X4.0138 Y-1.437
N12500 X4.0165 Y-1.4682
N12505 X4.0199 Y-1.4993
N12510 X4.0238 Y-1.5303
N12515 X4.0284 Y-1.5613
N12520 X4.0337 Y-1.5921
N12525 X4.0399 Y-1.6228
N12530 X4.0471 Y-1.6532
N12535 X4.0559 Y-1.6824
N12540 X4.0634 Y-1.7017
N12545 X4.07 Y-1.7153
N12550 X4.0708 Y-1.7167
N12555 X4.0778 Y-1.7256
N12560 X4.0868 Y-1.7325
N12565 X4.0973 Y-1.7368
N12570 X4.1085 Y-1.7383
N12575 X4.183
N12580 G3 X4.201 Y-1.7174 I-0.0007 J0.0187
N12585 G1 X4.2006 Y-1.7142 Z-0.2497
N12590 X4.2003 Y-1.711 Z-0.2489
N12595 X4.1999 Y-1.7081 Z-0.2475
N12600 X4.1996 Y-1.7054 Z-0.2456
N12605 X4.1994 Y-1.7031 Z-0.2433
N12610 X4.1991 Y-1.7013 Z-0.2406
N12615 X4.199 Y-1.6999 Z-0.2377
N12620 X4.1989 Y-1.699 Z-0.2345
N12625 Y-1.6988 Z-0.2312
N12630 Z-0.2125
N12635 X4.2978 Y-0.724
N12640 Z-0.2312
N12645 X4.2976 Y-0.7239 Z-0.2345
N12650 X4.2968 Y-0.7235 Z-0.2377
N12655 X4.2957 Y-0.7228 Z-0.2406
N12660 X4.294 Y-0.7218 Z-0.2433
N12665 X4.2921 Y-0.7206 Z-0.2456
N12670 X4.2898 Y-0.7193 Z-0.2475
N12675 X4.2872 Y-0.7177 Z-0.2489
N12680 X4.2845 Y-0.7161 Z-0.2497
N12685 X4.2817 Y-0.7145 Z-0.25
N12690 G3 X4.252 Y-0.7057 I-0.0318 J-0.0536
N12695 G1 X4.1738
N12700 X4.1678 Y-0.7061
N12705 X4.1604 Y-0.7072
N12710 X4.1517 Y-0.7092
N12715 X4.1429 Y-0.712
N12720 X4.1326 Y-0.7162
N12725 X4.122 Y-0.7217
N12730 X4.1103 Y-0.7288
N12735 X4.0975 Y-0.7382
N12740 X4.0844 Y-0.7495
N12745 X4.0702 Y-0.7639
N12750 X4.0549 Y-0.7821
N12755 X4.0395 Y-0.8038
N12760 X4.0234 Y-0.8307
N12765 X4.0096 Y-0.8587
N12770 X3.9975 Y-0.8876
N12775 X3.9869 Y-0.9171
N12780 X3.9777 Y-0.947
N12785 X3.9697 Y-0.9772
N12790 X3.9627 Y-1.0077
N12795 X3.9566 Y-1.0384
N12800 X3.9515 Y-1.0693
N12805 X3.9471 Y-1.1003
N12810 X3.9434 Y-1.1313
N12815 X3.9404 Y-1.1625
N12820 X3.9381 Y-1.1937
N12825 X3.9364 Y-1.225
N12830 X3.9354 Y-1.2562
N12835 X3.9348 Y-1.2875
N12840 X3.9349 Y-1.3188
N12845 X3.9355 Y-1.3501
N12850 X3.9367 Y-1.3814
N12855 X3.9384 Y-1.4126
N12860 X3.9406 Y-1.4438
N12865 X3.9434 Y-1.475
N12870 X3.9468 Y-1.5061
N12875 X3.9508 Y-1.5371
N12880 X3.9554 Y-1.5681
N12885 X3.9608 Y-1.5989
N12890 X3.9672 Y-1.6295
N12895 X3.9747 Y-1.6599
N12900 X3.9828 Y-1.6857
N12905 X3.9902 Y-1.7042
N12910 X3.9951 Y-1.714
N12915 X4.0004 Y-1.7222
N12920 X4.0073 Y-1.7289
N12925 X4.0155 Y-1.734
N12930 X4.0246 Y-1.7372
N12935 X4.0343 Y-1.7383
N12940 X4.1085
N12945 G3 X4.1265 Y-1.7174 I-0.0007 J0.0187
N12950 G1 X4.1261 Y-1.7142 Z-0.2497
N12955 X4.1258 Y-1.711 Z-0.2489
N12960 X4.1254 Y-1.7081 Z-0.2475
N12965 X4.1251 Y-1.7054 Z-0.2456
N12970 X4.1249 Y-1.7031 Z-0.2433
N12975 X4.1246 Y-1.7013 Z-0.2406
N12980 X4.1245 Y-1.6999 Z-0.2377
N12985 X4.1244 Y-1.699 Z-0.2345
N12990 Y-1.6988 Z-0.2312
N12995 Z-0.2125
N13000 X4.2196 Y-0.724
N13005 Z-0.2312
N13010 X4.2194 Y-0.7239 Z-0.2345
N13015 X4.2186 Y-0.7235 Z-0.2377
N13020 X4.2174 Y-0.7228 Z-0.2406
N13025 X4.2158 Y-0.7218 Z-0.2433
N13030 X4.2138 Y-0.7206 Z-0.2456
N13035 X4.2115 Y-0.7193 Z-0.2475
N13040 X4.209 Y-0.7177 Z-0.2489
N13045 X4.2063 Y-0.7161 Z-0.2497
N13050 X4.2035 Y-0.7145 Z-0.25
N13055 G3 X4.1738 Y-0.7057 I-0.0318 J-0.0536
N13060 G1 X4.1027
N13065 X4.0956 Y-0.7061
N13070 X4.0885 Y-0.707
N13075 X4.0804 Y-0.7088
N13080 X4.0712 Y-0.7115
N13085 X4.0618 Y-0.7152
N13090 X4.0507 Y-0.7206
N13095 X4.0397 Y-0.727
N13100 X4.0271 Y-0.7359
N13105 X4.0142 Y-0.7466
N13110 X3.9999 Y-0.7605
N13115 X3.9857 Y-0.7769
N13120 X3.9701 Y-0.7979
N13125 X3.9537 Y-0.8242
N13130 X3.9394 Y-0.8521
N13135 X3.9269 Y-0.8808
N13140 X3.916 Y-0.9101
N13145 X3.9065 Y-0.9399
N13150 X3.8982 Y-0.9701
N13155 X3.891 Y-1.0005
N13160 X3.8847 Y-1.0312
N13165 X3.8794 Y-1.062
N13170 X3.8748 Y-1.093
N13175 X3.871 Y-1.124
N13180 X3.8679 Y-1.1552
N13185 X3.8654 Y-1.1864
N13190 X3.8636 Y-1.2176
N13195 X3.8623 Y-1.2489
N13200 X3.8616 Y-1.2802
N13205 X3.8615 Y-1.3114
N13210 X3.8619 Y-1.3427
N13215 X3.8629 Y-1.374
N13220 X3.8644 Y-1.4053
N13225 X3.8664 Y-1.4365
N13230 X3.869 Y-1.4677
N13235 X3.8721 Y-1.4988
N13240 X3.8758 Y-1.5299
N13245 X3.8802 Y-1.5609
N13250 X3.8854 Y-1.5917
N13255 X3.8913 Y-1.6225
N13260 X3.8985 Y-1.6529
N13265 X3.907 Y-1.6818
N13270 X3.9141 Y-1.7003
N13275 X3.9213 Y-1.7154
N13280 X3.922 Y-1.7165
N13285 X3.929 Y-1.7255
N13290 X3.938 Y-1.7324
N13295 X3.9485 Y-1.7368
N13300 X3.9598 Y-1.7383
N13305 X4.0343
N13310 G3 X4.0522 Y-1.7174 I-0.0007 J0.0187
N13315 G1 X4.0519 Y-1.7142 Z-0.2497
N13320 X4.0515 Y-1.711 Z-0.2489
N13325 X4.0512 Y-1.7081 Z-0.2475
N13330 X4.0509 Y-1.7054 Z-0.2456
N13335 X4.0506 Y-1.7031 Z-0.2433
N13340 X4.0504 Y-1.7013 Z-0.2406
N13345 X4.0502 Y-1.6999 Z-0.2377
N13350 X4.0501 Y-1.699 Z-0.2345
N13355 Y-1.6988 Z-0.2312
N13360 Z-0.2125
N13365 X4.1485 Y-0.724
N13370 Z-0.2312
N13375 X4.1483 Y-0.7239 Z-0.2345
N13380 X4.1475 Y-0.7235 Z-0.2377
N13385 X4.1463 Y-0.7228 Z-0.2406
N13390 X4.1447 Y-0.7218 Z-0.2433
N13395 X4.1427 Y-0.7206 Z-0.2456
N13400 X4.1404 Y-0.7193 Z-0.2475
N13405 X4.1379 Y-0.7177 Z-0.2489
N13410 X4.1352 Y-0.7161 Z-0.2497
N13415 X4.1324 Y-0.7145 Z-0.25
N13420 G3 X4.1027 Y-0.7057 I-0.0318 J-0.0536
N13425 G1 X4.0316
N13430 X4.0222 Y-0.7062
N13435 X4.0151 Y-0.7072
N13440 X4.0066 Y-0.709
N13445 X3.9981 Y-0.7115
N13450 X3.9882 Y-0.7154
N13455 X3.9776 Y-0.7205
N13460 X3.9664 Y-0.7271
N13465 X3.9535 Y-0.7361
N13470 X3.941 Y-0.7466
N13475 X3.9267 Y-0.7604
N13480 X3.9121 Y-0.7772
N13485 X3.8968 Y-0.7978
N13490 X3.8805 Y-0.8241
N13495 X3.8662 Y-0.8519
N13500 X3.8537 Y-0.8806
N13505 X3.8428 Y-0.9099
N13510 X3.8333 Y-0.9397
N13515 X3.8251 Y-0.9699
N13520 X3.8179 Y-1.0004
N13525 X3.8116 Y-1.031
N13530 X3.8062 Y-1.0618
N13535 X3.8017 Y-1.0928
N13540 X3.7978 Y-1.1239
N13545 X3.7947 Y-1.155
N13550 X3.7922 Y-1.1862
N13555 X3.7903 Y-1.2174
N13560 X3.789 Y-1.2487
N13565 X3.7883 Y-1.28
N13570 X3.7881 Y-1.3113
N13575 X3.7885 Y-1.3425
N13580 X3.7894 Y-1.3738
N13585 X3.7908 Y-1.4051
N13590 X3.7927 Y-1.4363
N13595 X3.7952 Y-1.4675
N13600 X3.7983 Y-1.4987
N13605 X3.8019 Y-1.5297
N13610 X3.8062 Y-1.5607
N13615 X3.8113 Y-1.5916
N13620 X3.8172 Y-1.6223
N13625 X3.8243 Y-1.6528
N13630 X3.8328 Y-1.6817
N13635 X3.8402 Y-1.7011
N13640 X3.8467 Y-1.7147
N13645 X3.8477 Y-1.7165
N13650 X3.8547 Y-1.7255
N13655 X3.8637 Y-1.7324
N13660 X3.8743 Y-1.7368
N13665 X3.8856 Y-1.7383
N13670 X3.9598
N13675 G3 X3.9778 Y-1.7174 I-0.0007 J0.0187
N13680 G1 X3.9774 Y-1.7142 Z-0.2497
N13685 X3.9771 Y-1.711 Z-0.2489
N13690 X3.9767 Y-1.7081 Z-0.2475
N13695 X3.9764 Y-1.7054 Z-0.2456
N13700 X3.9762 Y-1.7031 Z-0.2433
N13705 X3.9759 Y-1.7013 Z-0.2406
N13710 X3.9758 Y-1.6999 Z-0.2377
N13715 X3.9757 Y-1.699 Z-0.2345
N13720 Y-1.6988 Z-0.2312
N13725 Z-0.2125
N13730 X4.0774 Y-0.724
N13735 Z-0.2312
N13740 X4.0772 Y-0.7239 Z-0.2345
N13745 X4.0764 Y-0.7235 Z-0.2377
N13750 X4.0752 Y-0.7228 Z-0.2406
N13755 X4.0736 Y-0.7218 Z-0.2433
N13760 X4.0716 Y-0.7206 Z-0.2456
N13765 X4.0693 Y-0.7193 Z-0.2475
N13770 X4.0668 Y-0.7177 Z-0.2489
N13775 X4.0641 Y-0.7161 Z-0.2497
N13780 X4.0613 Y-0.7145 Z-0.25
N13785 G3 X4.0316 Y-0.7057 I-0.0318 J-0.0536
N13790 G1 X3.9534
N13795 X3.9474 Y-0.7061
N13800 X3.9399 Y-0.7072
N13805 X3.9312 Y-0.7093
N13810 X3.9225 Y-0.7121
N13815 X3.9121 Y-0.7164
N13820 X3.9016 Y-0.7218
N13825 X3.8898 Y-0.7291
N13830 X3.8771 Y-0.7384
N13835 X3.864 Y-0.7498
N13840 X3.8499 Y-0.7642
N13845 X3.8346 Y-0.7825
N13850 X3.8192 Y-0.8044
N13855 X3.8032 Y-0.8313
N13860 X3.7894 Y-0.8594
N13865 X3.7774 Y-0.8883
N13870 X3.7669 Y-0.9178
N13875 X3.7578 Y-0.9477
N13880 X3.7499 Y-0.978
N13885 X3.7429 Y-1.0085
N13890 X3.7369 Y-1.0392
N13895 X3.7318 Y-1.0701
N13900 X3.7274 Y-1.1011
N13905 X3.7237 Y-1.1321
N13910 X3.7207 Y-1.1633
N13915 X3.7184 Y-1.1945
N13920 X3.7166 Y-1.2257
N13925 X3.7154 Y-1.257
N13930 X3.7148 Y-1.2883
N13935 X3.7147 Y-1.3196
N13940 X3.7152 Y-1.3509
N13945 X3.7161 Y-1.3821
N13950 X3.7176 Y-1.4134
N13955 X3.7196 Y-1.4446
N13960 X3.7222 Y-1.4758
N13965 X3.7253 Y-1.507
N13970 X3.7291 Y-1.538
N13975 X3.7335 Y-1.569
N13980 X3.7387 Y-1.5998
N13985 X3.7449 Y-1.6305
N13990 X3.7524 Y-1.6609
N13995 X3.7601 Y-1.6858
N14000 X3.7675 Y-1.7042
N14005 X3.7723 Y-1.714
N14010 X3.7776 Y-1.7221
N14015 X3.7845 Y-1.7289
N14020 X3.7927 Y-1.734
N14025 X3.8019 Y-1.7372
N14030 X3.8115 Y-1.7383
N14035 X3.8856
N14040 G3 X3.9035 Y-1.7174 I-0.0007 J0.0187
N14045 G1 X3.9032 Y-1.7142 Z-0.2497
N14050 X3.9028 Y-1.711 Z-0.2489
N14055 X3.9025 Y-1.7081 Z-0.2475
N14060 X3.9022 Y-1.7054 Z-0.2456
N14065 X3.9019 Y-1.7031 Z-0.2433
N14070 X3.9017 Y-1.7013 Z-0.2406
N14075 X3.9015 Y-1.6999 Z-0.2377
N14080 Y-1.699 Z-0.2345
N14085 X3.9014 Y-1.6988 Z-0.2312
N14090 Z-0.2125
N14095 X3.9992 Y-0.724
N14100 Z-0.2312
N14105 X3.999 Y-0.7239 Z-0.2345
N14110 X3.9982 Y-0.7235 Z-0.2377
N14115 X3.997 Y-0.7228 Z-0.2406
N14120 X3.9954 Y-0.7218 Z-0.2433
N14125 X3.9934 Y-0.7206 Z-0.2456
N14130 X3.9911 Y-0.7193 Z-0.2475
N14135 X3.9886 Y-0.7177 Z-0.2489
N14140 X3.9859 Y-0.7161 Z-0.2497
N14145 X3.9831 Y-0.7145 Z-0.25
N14150 G3 X3.9534 Y-0.7057 I-0.0318 J-0.0536
N14155 G1 X3.8823
N14160 X3.8756 Y-0.7061
N14165 X3.8685 Y-0.707
N14170 X3.8604 Y-0.7087
N14175 X3.8512 Y-0.7115
N14180 X3.8418 Y-0.7152
N14185 X3.8308 Y-0.7205
N14190 X3.8198 Y-0.727
N14195 X3.8073 Y-0.7358
N14200 X3.7943 Y-0.7465
N14205 X3.7802 Y-0.7603
N14210 X3.7659 Y-0.7767
N14215 X3.7504 Y-0.7977
N14220 X3.7341 Y-0.8239
N14225 X3.7197 Y-0.8517
N14230 X3.7073 Y-0.8804
N14235 X3.6964 Y-0.9097
N14240 X3.6869 Y-0.9395
N14245 X3.6787 Y-0.9697
N14250 X3.6715 Y-1.0002
N14255 X3.6652 Y-1.0308
N14260 X3.6598 Y-1.0617
N14265 X3.6553 Y-1.0926
N14270 X3.6514 Y-1.1237
N14275 X3.6482 Y-1.1548
N14280 X3.6457 Y-1.186
N14285 X3.6437 Y-1.2172
N14290 X3.6424 Y-1.2485
N14295 X3.6416 Y-1.2798
N14300 X3.6413 Y-1.3111
N14305 X3.6415 Y-1.3424
N14310 X3.6423 Y-1.3736
N14315 X3.6436 Y-1.4049
N14320 X3.6454 Y-1.4361
N14325 X3.6477 Y-1.4673
N14330 X3.6506 Y-1.4985
N14335 X3.6542 Y-1.5296
N14340 X3.6583 Y-1.5606
N14345 X3.6632 Y-1.5915
N14350 X3.669 Y-1.6223
N14355 X3.6761 Y-1.6528
N14360 X3.6844 Y-1.6814
N14365 X3.6914 Y-1.6999
N14370 X3.6986 Y-1.715
N14375 X3.6994 Y-1.7164
N14380 X3.7063 Y-1.7254
N14385 X3.7154 Y-1.7324
N14390 X3.7259 Y-1.7368
N14395 X3.7372 Y-1.7383
N14400 X3.8115
N14405 G3 X3.8295 Y-1.7174 I-0.0007 J0.0187
N14410 G1 X3.8291 Y-1.7142 Z-0.2497
N14415 X3.8288 Y-1.711 Z-0.2489
N14420 X3.8284 Y-1.7081 Z-0.2475
N14425 X3.8281 Y-1.7054 Z-0.2456
N14430 X3.8279 Y-1.7031 Z-0.2433
N14435 X3.8276 Y-1.7013 Z-0.2406
N14440 X3.8275 Y-1.6999 Z-0.2377
N14445 X3.8274 Y-1.699 Z-0.2345
N14450 Y-1.6988 Z-0.2312
N14455 Z-0.2125
N14460 X3.9281 Y-0.724
N14465 Z-0.2312
N14470 X3.9279 Y-0.7239 Z-0.2345
N14475 X3.9271 Y-0.7235 Z-0.2377
N14480 X3.9259 Y-0.7228 Z-0.2406
N14485 X3.9243 Y-0.7218 Z-0.2433
N14490 X3.9223 Y-0.7206 Z-0.2456
N14495 X3.92 Y-0.7193 Z-0.2475
N14500 X3.9175 Y-0.7177 Z-0.2489
N14505 X3.9148 Y-0.7161 Z-0.2497
N14510 X3.912 Y-0.7145 Z-0.25
N14515 G3 X3.8823 Y-0.7057 I-0.0318 J-0.0536
N14520 G1 X3.8112
N14525 X3.8023 Y-0.7062
N14530 X3.7952 Y-0.7071
N14535 X3.7867 Y-0.7089
N14540 X3.7782 Y-0.7115
N14545 X3.7683 Y-0.7153
N14550 X3.7577 Y-0.7205
N14555 X3.7465 Y-0.7271
N14560 X3.7337 Y-0.7361
N14565 X3.7212 Y-0.7465
N14570 X3.707 Y-0.7603
N14575 X3.6924 Y-0.777
N14580 X3.6772 Y-0.7976
N14585 X3.6609 Y-0.8238
N14590 X3.6466 Y-0.8516
N14595 X3.6341 Y-0.8803
N14600 X3.6232 Y-0.9096
N14605 X3.6138 Y-0.9394
N14610 X3.6055 Y-0.9696
N14615 X3.5983 Y-1.0001
N14620 X3.592 Y-1.0307
N14625 X3.5866 Y-1.0615
N14630 X3.582 Y-1.0925
N14635 X3.5782 Y-1.1235
N14640 X3.5749 Y-1.1547
N14645 X3.5724 Y-1.1859
N14650 X3.5704 Y-1.2171
N14655 X3.569 Y-1.2484
N14660 X3.5681 Y-1.2796
N14665 X3.5678 Y-1.3109
N14670 X3.568 Y-1.3422
N14675 X3.5687 Y-1.3735
N14680 X3.57 Y-1.4048
N14685 X3.5717 Y-1.436
N14690 X3.574 Y-1.4672
N14695 X3.5769 Y-1.4984
N14700 X3.5803 Y-1.5295
N14705 X3.5844 Y-1.5605
N14710 X3.5893 Y-1.5914
N14715 X3.5951 Y-1.6222
N14720 X3.602 Y-1.6527
N14725 X3.6103 Y-1.6814
N14730 X3.6177 Y-1.7007
N14735 X3.6241 Y-1.7143
N14740 X3.6253 Y-1.7163
N14745 X3.6306 Y-1.7238
N14750 X3.6374 Y-1.7299
N14755 X3.6454 Y-1.7345
N14760 X3.6541 Y-1.7373
N14765 X3.6632 Y-1.7383
N14770 X3.7372
N14775 G3 X3.7552 Y-1.7174 I-0.0007 J0.0187
N14780 G1 X3.7549 Y-1.7142 Z-0.2497
N14785 X3.7545 Y-1.711 Z-0.2489
N14790 X3.7542 Y-1.7081 Z-0.2475
N14795 X3.7539 Y-1.7054 Z-0.2456
N14800 X3.7536 Y-1.7031 Z-0.2433
N14805 X3.7534 Y-1.7013 Z-0.2406
N14810 X3.7532 Y-1.6999 Z-0.2377
N14815 X3.7531 Y-1.699 Z-0.2345
N14820 Y-1.6988 Z-0.2312
N14825 Z-0.2125
N14830 X3.857 Y-0.724
N14835 Z-0.2312
N14840 X3.8568 Y-0.7239 Z-0.2345
N14845 X3.856 Y-0.7235 Z-0.2377
N14850 X3.8548 Y-0.7228 Z-0.2406
N14855 X3.8532 Y-0.7218 Z-0.2433
N14860 X3.8512 Y-0.7206 Z-0.2456
N14865 X3.8489 Y-0.7193 Z-0.2475
N14870 X3.8464 Y-0.7177 Z-0.2489
N14875 X3.8437 Y-0.7161 Z-0.2497
N14880 X3.8409 Y-0.7145 Z-0.25
N14885 G3 X3.8112 Y-0.7057 I-0.0318 J-0.0536
N14890 G1 X3.7362
N14895 X3.7292 Y-0.7061
N14900 X3.7221 Y-0.707
N14905 X3.7136 Y-0.7089
N14910 X3.705 Y-0.7114
N14915 X3.6951 Y-0.7153
N14920 X3.6845 Y-0.7204
N14925 X3.6733 Y-0.727
N14930 X3.6606 Y-0.736
N14935 X3.648 Y-0.7464
N14940 X3.6338 Y-0.7602
N14945 X3.6193 Y-0.7769
N14950 X3.604 Y-0.7975
N14955 X3.5878 Y-0.8237
N14960 X3.5734 Y-0.8515
N14965 X3.5609 Y-0.8802
N14970 X3.5501 Y-0.9095
N14975 X3.5406 Y-0.9393
N14980 X3.5323 Y-0.9695
N14985 X3.5251 Y-1.
N14990 X3.5188 Y-1.0306
N14995 X3.5134 Y-1.0614
N15000 X3.5088 Y-1.0924
N15005 X3.5049 Y-1.1234
N15010 X3.5017 Y-1.1546
N15015 X3.4991 Y-1.1857
N15020 X3.497 Y-1.217
N15025 X3.4956 Y-1.2482
N15030 X3.4947 Y-1.2795
N15035 X3.4944 Y-1.3108
N15040 X3.4945 Y-1.3421
N15045 X3.4952 Y-1.3734
N15050 X3.4964 Y-1.4046
N15055 X3.4981 Y-1.4359
N15060 X3.5003 Y-1.4671
N15065 X3.5031 Y-1.4983
N15070 X3.5065 Y-1.5294
N15075 X3.5105 Y-1.5604
N15080 X3.5154 Y-1.5913
N15085 X3.5211 Y-1.6221
N15090 X3.528 Y-1.6526
N15095 X3.5363 Y-1.6812
N15100 X3.5434 Y-1.7003
N15105 X3.5503 Y-1.7148
N15110 X3.5511 Y-1.7163
N15115 X3.5565 Y-1.7237
N15120 X3.5633 Y-1.7299
N15125 X3.5713 Y-1.7345
N15130 X3.58 Y-1.7373
N15135 X3.5891 Y-1.7383
N15140 X3.6632
N15145 G3 X3.6812 Y-1.7174 I-0.0007 J0.0187
N15150 G1 X3.6808 Y-1.7142 Z-0.2497
N15155 X3.6804 Y-1.711 Z-0.2489
N15160 X3.6801 Y-1.7081 Z-0.2475
N15165 X3.6798 Y-1.7054 Z-0.2456
N15170 X3.6795 Y-1.7031 Z-0.2433
N15175 X3.6793 Y-1.7013 Z-0.2406
N15180 X3.6792 Y-1.6999 Z-0.2377
N15185 X3.6791 Y-1.699 Z-0.2345
N15190 X3.679 Y-1.6988 Z-0.2312
N15195 Z-0.2125
N15200 X3.782 Y-0.724
N15205 Z-0.2312
N15210 X3.7817 Y-0.7239 Z-0.2345
N15215 X3.781 Y-0.7235 Z-0.2377
N15220 X3.7798 Y-0.7228 Z-0.2406
N15225 X3.7782 Y-0.7218 Z-0.2433
N15230 X3.7762 Y-0.7206 Z-0.2456
N15235 X3.7739 Y-0.7193 Z-0.2475
N15240 X3.7714 Y-0.7177 Z-0.2489
N15245 X3.7687 Y-0.7161 Z-0.2497
N15250 X3.7659 Y-0.7145 Z-0.25
N15255 G3 X3.7362 Y-0.7057 I-0.0318 J-0.0536
N15260 G1 X3.6619
N15265 X3.6559 Y-0.7061
N15270 X3.6487 Y-0.707
N15275 X3.6403 Y-0.7088
N15280 X3.6317 Y-0.7114
N15285 X3.6218 Y-0.7153
N15290 X3.6112 Y-0.7204
N15295 X3.6 Y-0.727
N15300 X3.5872 Y-0.736
N15305 X3.5746 Y-0.7465
N15310 X3.5605 Y-0.7603
N15315 X3.5459 Y-0.7772
N15320 X3.5306 Y-0.7978
N15325 X3.5144 Y-0.824
N15330 X3.5 Y-0.8518
N15335 X3.4876 Y-0.8805
N15340 X3.4768 Y-0.9099
N15345 X3.4673 Y-0.9397
N15350 X3.459 Y-0.9699
N15355 X3.4518 Y-1.0003
N15360 X3.4455 Y-1.031
N15365 X3.4401 Y-1.0618
N15370 X3.4355 Y-1.0928
N15375 X3.4316 Y-1.1238
N15380 X3.4283 Y-1.1549
N15385 X3.4257 Y-1.1861
N15390 X3.4237 Y-1.2173
N15395 X3.4222 Y-1.2486
N15400 X3.4213 Y-1.2799
N15405 X3.4209 Y-1.3112
N15410 X3.421 Y-1.3425
N15415 X3.4216 Y-1.3737
N15420 X3.4228 Y-1.405
N15425 X3.4244 Y-1.4363
N15430 X3.4266 Y-1.4675
N15435 X3.4294 Y-1.4987
N15440 X3.4327 Y-1.5298
N15445 X3.4368 Y-1.5608
N15450 X3.4416 Y-1.5917
N15455 X3.4473 Y-1.6225
N15460 X3.4542 Y-1.653
N15465 X3.4624 Y-1.6815
N15470 X3.4695 Y-1.7004
N15475 X3.4764 Y-1.7149
N15480 X3.4771 Y-1.7163
N15485 X3.4825 Y-1.7237
N15490 X3.4893 Y-1.7299
N15495 X3.4973 Y-1.7345
N15500 X3.506 Y-1.7373
N15505 X3.5151 Y-1.7383
N15510 X3.5891
N15515 G3 X3.6071 Y-1.7174 I-0.0007 J0.0187
N15520 G1 X3.6067 Y-1.7142 Z-0.2497
N15525 X3.6063 Y-1.711 Z-0.2489
N15530 X3.606 Y-1.7081 Z-0.2475
N15535 X3.6057 Y-1.7054 Z-0.2456
N15540 X3.6054 Y-1.7031 Z-0.2433
N15545 X3.6052 Y-1.7013 Z-0.2406
N15550 X3.6051 Y-1.6999 Z-0.2377
N15555 X3.605 Y-1.699 Z-0.2345
N15560 X3.6049 Y-1.6988 Z-0.2312
N15565 Z-0.2125
N15570 X3.7077 Y-0.724
N15575 Z-0.2312
N15580 X3.7074 Y-0.7239 Z-0.2345
N15585 X3.7067 Y-0.7235 Z-0.2377
N15590 X3.7055 Y-0.7228 Z-0.2406
N15595 X3.7039 Y-0.7218 Z-0.2433
N15600 X3.7019 Y-0.7206 Z-0.2456
N15605 X3.6996 Y-0.7193 Z-0.2475
N15610 X3.6971 Y-0.7177 Z-0.2489
N15615 X3.6944 Y-0.7161 Z-0.2497
N15620 X3.6916 Y-0.7145 Z-0.25
N15625 G3 X3.6619 Y-0.7057 I-0.0318 J-0.0536
N15630 G1 X3.5908
N15635 X3.5827 Y-0.7062
N15640 X3.5755 Y-0.7071
N15645 X3.5671 Y-0.7089
N15650 X3.5585 Y-0.7115
N15655 X3.5487 Y-0.7153
N15660 X3.5381 Y-0.7204
N15665 X3.5269 Y-0.727
N15670 X3.5141 Y-0.736
N15675 X3.5016 Y-0.7464
N15680 X3.4874 Y-0.7602
N15685 X3.4729 Y-0.7769
N15690 X3.4576 Y-0.7975
N15695 X3.4414 Y-0.8236
N15700 X3.427 Y-0.8514
N15705 X3.4146 Y-0.8801
N15710 X3.4037 Y-0.9095
N15715 X3.3942 Y-0.9393
N15720 X3.3859 Y-0.9694
N15725 X3.3787 Y-0.9999
N15730 X3.3724 Y-1.0305
N15735 X3.3669 Y-1.0614
N15740 X3.3623 Y-1.0923
N15745 X3.3583 Y-1.1233
N15750 X3.355 Y-1.1545
N15755 X3.3524 Y-1.1856
N15760 X3.3503 Y-1.2169
N15765 X3.3488 Y-1.2481
N15770 X3.3478 Y-1.2794
N15775 X3.3474 Y-1.3107
N15780 X3.3475 Y-1.342
N15785 X3.3481 Y-1.3733
N15790 X3.3492 Y-1.4045
N15795 X3.3508 Y-1.4358
N15800 X3.3529 Y-1.467
N15805 X3.3556 Y-1.4982
N15810 X3.3589 Y-1.5293
N15815 X3.3629 Y-1.5603
N15820 X3.3676 Y-1.5913
N15825 X3.3733 Y-1.622
N15830 X3.3802 Y-1.6526
N15835 X3.3883 Y-1.6812
N15840 X3.3955 Y-1.7002
N15845 X3.4023 Y-1.7147
N15850 X3.4031 Y-1.7162
N15855 X3.4085 Y-1.7237
N15860 X3.4153 Y-1.7298
N15865 X3.4233 Y-1.7344
N15870 X3.432 Y-1.7373
N15875 X3.4411 Y-1.7383
N15880 X3.5151
N15885 G3 X3.5331 Y-1.7174 I-0.0007 J0.0187
N15890 G1 X3.5327 Y-1.7142 Z-0.2497
N15895 X3.5323 Y-1.711 Z-0.2489
N15900 X3.532 Y-1.7081 Z-0.2475
N15905 X3.5317 Y-1.7054 Z-0.2456
N15910 X3.5314 Y-1.7031 Z-0.2433
N15915 X3.5312 Y-1.7013 Z-0.2406
N15920 X3.5311 Y-1.6999 Z-0.2377
N15925 X3.531 Y-1.699 Z-0.2345
N15930 X3.5309 Y-1.6988 Z-0.2312
N15935 Z-0.2125
N15940 X3.6366 Y-0.724
N15945 Z-0.2312
N15950 X3.6363 Y-0.7239 Z-0.2345
N15955 X3.6356 Y-0.7235 Z-0.2377
N15960 X3.6344 Y-0.7228 Z-0.2406
N15965 X3.6328 Y-0.7218 Z-0.2433
N15970 X3.6308 Y-0.7206 Z-0.2456
N15975 X3.6285 Y-0.7193 Z-0.2475
N15980 X3.626 Y-0.7177 Z-0.2489
N15985 X3.6233 Y-0.7161 Z-0.2497
N15990 X3.6205 Y-0.7145 Z-0.25
N15995 G3 X3.5908 Y-0.7057 I-0.0318 J-0.0536
N16000 G1 X3.5197
N16005 X3.5094 Y-0.7063
N16010 X3.5022 Y-0.7072
N16015 X3.4938 Y-0.709
N16020 X3.4852 Y-0.7116
N16025 X3.4754 Y-0.7154
N16030 X3.4648 Y-0.7205
N16035 X3.4536 Y-0.7271
N16040 X3.4409 Y-0.7361
N16045 X3.4283 Y-0.7465
N16050 X3.4142 Y-0.7603
N16055 X3.3996 Y-0.777
N16060 X3.3844 Y-0.7976
N16065 X3.3682 Y-0.8237
N16070 X3.3538 Y-0.8515
N16075 X3.3413 Y-0.8802
N16080 X3.3305 Y-0.9095
N16085 X3.321 Y-0.9394
N16090 X3.3127 Y-0.9695
N16095 X3.3054 Y-1.
N16100 X3.2991 Y-1.0306
N16105 X3.2937 Y-1.0614
N16110 X3.289 Y-1.0924
N16115 X3.285 Y-1.1234
N16120 X3.2817 Y-1.1545
N16125 X3.279 Y-1.1857
N16130 X3.2769 Y-1.2169
N16135 X3.2754 Y-1.2482
N16140 X3.2744 Y-1.2795
N16145 X3.2739 Y-1.3107
N16150 X3.274 Y-1.342
N16155 X3.2745 Y-1.3733
N16160 X3.2755 Y-1.4046
N16165 X3.2771 Y-1.4359
N16170 X3.2792 Y-1.4671
N16175 X3.2819 Y-1.4983
N16180 X3.2851 Y-1.5294
N16185 X3.2891 Y-1.5604
N16190 X3.2938 Y-1.5914
N16195 X3.2995 Y-1.6221
N16200 X3.3063 Y-1.6527
N16205 X3.3144 Y-1.6812
N16210 X3.3215 Y-1.7002
N16215 X3.3283 Y-1.7147
N16220 X3.3292 Y-1.7162
N16225 X3.3346 Y-1.7237
N16230 X3.3414 Y-1.7298
N16235 X3.3493 Y-1.7344
N16240 X3.3581 Y-1.7373
N16245 X3.3672 Y-1.7383
N16250 X3.4411
N16255 G3 X3.4591 Y-1.7174 I-0.0007 J0.0187
N16260 G1 X3.4587 Y-1.7142 Z-0.2497
N16265 X3.4584 Y-1.711 Z-0.2489
N16270 X3.458 Y-1.7081 Z-0.2475
N16275 X3.4577 Y-1.7054 Z-0.2456
N16280 X3.4575 Y-1.7031 Z-0.2433
N16285 X3.4573 Y-1.7013 Z-0.2406
N16290 X3.4571 Y-1.6999 Z-0.2377
N16295 X3.457 Y-1.699 Z-0.2345
N16300 Y-1.6988 Z-0.2312
N16305 Z-0.2125
N16310 X3.5655 Y-0.724
N16315 Z-0.2312
N16320 X3.5653 Y-0.7239 Z-0.2345
N16325 X3.5645 Y-0.7235 Z-0.2377
N16330 X3.5633 Y-0.7228 Z-0.2406
N16335 X3.5617 Y-0.7218 Z-0.2433
N16340 X3.5597 Y-0.7206 Z-0.2456
N16345 X3.5574 Y-0.7193 Z-0.2475
N16350 X3.5549 Y-0.7177 Z-0.2489
N16355 X3.5522 Y-0.7161 Z-0.2497
N16360 X3.5494 Y-0.7145 Z-0.25
N16365 G3 X3.5197 Y-0.7057 I-0.0318 J-0.0536
N16370 G1 X3.4415
N16375 X3.4355 Y-0.7061
N16380 X3.4282 Y-0.7071
N16385 X3.4196 Y-0.7091
N16390 X3.4109 Y-0.7118
N16395 X3.4008 Y-0.7158
N16400 X3.3902 Y-0.7211
N16405 X3.3788 Y-0.7281
N16410 X3.366 Y-0.7372
N16415 X3.3532 Y-0.7482
N16420 X3.3391 Y-0.7623
N16425 X3.324 Y-0.78
N16430 X3.3088 Y-0.8011
N16435 X3.2926 Y-0.8278
N16440 X3.2785 Y-0.8558
N16445 X3.2663 Y-0.8846
N16450 X3.2557 Y-0.914
N16455 X3.2464 Y-0.9439
N16460 X3.2383 Y-0.9741
N16465 X3.2312 Y-1.0046
N16470 X3.225 Y-1.0353
N16475 X3.2196 Y-1.0661
N16480 X3.2151 Y-1.0971
N16485 X3.2112 Y-1.1281
N16490 X3.2079 Y-1.1593
N16495 X3.2053 Y-1.1904
N16500 X3.2033 Y-1.2217
N16505 X3.2018 Y-1.2529
N16510 X3.2008 Y-1.2842
N16515 X3.2004 Y-1.3155
N16520 X3.2005 Y-1.3468
N16525 X3.201 Y-1.3781
N16530 X3.2021 Y-1.4093
N16535 X3.2037 Y-1.4406
N16540 X3.2059 Y-1.4718
N16545 X3.2086 Y-1.503
N16550 X3.2119 Y-1.5341
N16555 X3.2159 Y-1.5651
N16560 X3.2208 Y-1.596
N16565 X3.2266 Y-1.6268
N16570 X3.2336 Y-1.6573
N16575 X3.2415 Y-1.6839
N16580 X3.2484 Y-1.7019
N16585 X3.2553 Y-1.7163
N16590 X3.2555 Y-1.7166
N16595 X3.2625 Y-1.7255
N16600 X3.2715 Y-1.7324
N16605 X3.282 Y-1.7368
N16610 X3.2933 Y-1.7383
N16615 X3.3672
N16620 G3 X3.3852 Y-1.7174 I-0.0007 J0.0187
N16625 G1 X3.3848 Y-1.7142 Z-0.2497
N16630 X3.3845 Y-1.711 Z-0.2489
N16635 X3.3841 Y-1.7081 Z-0.2475
N16640 X3.3838 Y-1.7054 Z-0.2456
N16645 X3.3836 Y-1.7031 Z-0.2433
N16650 X3.3833 Y-1.7013 Z-0.2406
N16655 X3.3832 Y-1.6999 Z-0.2377
N16660 X3.3831 Y-1.699 Z-0.2345
N16665 Y-1.6988 Z-0.2312
N16670 Z-0.2125
N16675 X3.4873 Y-0.724
N16680 Z-0.2312
N16685 X3.487 Y-0.7239 Z-0.2345
N16690 X3.4863 Y-0.7235 Z-0.2377
N16695 X3.4851 Y-0.7228 Z-0.2406
N16700 X3.4835 Y-0.7218 Z-0.2433
N16705 X3.4815 Y-0.7206 Z-0.2456
N16710 X3.4792 Y-0.7193 Z-0.2475
N16715 X3.4767 Y-0.7177 Z-0.2489
N16720 X3.474 Y-0.7161 Z-0.2497
N16725 X3.4712 Y-0.7145 Z-0.25
N16730 G3 X3.4415 Y-0.7057 I-0.0318 J-0.0536
N16735 G1 X3.3704
N16740 X3.363 Y-0.7061
N16745 X3.356 Y-0.707
N16750 X3.3477 Y-0.7088
N16755 X3.3388 Y-0.7115
N16760 X3.3292 Y-0.7152
N16765 X3.3182 Y-0.7205
N16770 X3.3073 Y-0.7269
N16775 X3.2945 Y-0.736
N16780 X3.2819 Y-0.7464
N16785 X3.2676 Y-0.7604
N16790 X3.2534 Y-0.7766
N16795 X3.238 Y-0.7975
N16800 X3.2217 Y-0.8237
N16805 X3.2073 Y-0.8515
N16810 X3.1949 Y-0.8802
N16815 X3.184 Y-0.9095
N16820 X3.1745 Y-0.9393
N16825 X3.1662 Y-0.9695
N16830 X3.1589 Y-0.9999
N16835 X3.1526 Y-1.0306
N16840 X3.1471 Y-1.0614
N16845 X3.1424 Y-1.0923
N16850 X3.1384 Y-1.1234
N16855 X3.135 Y-1.1545
N16860 X3.1323 Y-1.1857
N16865 X3.1301 Y-1.2169
N16870 X3.1285 Y-1.2481
N16875 X3.1275 Y-1.2794
N16880 X3.1269 Y-1.3107
N16885 Y-1.342
N16890 X3.1274 Y-1.3733
N16895 X3.1283 Y-1.4045
N16900 X3.1298 Y-1.4358
N16905 X3.1318 Y-1.467
N16910 X3.1344 Y-1.4982
N16915 X3.1376 Y-1.5293
N16920 X3.1415 Y-1.5604
N16925 X3.1462 Y-1.5913
N16930 X3.1517 Y-1.6221
N16935 X3.1585 Y-1.6527
N16940 X3.1667 Y-1.6813
N16945 X3.1738 Y-1.7004
N16950 X3.1802 Y-1.714
N16955 X3.1815 Y-1.7162
N16960 X3.1868 Y-1.7236
N16965 X3.1936 Y-1.7298
N16970 X3.2016 Y-1.7344
N16975 X3.2103 Y-1.7373
N16980 X3.2195 Y-1.7383
N16985 X3.2933
N16990 G3 X3.3113 Y-1.7174 I-0.0007 J0.0187
N16995 G1 X3.3109 Y-1.7142 Z-0.2497
N17000 X3.3105 Y-1.711 Z-0.2489
N17005 X3.3102 Y-1.7081 Z-0.2475
N17010 X3.3099 Y-1.7054 Z-0.2456
N17015 X3.3096 Y-1.7031 Z-0.2433
N17020 X3.3094 Y-1.7013 Z-0.2406
N17025 X3.3093 Y-1.6999 Z-0.2377
N17030 X3.3092 Y-1.699 Z-0.2345
N17035 X3.3091 Y-1.6988 Z-0.2312
N17040 Z-0.2125
N17045 X3.4162 Y-0.724
N17050 Z-0.2312
N17055 X3.4159 Y-0.7239 Z-0.2345
N17060 X3.4152 Y-0.7235 Z-0.2377
N17065 X3.414 Y-0.7228 Z-0.2406
N17070 X3.4124 Y-0.7218 Z-0.2433
N17075 X3.4104 Y-0.7206 Z-0.2456
N17080 X3.4081 Y-0.7193 Z-0.2475
N17085 X3.4056 Y-0.7177 Z-0.2489
N17090 X3.4029 Y-0.7161 Z-0.2497
N17095 X3.4001 Y-0.7145 Z-0.25
N17100 G3 X3.3704 Y-0.7057 I-0.0318 J-0.0536
N17105 G1 X3.2993
N17110 X3.2897 Y-0.7062
N17115 X3.2826 Y-0.7072
N17120 X3.2741 Y-0.709
N17125 X3.2656 Y-0.7115
N17130 X3.2558 Y-0.7154
N17135 X3.2452 Y-0.7205
N17140 X3.234 Y-0.7271
N17145 X3.2212 Y-0.7361
N17150 X3.2087 Y-0.7465
N17155 X3.1946 Y-0.7603
N17160 X3.18 Y-0.777
N17165 X3.1647 Y-0.7976
N17170 X3.1484 Y-0.8238
N17175 X3.1341 Y-0.8516
N17180 X3.1216 Y-0.8803
N17185 X3.1107 Y-0.9096
N17190 X3.1012 Y-0.9394
N17195 X3.0929 Y-0.9696
N17200 X3.0856 Y-1.
N17205 X3.0793 Y-1.0307
N17210 X3.0738 Y-1.0615
N17215 X3.069 Y-1.0924
N17220 X3.065 Y-1.1235
N17225 X3.0616 Y-1.1546
N17230 X3.0589 Y-1.1857
N17235 X3.0567 Y-1.217
N17240 X3.0551 Y-1.2482
N17245 X3.054 Y-1.2795
N17250 X3.0534 Y-1.3108
N17255 Y-1.3421
N17260 X3.0538 Y-1.3733
N17265 X3.0547 Y-1.4046
N17270 X3.0562 Y-1.4359
N17275 X3.0582 Y-1.4671
N17280 X3.0607 Y-1.4983
N17285 X3.0639 Y-1.5294
N17290 X3.0678 Y-1.5605
N17295 X3.0724 Y-1.5914
N17300 X3.078 Y-1.6222
N17305 X3.0848 Y-1.6528
N17310 X3.0928 Y-1.681
N17315 X3.0998 Y-1.7
N17320 X3.1066 Y-1.7145
N17325 X3.1076 Y-1.7161
N17330 X3.1129 Y-1.7236
N17335 X3.1197 Y-1.7298
N17340 X3.1277 Y-1.7344
N17345 X3.1364 Y-1.7373
N17350 X3.1456 Y-1.7383
N17355 X3.2195
N17360 G3 X3.2374 Y-1.7174 I-0.0007 J0.0187
N17365 G1 X3.2371 Y-1.7142 Z-0.2497
N17370 X3.2367 Y-1.711 Z-0.2489
N17375 X3.2364 Y-1.7081 Z-0.2475
N17380 X3.2361 Y-1.7054 Z-0.2456
N17385 X3.2358 Y-1.7031 Z-0.2433
N17390 X3.2356 Y-1.7013 Z-0.2406
N17395 X3.2355 Y-1.6999 Z-0.2377
N17400 X3.2354 Y-1.699 Z-0.2345
N17405 X3.2353 Y-1.6988 Z-0.2312
N17410 Z-0.2125
N17415 X3.3451 Y-0.724
N17420 Z-0.2312
N17425 X3.3448 Y-0.7239 Z-0.2345
N17430 X3.3441 Y-0.7235 Z-0.2377
N17435 X3.3429 Y-0.7228 Z-0.2406
N17440 X3.3413 Y-0.7218 Z-0.2433
N17445 X3.3393 Y-0.7206 Z-0.2456
N17450 X3.337 Y-0.7193 Z-0.2475
N17455 X3.3345 Y-0.7177 Z-0.2489
N17460 X3.3318 Y-0.7161 Z-0.2497
N17465 X3.329 Y-0.7145 Z-0.25
N17470 G3 X3.2993 Y-0.7057 I-0.0318 J-0.0536
N17475 G1 X3.2211
N17480 X3.2151 Y-0.7061
N17485 X3.2076 Y-0.7072
N17490 X3.1989 Y-0.7092
N17495 X3.1902 Y-0.7121
N17500 X3.1799 Y-0.7164
N17505 X3.1693 Y-0.7218
N17510 X3.1576 Y-0.729
N17515 X3.145 Y-0.7383
N17520 X3.1318 Y-0.7497
N17525 X3.1177 Y-0.7641
N17530 X3.1025 Y-0.7824
N17535 X3.087 Y-0.8042
N17540 X3.0711 Y-0.8311
N17545 X3.0573 Y-0.8592
N17550 X3.0452 Y-0.8881
N17555 X3.0347 Y-0.9176
N17560 X3.0256 Y-0.9475
N17565 X3.0175 Y-0.9777
N17570 X3.0105 Y-1.0082
N17575 X3.0044 Y-1.0389
N17580 X2.9991 Y-1.0698
N17585 X2.9946 Y-1.1007
N17590 X2.9907 Y-1.1318
N17595 X2.9875 Y-1.1629
N17600 X2.9849 Y-1.1941
N17605 X2.9828 Y-1.2253
N17610 X2.9813 Y-1.2566
N17615 X2.9803 Y-1.2878
N17620 X2.9799 Y-1.3191
N17625 Y-1.3504
N17630 X2.9804 Y-1.3817
N17635 X2.9814 Y-1.413
N17640 X2.983 Y-1.4442
N17645 X2.9851 Y-1.4755
N17650 X2.9878 Y-1.5066
N17655 X2.9911 Y-1.5378
N17660 X2.9951 Y-1.5688
N17665 X3. Y-1.5997
N17670 X3.0059 Y-1.6304
N17675 X3.0131 Y-1.6609
N17680 X3.0206 Y-1.6859
N17685 X3.0274 Y-1.7031
N17690 X3.0326 Y-1.7137
N17695 X3.0378 Y-1.7219
N17700 X3.0447 Y-1.7288
N17705 X3.053 Y-1.734
N17710 X3.0622 Y-1.7372
N17715 X3.0719 Y-1.7383
N17720 X3.1456
N17725 G3 X3.1636 Y-1.7174 I-0.0007 J0.0187
N17730 G1 X3.1632 Y-1.7142 Z-0.2497
N17735 X3.1628 Y-1.711 Z-0.2489
N17740 X3.1625 Y-1.7081 Z-0.2475
N17745 X3.1622 Y-1.7054 Z-0.2456
N17750 X3.1619 Y-1.7031 Z-0.2433
N17755 X3.1617 Y-1.7013 Z-0.2406
N17760 X3.1616 Y-1.6999 Z-0.2377
N17765 X3.1615 Y-1.699 Z-0.2345
N17770 X3.1614 Y-1.6988 Z-0.2312
N17775 Z-0.2125
N17780 X3.2669 Y-0.724
N17785 Z-0.2312
N17790 X3.2666 Y-0.7239 Z-0.2345
N17795 X3.2659 Y-0.7235 Z-0.2377
N17800 X3.2647 Y-0.7228 Z-0.2406
N17805 X3.2631 Y-0.7218 Z-0.2433
N17810 X3.2611 Y-0.7206 Z-0.2456
N17815 X3.2588 Y-0.7193 Z-0.2475
N17820 X3.2563 Y-0.7177 Z-0.2489
N17825 X3.2536 Y-0.7161 Z-0.2497
N17830 X3.2508 Y-0.7145 Z-0.25
N17835 G3 X3.2211 Y-0.7057 I-0.0318 J-0.0536
N17840 G1 X3.15
N17845 X3.1433 Y-0.7061
N17850 X3.1362 Y-0.707
N17855 X3.1281 Y-0.7087
N17860 X3.1189 Y-0.7115
N17865 X3.1096 Y-0.7152
N17870 X3.0985 Y-0.7205
N17875 X3.0876 Y-0.727
N17880 X3.075 Y-0.7358
N17885 X3.0621 Y-0.7465
N17890 X3.0479 Y-0.7603
N17895 X3.0337 Y-0.7767
N17900 X3.0181 Y-0.7977
N17905 X3.0018 Y-0.8239
N17910 X2.9874 Y-0.8518
N17915 X2.975 Y-0.8805
N17920 X2.9641 Y-0.9098
N17925 X2.9545 Y-0.9396
N17930 X2.9462 Y-0.9698
N17935 X2.9389 Y-1.0002
N17940 X2.9326 Y-1.0308
N17945 X2.9271 Y-1.0616
N17950 X2.9223 Y-1.0926
N17955 X2.9183 Y-1.1236
N17960 X2.9149 Y-1.1547
N17965 X2.9121 Y-1.1859
N17970 X2.9099 Y-1.2171
N17975 X2.9082 Y-1.2483
N17980 X2.9071 Y-1.2796
N17985 X2.9064 Y-1.3109
N17990 X2.9063 Y-1.3422
N17995 X2.9067 Y-1.3735
N18000 X2.9075 Y-1.4048
N18005 X2.9089 Y-1.436
N18010 X2.9109 Y-1.4672
N18015 X2.9134 Y-1.4984
N18020 X2.9165 Y-1.5296
N18025 X2.9203 Y-1.5606
N18030 X2.9248 Y-1.5916
N18035 X2.9304 Y-1.6224
N18040 X2.9371 Y-1.653
N18045 X2.9452 Y-1.6813
N18050 X2.952 Y-1.6995
N18055 X2.959 Y-1.7145
N18060 X2.96 Y-1.7162
N18065 X2.9653 Y-1.7236
N18070 X2.9721 Y-1.7298
N18075 X2.9801 Y-1.7344
N18080 X2.9888 Y-1.7373
N18085 X2.998 Y-1.7383
N18090 X3.0719
N18095 G3 X3.0899 Y-1.7174 I-0.0007 J0.0187
N18100 G1 X3.0895 Y-1.7142 Z-0.2497
N18105 X3.0891 Y-1.711 Z-0.2489
N18110 X3.0888 Y-1.7081 Z-0.2475
N18115 X3.0885 Y-1.7054 Z-0.2456
N18120 X3.0882 Y-1.7031 Z-0.2433
N18125 X3.088 Y-1.7013 Z-0.2406
N18130 X3.0879 Y-1.6999 Z-0.2377
N18135 X3.0878 Y-1.699 Z-0.2345
N18140 X3.0877 Y-1.6988 Z-0.2312
N18145 Z-0.2125
N18150 X3.1958 Y-0.724
N18155 Z-0.2312
N18160 X3.1955 Y-0.7239 Z-0.2345
N18165 X3.1948 Y-0.7235 Z-0.2377
N18170 X3.1936 Y-0.7228 Z-0.2406
N18175 X3.192 Y-0.7218 Z-0.2433
N18180 X3.19 Y-0.7206 Z-0.2456
N18185 X3.1877 Y-0.7193 Z-0.2475
N18190 X3.1852 Y-0.7177 Z-0.2489
N18195 X3.1825 Y-0.7161 Z-0.2497
N18200 X3.1797 Y-0.7145 Z-0.25
N18205 G3 X3.15 Y-0.7057 I-0.0318 J-0.0536
N18210 G1 X3.0789
N18215 X3.0701 Y-0.7062
N18220 X3.0629 Y-0.7071
N18225 X3.0545 Y-0.7089
N18230 X3.0459 Y-0.7115
N18235 X3.0361 Y-0.7153
N18240 X3.0255 Y-0.7205
N18245 X3.0143 Y-0.7271
N18250 X3.0015 Y-0.7361
N18255 X2.9889 Y-0.7465
N18260 X2.9747 Y-0.7603
N18265 X2.9601 Y-0.7771
N18270 X2.9448 Y-0.7977
N18275 X2.9285 Y-0.824
N18280 X2.9142 Y-0.8518
N18285 X2.9017 Y-0.8805
N18290 X2.8908 Y-0.9098
N18295 X2.8813 Y-0.9396
N18300 X2.8729 Y-0.9698
N18305 X2.8656 Y-1.0002
N18310 X2.8593 Y-1.0308
N18315 X2.8538 Y-1.0616
N18320 X2.849 Y-1.0926
N18325 X2.8449 Y-1.1236
N18330 X2.8415 Y-1.1547
N18335 X2.8387 Y-1.1859
N18340 X2.8364 Y-1.2171
N18345 X2.8347 Y-1.2483
N18350 X2.8336 Y-1.2796
N18355 X2.8329 Y-1.3109
N18360 X2.8328 Y-1.3422
N18365 X2.8331 Y-1.3735
N18370 X2.8339 Y-1.4047
N18375 X2.8353 Y-1.436
N18380 X2.8372 Y-1.4672
N18385 X2.8397 Y-1.4984
N18390 X2.8428 Y-1.5296
N18395 X2.8465 Y-1.5606
N18400 X2.8511 Y-1.5916
N18405 X2.8566 Y-1.6224
N18410 X2.8634 Y-1.6529
N18415 X2.8714 Y-1.6812
N18420 X2.8785 Y-1.7001
N18425 X2.8852 Y-1.7146
N18430 X2.8861 Y-1.7162
N18435 X2.8915 Y-1.7236
N18440 X2.8983 Y-1.7298
N18445 X2.9063 Y-1.7344
N18450 X2.915 Y-1.7373
N18455 X2.9241 Y-1.7383
N18460 X2.998
N18465 G3 X3.0159 Y-1.7174 I-0.0007 J0.0187
N18470 G1 X3.0156 Y-1.7142 Z-0.2497
N18475 X3.0152 Y-1.711 Z-0.2489
N18480 X3.0149 Y-1.7081 Z-0.2475
N18485 X3.0146 Y-1.7054 Z-0.2456
N18490 X3.0143 Y-1.7031 Z-0.2433
N18495 X3.0141 Y-1.7013 Z-0.2406
N18500 X3.014 Y-1.6999 Z-0.2377
N18505 X3.0139 Y-1.699 Z-0.2345
N18510 X3.0138 Y-1.6988 Z-0.2312
N18515 Z-0.2125
N18520 X3.1247 Y-0.724
N18525 Z-0.2312
N18530 X3.1244 Y-0.7239 Z-0.2345
N18535 X3.1237 Y-0.7235 Z-0.2377
N18540 X3.1225 Y-0.7228 Z-0.2406
N18545 X3.1209 Y-0.7218 Z-0.2433
N18550 X3.1189 Y-0.7206 Z-0.2456
N18555 X3.1166 Y-0.7193 Z-0.2475
N18560 X3.1141 Y-0.7177 Z-0.2489
N18565 X3.1114 Y-0.7161 Z-0.2497
N18570 X3.1086 Y-0.7145 Z-0.25
N18575 G3 X3.0789 Y-0.7057 I-0.0318 J-0.0536
N18580 G1 X3.0039
N18585 X2.9969 Y-0.7061
N18590 X2.9898 Y-0.707
N18595 X2.9813 Y-0.7088
N18600 X2.9727 Y-0.7114
N18605 X2.9629 Y-0.7153
N18610 X2.9523 Y-0.7204
N18615 X2.9411 Y-0.727
N18620 X2.9282 Y-0.736
N18625 X2.9157 Y-0.7464
N18630 X2.9015 Y-0.7603
N18635 X2.8869 Y-0.777
N18640 X2.8716 Y-0.7977
N18645 X2.8552 Y-0.824
N18650 X2.8409 Y-0.8518
N18655 X2.8284 Y-0.8805
N18660 X2.8175 Y-0.9098
N18665 X2.808 Y-0.9396
N18670 X2.7996 Y-0.9698
N18675 X2.7923 Y-1.0002
N18680 X2.786 Y-1.0308
N18685 X2.7804 Y-1.0616
N18690 X2.7756 Y-1.0925
N18695 X2.7715 Y-1.1236
N18700 X2.7681 Y-1.1547
N18705 X2.7652 Y-1.1858
N18710 X2.763 Y-1.217
N18715 X2.7613 Y-1.2483
N18720 X2.7601 Y-1.2796
N18725 X2.7594 Y-1.3108
N18730 X2.7592 Y-1.3421
N18735 X2.7595 Y-1.3734
N18740 X2.7603 Y-1.4047
N18745 X2.7617 Y-1.436
N18750 X2.7636 Y-1.4672
N18755 X2.766 Y-1.4984
N18760 X2.7691 Y-1.5295
N18765 X2.7728 Y-1.5606
N18770 X2.7774 Y-1.5916
N18775 X2.7829 Y-1.6224
N18780 X2.7896 Y-1.6529
N18785 X2.7976 Y-1.6812
N18790 X2.8046 Y-1.7
N18795 X2.8114 Y-1.7145
N18800 X2.8123 Y-1.7161
N18805 X2.8177 Y-1.7236
N18810 X2.8245 Y-1.7298
N18815 X2.8325 Y-1.7344
N18820 X2.8412 Y-1.7373
N18825 X2.8504 Y-1.7383
N18830 X2.9241
N18835 G3 X2.9421 Y-1.7174 I-0.0007 J0.0187
N18840 G1 X2.9417 Y-1.7142 Z-0.2497
N18845 X2.9414 Y-1.711 Z-0.2489
N18850 X2.9411 Y-1.7081 Z-0.2475
N18855 X2.9408 Y-1.7054 Z-0.2456
N18860 X2.9405 Y-1.7031 Z-0.2433
N18865 X2.9403 Y-1.7013 Z-0.2406
N18870 X2.9401 Y-1.6999 Z-0.2377
N18875 X2.94 Y-1.699 Z-0.2345
N18880 Y-1.6988 Z-0.2312
N18885 Z-0.2125
N18890 X3.0497 Y-0.724
N18895 Z-0.2312
N18900 X3.0494 Y-0.7239 Z-0.2345
N18905 X3.0487 Y-0.7235 Z-0.2377
N18910 X3.0475 Y-0.7228 Z-0.2406
N18915 X3.0459 Y-0.7218 Z-0.2433
N18920 X3.0439 Y-0.7206 Z-0.2456
N18925 X3.0416 Y-0.7193 Z-0.2475
N18930 X3.0391 Y-0.7177 Z-0.2489
N18935 X3.0364 Y-0.7161 Z-0.2497
N18940 X3.0336 Y-0.7145 Z-0.25
N18945 G3 X3.0039 Y-0.7057 I-0.0318 J-0.0536
N18950 G1 X2.9296
N18955 X2.9236 Y-0.7061
N18960 X2.9164 Y-0.707
N18965 X2.9079 Y-0.7088
N18970 X2.8994 Y-0.7114
N18975 X2.8895 Y-0.7153
N18980 X2.8788 Y-0.7205
N18985 X2.8676 Y-0.7271
N18990 X2.8548 Y-0.7361
N18995 X2.8422 Y-0.7466
N19000 X2.828 Y-0.7605
