(Project SC-0155-V1)
(Created with Estlcam 12.153)
(Machining time about 00:00:16 hours)

(Required tools:)
(Example tool)

G90
M03


F5.0

#<z> = -0.14
#<_td> = [3/32]
#<_z_clearance> = 0.02

;o<pocket_circ> call [0][0] [0.62] [#<_z_clearance>][#<z>] [0] [0+4]

G91.1 ; incremental IJK

G0 Z0.2
G0 X0 Y0
G1 Z#<z>

G01 X-0.27952 Y0.17654
G01 X-0.37165 Y0.22973
G03 X-0.38478 Y0.20699 I-0.00719 J-0.01101
G02 X-0.28151 Y0.14727 I-0.77554 J-1.46017
G02 X-0.26181 Y0.07781 I-0.03077 J-0.04626
G03 X-0.26738 Y0.05577 I0.26815 J-0.07951
G02 X-0.32047 Y0.01313 I-0.05309 J0.01173
G01 X-0.43673
G03 Y-0.01313 I-0.00072 J-0.01313
G02 X-0.31744 Y-0.01322 I0.05845 J-1.65232
G02 X-0.26564 Y-0.06352 I-0.00352 J-0.05544
G03 X-0.25944 Y-0.08539 I0.27198 J0.06521
G02 X-0.28410 Y-0.14886 I-0.05184 J-0.01639
G01 X-0.38478 Y-0.20699
G03 X-0.37165 Y-0.22973 I0.00594 J-0.01173
G02 X-0.26830 Y-0.17016 I0.87678 J-1.40172
G02 X-0.19829 Y-0.18782 I0.02467 J-0.04977
G03 X-0.18199 Y-0.20367 I0.20293 J0.19247
G02 X-0.17161 Y-0.27097 I-0.03670 J-0.04011
G01 X-0.22973 Y-0.37165
G03 X-0.20699 Y-0.38478 I0.01101 J-0.00719
G02 X-0.14727 Y-0.28151 I1.46017 J-0.77554
G02 X-0.07781 Y-0.26181 I0.04626 J-0.03077
G03 X-0.05577 Y-0.26738 I0.07951 J0.26815
G02 X-0.01313 Y-0.32047 I-0.01173 J-0.05309
G01 Y-0.43673
G03 X0.01313 I0.01313 J-0.00072
G02 X0.01322 Y-0.31744 I1.65232 J0.05845
G02 X0.06352 Y-0.26564 I0.05544 J-0.00352
G03 X0.08539 Y-0.25944 I-0.06521 J0.27198
G02 X0.14886 Y-0.28410 I0.01639 J-0.05184
G01 X0.20699 Y-0.38478
G03 X0.22973 Y-0.37165 I0.01173 J0.00594
G02 X0.17016 Y-0.26830 I1.40172 J0.87678
G02 X0.18782 Y-0.19829 I0.04977 J0.02467
G03 X0.20367 Y-0.18199 I-0.19247 J0.20293
G02 X0.27097 Y-0.17161 I0.04011 J-0.03670
G01 X0.37165 Y-0.22973
G03 X0.38478 Y-0.20699 I0.00719 J0.01101
G02 X0.28151 Y-0.14727 I0.77554 J1.46017
G02 X0.26181 Y-0.07781 I0.03077 J0.04626
G03 X0.26738 Y-0.05577 I-0.26815 J0.07951
G02 X0.32047 Y-0.01313 I0.05309 J-0.01173
G01 X0.43673
G03 Y0.01313 I0.00072 J0.01313
G02 X0.31744 Y0.01322 I-0.05845 J1.65232
G02 X0.26564 Y0.06352 I0.00352 J0.05544
G03 X0.25944 Y0.08539 I-0.27198 J-0.06521
G02 X0.28410 Y0.14886 I0.05184 J0.01639
G01 X0.38478 Y0.20699
G03 X0.37165 Y0.22973 I-0.00594 J0.01173
G02 X0.26830 Y0.17016 I-0.87678 J1.40172
G02 X0.19829 Y0.18782 I-0.02467 J0.04977
G03 X0.18199 Y0.20367 I-0.20293 J-0.19247
G02 X0.17161 Y0.27097 I0.03670 J0.04011
G01 X0.22973 Y0.37165
G03 X0.20699 Y0.38478 I-0.01101 J0.00719
G02 X0.14727 Y0.28151 I-1.46017 J0.77554
G02 X0.07781 Y0.26181 I-0.04626 J0.03077
G03 X0.05577 Y0.26738 I-0.07951 J-0.26815
G02 X0.01313 Y0.32047 I0.01173 J0.05309
G01 Y0.43673
G03 X-0.01313 I-0.01313 J0.00072
G02 X-0.01322 Y0.31744 I-1.65232 J-0.05845
G02 X-0.06352 Y0.26564 I-0.05544 J0.00352
G03 X-0.08539 Y0.25944 I0.06521 J-0.27198
G02 X-0.14886 Y0.28410 I-0.01639 J0.05184
G01 X-0.20699 Y0.38478
G03 X-0.22973 Y0.37165 I-0.01173 J-0.00594
G02 X-0.17016 Y0.26830 I-1.40172 J-0.87678
G02 X-0.18510 Y0.20080 I-0.04895 J-0.02457
G00 Z0.10000
G00 X0.00000 Y0.00000




M05
M30
