%
(SC-0239)
(T1 D=0.1875 CR=0.0937 - ZMIN=-0.6938 - BALL END MILL)
N10 G90 G94 G17 G91.1
N15 G20
(WHEN USING FUSION FOR PERSONAL USE, THE FEEDRATE OF RAPID)
(MOVES IS REDUCED TO MATCH THE FEEDRATE OF CUTTING MOVES,)
(WHICH CAN INCREASE MACHINING TIME. UNRESTRICTED RAPID MOVES)
(ARE AVAILABLE WITH A FUSION SUBSCRIPTION.)
N20 G53 G0 Z0.
(CONTOUR1)
N25 T1 M6
N30 S5000 M3
N35 G17 G90 G94
N40 G54
N45 G64 P0.0004 Q0.0004
N50 M8
N55 G0 X-0.7759 Y0.0373
N60 G43 Z0.6 H1
N65 G1 Z0.0746 F20.
N70 Z-0.0613 F6.667
N75 X-0.7761 Y0.0371 Z-0.0645
N80 X-0.7768 Y0.0367 Z-0.0677
N85 X-0.7779 Y0.0359 Z-0.0706
N90 X-0.7795 Y0.0348 Z-0.0733
N95 X-0.7813 Y0.0334 Z-0.0756
N100 X-0.7835 Y0.0319 Z-0.0775
N105 X-0.7859 Y0.0302 Z-0.0789
N110 X-0.7885 Y0.0283 Z-0.0797
N115 X-0.7912 Y0.0265 Z-0.08
N120 G3 X-0.7956 Y0.0003 I0.0109 J-0.0153 F20.
N125 G1 X-0.792 Y-0.0047
N130 X-0.7889 Y-0.0094
N135 X-0.7876 Y-0.0116
N140 X-0.7837 Y-0.0185
N145 X-0.7799 Y-0.0254
N150 X-0.7764 Y-0.0323
N155 X-0.7751 Y-0.0352
N160 X-0.7707 Y-0.046
N165 X-0.7683 Y-0.0521
N170 X-0.768 Y-0.0529
N175 X-0.7658 Y-0.0598
N180 X-0.7638 Y-0.0667
N185 X-0.7619 Y-0.0735
N190 X-0.7614 Y-0.0755
N195 X-0.7604 Y-0.0804
N200 X-0.7592 Y-0.0873
N205 X-0.758 Y-0.0942
N210 X-0.757 Y-0.101
N215 X-0.7565 Y-0.1079
N220 X-0.7561 Y-0.1148
N225 X-0.7557 Y-0.1217
N230 Y-0.1286
N235 Y-0.3693
N240 Y-0.3762
N245 X-0.7556 Y-0.3831
N250 X-0.7553 Y-0.3899
N255 X-0.755 Y-0.3968
N260 X-0.7546 Y-0.4037
N265 X-0.7545 Y-0.4044
N270 X-0.754 Y-0.4106
N275 X-0.7533 Y-0.4175
N280 X-0.7524 Y-0.4243
N285 X-0.7515 Y-0.4312
N290 X-0.7504 Y-0.4381
N295 X-0.7492 Y-0.445
N300 X-0.7478 Y-0.4519
N305 X-0.7476 Y-0.4528
N310 X-0.7463 Y-0.4587
N315 X-0.7447 Y-0.4656
N320 X-0.743 Y-0.4725
N325 X-0.7411 Y-0.4794
N330 X-0.7407 Y-0.4804
N335 X-0.739 Y-0.4862
N340 X-0.7369 Y-0.4931
N345 X-0.7345 Y-0.5
N350 X-0.7339 Y-0.5019
N355 X-0.7321 Y-0.5069
N360 X-0.7295 Y-0.5138
N365 X-0.727 Y-0.5199
N370 X-0.7267 Y-0.5206
N375 X-0.7238 Y-0.5275
N380 X-0.7201 Y-0.5357
N385 X-0.7174 Y-0.5413
N390 X-0.714 Y-0.5481
N395 X-0.7104 Y-0.555
N400 X-0.7066 Y-0.5619
N405 X-0.7064 Y-0.5623
N410 X-0.7026 Y-0.5688
N415 X-0.6995 Y-0.5741
N420 X-0.6985 Y-0.5757
N425 X-0.6941 Y-0.5825
N430 X-0.6926 Y-0.5849
N435 X-0.6895 Y-0.5894
N440 X-0.6857 Y-0.5949
N445 X-0.6847 Y-0.5963
N450 X-0.6797 Y-0.6032
N455 X-0.6744 Y-0.6101
N460 X-0.672 Y-0.6131
N465 X-0.6689 Y-0.6169
N470 X-0.6651 Y-0.6215
N475 X-0.6631 Y-0.6238
N480 X-0.6582 Y-0.6294
N485 X-0.657 Y-0.6307
N490 X-0.6513 Y-0.6368
N495 X-0.6444 Y-0.6439
N500 X-0.6439 Y-0.6444
N505 X-0.6368 Y-0.6513
N510 X-0.6307 Y-0.657
N515 X-0.6294 Y-0.6582
N520 X-0.6238 Y-0.6631
N525 X-0.6215 Y-0.6651
N530 X-0.6169 Y-0.6689
N535 X-0.6131 Y-0.672
N540 X-0.6101 Y-0.6744
N545 X-0.6032 Y-0.6797
N550 X-0.5963 Y-0.6847
N555 X-0.5949 Y-0.6857
N560 X-0.5894 Y-0.6895
N565 X-0.5849 Y-0.6926
N570 X-0.5825 Y-0.6941
N575 X-0.5757 Y-0.6985
N580 X-0.5741 Y-0.6995
N585 X-0.5688 Y-0.7026
N590 X-0.5623 Y-0.7064
N595 X-0.5619 Y-0.7066
N600 X-0.555 Y-0.7104
N605 X-0.5481 Y-0.714
N610 X-0.5413 Y-0.7174
N615 X-0.5357 Y-0.7201
N620 X-0.5275 Y-0.7238
N625 X-0.5206 Y-0.7267
N630 X-0.5199 Y-0.727
N635 X-0.5138 Y-0.7295
N640 X-0.5069 Y-0.7321
N645 X-0.5019 Y-0.7339
N650 X-0.5 Y-0.7345
N655 X-0.4931 Y-0.7369
N660 X-0.4862 Y-0.739
N665 X-0.4804 Y-0.7407
N670 X-0.4794 Y-0.7411
N675 X-0.4725 Y-0.743
N680 X-0.4656 Y-0.7447
N685 X-0.4587 Y-0.7463
N690 X-0.4528 Y-0.7476
N695 X-0.4519 Y-0.7478
N700 X-0.445 Y-0.7492
N705 X-0.4381 Y-0.7504
N710 X-0.4312 Y-0.7515
N715 X-0.4243 Y-0.7524
N720 X-0.4175 Y-0.7533
N725 X-0.4106 Y-0.754
N730 X-0.4044 Y-0.7545
N735 X-0.4037 Y-0.7546
N740 X-0.3968 Y-0.755
N745 X-0.3899 Y-0.7553
N750 X-0.3831 Y-0.7556
N755 X-0.3762 Y-0.7557
N760 X-0.3693
N765 X-0.1286
N770 X-0.1217
N775 X-0.1148 Y-0.7561
N780 X-0.1079 Y-0.7565
N785 X-0.101 Y-0.757
N790 X-0.0942 Y-0.758
N795 X-0.0873 Y-0.7592
N800 X-0.0804 Y-0.7604
N805 X-0.0755 Y-0.7614
N810 X-0.0735 Y-0.7619
N815 X-0.0667 Y-0.7638
N820 X-0.0598 Y-0.7658
N825 X-0.0529 Y-0.768
N830 X-0.0521 Y-0.7683
N835 X-0.046 Y-0.7707
N840 X-0.0352 Y-0.7751
N845 X-0.0323 Y-0.7764
N850 X-0.0254 Y-0.7799
N855 X-0.0185 Y-0.7837
N860 X-0.0116 Y-0.7876
N865 X-0.0094 Y-0.7889
N870 X-0.0047 Y-0.792
N875 X0.0003 Y-0.7956
N880 G3 X0.0299 Y-0.7803 I0.0109 J0.0153
N885 G1 Y-0.7197
N890 G3 X0.0003 Y-0.7044 I-0.0187 J0.
N895 G1 X-0.0047 Y-0.708
N900 X-0.0116 Y-0.7124
N905 X-0.013 Y-0.7132
N910 X-0.0185 Y-0.7163
N915 X-0.0255 Y-0.7201
N920 X-0.0323 Y-0.7236
N925 X-0.0391 Y-0.7265
N930 X-0.046 Y-0.7293
N935 X-0.0529 Y-0.732
N940 X-0.0587 Y-0.7339
N945 X-0.0667 Y-0.7362
N950 X-0.0735 Y-0.7381
N955 X-0.0804 Y-0.7396
N960 X-0.0868 Y-0.7407
N965 X-0.0942 Y-0.742
N970 X-0.101 Y-0.743
N975 X-0.1079 Y-0.7435
N980 X-0.1148 Y-0.7439
N985 X-0.1217 Y-0.7443
N990 X-0.1286
N995 X-0.3693
N1000 X-0.3762
N1005 X-0.3831 Y-0.7441
N1010 X-0.3968 Y-0.7436
N1015 X-0.4037 Y-0.7432
N1020 X-0.4106 Y-0.7424
N1025 X-0.4256 Y-0.7407
N1030 X-0.4312 Y-0.74
N1035 X-0.4381 Y-0.7387
N1040 X-0.4519 Y-0.7361
N1045 X-0.4587 Y-0.7347
N1050 X-0.4618 Y-0.7339
N1055 X-0.4794 Y-0.7292
N1060 X-0.4862 Y-0.7271
N1065 X-0.4867 Y-0.727
N1070 X-0.4931 Y-0.7247
N1075 X-0.5063 Y-0.7201
N1080 X-0.5069 Y-0.7199
N1085 X-0.5138 Y-0.7172
N1090 X-0.5275 Y-0.7112
N1095 X-0.5344 Y-0.7081
N1100 X-0.538 Y-0.7064
N1105 X-0.5413 Y-0.7046
N1110 X-0.555 Y-0.6974
N1115 X-0.5619 Y-0.6935
N1120 X-0.5633 Y-0.6926
N1125 X-0.5757 Y-0.6849
N1130 X-0.5825 Y-0.6805
N1135 X-0.5849 Y-0.6788
N1140 X-0.5894 Y-0.6755
N1145 X-0.5963 Y-0.6704
N1150 X-0.6032 Y-0.6654
N1155 X-0.6035 Y-0.6651
N1160 X-0.6101 Y-0.6597
N1165 X-0.6198 Y-0.6513
N1170 X-0.6238 Y-0.6479
N1175 X-0.6275 Y-0.6444
N1180 X-0.6307 Y-0.6413
N1185 X-0.6413 Y-0.6307
N1190 X-0.6444 Y-0.6275
N1195 X-0.6479 Y-0.6238
N1200 X-0.6538 Y-0.6169
N1205 X-0.6597 Y-0.6101
N1210 X-0.6651 Y-0.6035
N1215 X-0.6654 Y-0.6032
N1220 X-0.6704 Y-0.5963
N1225 X-0.6755 Y-0.5894
N1230 X-0.6788 Y-0.5849
N1235 X-0.6805 Y-0.5825
N1240 X-0.6849 Y-0.5757
N1245 X-0.6926 Y-0.5633
N1250 X-0.6935 Y-0.5619
N1255 X-0.6974 Y-0.555
N1260 X-0.7046 Y-0.5413
N1265 X-0.7064 Y-0.538
N1270 X-0.7081 Y-0.5344
N1275 X-0.7112 Y-0.5275
N1280 X-0.7172 Y-0.5138
N1285 X-0.7199 Y-0.5069
N1290 X-0.7201 Y-0.5063
N1295 X-0.7247 Y-0.4931
N1300 X-0.727 Y-0.4867
N1305 X-0.7271 Y-0.4862
N1310 X-0.7292 Y-0.4794
N1315 X-0.7339 Y-0.4618
N1320 X-0.7347 Y-0.4587
N1325 X-0.7361 Y-0.4519
N1330 X-0.7387 Y-0.4381
N1335 X-0.74 Y-0.4312
N1340 X-0.7407 Y-0.4256
N1345 X-0.7424 Y-0.4106
N1350 X-0.7432 Y-0.4037
N1355 X-0.7436 Y-0.3968
N1360 X-0.7441 Y-0.3831
N1365 X-0.7443 Y-0.3762
N1370 Y-0.3693
N1375 Y-0.1286
N1380 Y-0.1217
N1385 X-0.7439 Y-0.1148
N1390 X-0.7435 Y-0.1079
N1395 X-0.743 Y-0.101
N1400 X-0.742 Y-0.0942
N1405 X-0.7407 Y-0.0868
N1410 X-0.7396 Y-0.0804
N1415 X-0.7381 Y-0.0735
N1420 X-0.7362 Y-0.0667
N1425 X-0.7339 Y-0.0587
N1430 X-0.732 Y-0.0529
N1435 X-0.7293 Y-0.046
N1440 X-0.7265 Y-0.0391
N1445 X-0.7236 Y-0.0323
N1450 X-0.7201 Y-0.0255
N1455 X-0.7163 Y-0.0185
N1460 X-0.7132 Y-0.013
N1465 X-0.7124 Y-0.0116
N1470 X-0.708 Y-0.0047
N1475 X-0.7044 Y0.0003
N1480 G3 X-0.7172 Y0.0298 I-0.0153 J0.0109
N1485 G1 X-0.7746 Y0.0373
N1490 Z-0.1412 F6.667
N1495 X-0.7749 Y0.0371 Z-0.1445
N1500 X-0.7756 Y0.0367 Z-0.1477
N1505 X-0.7767 Y0.0359 Z-0.1506
N1510 X-0.7782 Y0.0348 Z-0.1533
N1515 X-0.7801 Y0.0334 Z-0.1556
N1520 X-0.7823 Y0.0319 Z-0.1575
N1525 X-0.7847 Y0.0302 Z-0.1589
N1530 X-0.7873 Y0.0283 Z-0.1597
N1535 X-0.7899 Y0.0265 Z-0.16
N1540 G3 X-0.7944 Y0.0003 I0.0109 J-0.0153 F20.
N1545 G1 X-0.7926 Y-0.0022
N1550 X-0.7908 Y-0.0047
N1555 X-0.7889 Y-0.0075
N1560 X-0.7864 Y-0.0116
N1565 X-0.7826 Y-0.0185
N1570 X-0.7788 Y-0.0254
N1575 X-0.7753 Y-0.0323
N1580 X-0.7751 Y-0.0327
N1585 X-0.7724 Y-0.0391
N1590 X-0.7696 Y-0.046
N1595 X-0.7683 Y-0.0492
N1600 X-0.7669 Y-0.0529
N1605 X-0.7648 Y-0.0598
N1610 X-0.7628 Y-0.0667
N1615 X-0.7614 Y-0.0715
N1620 X-0.7608 Y-0.0735
N1625 X-0.7593 Y-0.0804
N1630 X-0.7581 Y-0.0873
N1635 X-0.757 Y-0.0942
N1640 X-0.756 Y-0.101
N1645 X-0.7555 Y-0.1079
N1650 X-0.7551 Y-0.1148
N1655 X-0.7547 Y-0.1217
N1660 Y-0.1286
N1665 Y-0.3693
N1670 X-0.7546 Y-0.3762
N1675 X-0.7545 Y-0.3859
N1680 X-0.7543 Y-0.3899
N1685 X-0.754 Y-0.3968
N1690 X-0.7535 Y-0.4037
N1695 X-0.753 Y-0.4106
N1700 X-0.7523 Y-0.4175
N1705 X-0.7514 Y-0.4243
N1710 X-0.7505 Y-0.4312
N1715 X-0.7494 Y-0.4381
N1720 X-0.7481 Y-0.445
N1725 X-0.7476 Y-0.4476
N1730 X-0.7468 Y-0.4519
N1735 X-0.7453 Y-0.4587
N1740 X-0.7437 Y-0.4656
N1745 X-0.7419 Y-0.4725
N1750 X-0.7407 Y-0.4767
N1755 X-0.74 Y-0.4794
N1760 X-0.738 Y-0.4862
N1765 X-0.7358 Y-0.4931
N1770 X-0.7339 Y-0.4988
N1775 X-0.7335 Y-0.5
N1780 X-0.731 Y-0.5069
N1785 X-0.7284 Y-0.5138
N1790 X-0.727 Y-0.5172
N1795 X-0.7256 Y-0.5206
N1800 X-0.7227 Y-0.5275
N1805 X-0.7196 Y-0.5344
N1810 X-0.7163 Y-0.5413
N1815 X-0.7132 Y-0.5474
N1820 X-0.7093 Y-0.555
N1825 X-0.7064 Y-0.5603
N1830 X-0.7054 Y-0.5619
N1835 X-0.7014 Y-0.5688
N1840 X-0.6995 Y-0.5721
N1845 X-0.6973 Y-0.5757
N1850 X-0.6926 Y-0.583
N1855 X-0.6883 Y-0.5894
N1860 X-0.6857 Y-0.5932
N1865 X-0.6835 Y-0.5963
N1870 X-0.6788 Y-0.6026
N1875 X-0.6731 Y-0.6101
N1880 X-0.672 Y-0.6115
N1885 X-0.6676 Y-0.6169
N1890 X-0.6651 Y-0.6199
N1895 X-0.6617 Y-0.6238
N1900 X-0.6582 Y-0.6279
N1905 X-0.6513 Y-0.6354
N1910 X-0.6492 Y-0.6376
N1915 X-0.6444 Y-0.6424
N1920 X-0.6424 Y-0.6444
N1925 X-0.6376 Y-0.6492
N1930 X-0.6354 Y-0.6513
N1935 X-0.6279 Y-0.6582
N1940 X-0.6238 Y-0.6617
N1945 X-0.6199 Y-0.6651
N1950 X-0.6169 Y-0.6676
N1955 X-0.6115 Y-0.672
N1960 X-0.6101 Y-0.6731
N1965 X-0.6026 Y-0.6788
N1970 X-0.5963 Y-0.6835
N1975 X-0.5932 Y-0.6857
N1980 X-0.5894 Y-0.6883
N1985 X-0.583 Y-0.6926
N1990 X-0.5757 Y-0.6973
N1995 X-0.5721 Y-0.6995
N2000 X-0.5688 Y-0.7014
N2005 X-0.5619 Y-0.7054
N2010 X-0.5603 Y-0.7064
N2015 X-0.555 Y-0.7093
N2020 X-0.5474 Y-0.7132
N2025 X-0.5413 Y-0.7163
N2030 X-0.5344 Y-0.7196
N2035 X-0.5275 Y-0.7227
N2040 X-0.5206 Y-0.7256
N2045 X-0.5172 Y-0.727
N2050 X-0.5138 Y-0.7284
N2055 X-0.5069 Y-0.731
N2060 X-0.5 Y-0.7335
N2065 X-0.4988 Y-0.7339
N2070 X-0.4931 Y-0.7358
N2075 X-0.4862 Y-0.738
N2080 X-0.4794 Y-0.74
N2085 X-0.4767 Y-0.7407
N2090 X-0.4725 Y-0.7419
N2095 X-0.4656 Y-0.7437
N2100 X-0.4587 Y-0.7453
N2105 X-0.4519 Y-0.7468
N2110 X-0.4476 Y-0.7476
N2115 X-0.445 Y-0.7481
N2120 X-0.4381 Y-0.7494
N2125 X-0.4312 Y-0.7505
N2130 X-0.4243 Y-0.7514
N2135 X-0.4175 Y-0.7523
N2140 X-0.4106 Y-0.753
N2145 X-0.4037 Y-0.7535
N2150 X-0.3968 Y-0.754
N2155 X-0.3899 Y-0.7543
N2160 X-0.3859 Y-0.7545
N2165 X-0.3762 Y-0.7546
N2170 X-0.3693 Y-0.7547
N2175 X-0.1286
N2180 X-0.1217
N2185 X-0.1148 Y-0.7551
N2190 X-0.1079 Y-0.7555
N2195 X-0.101 Y-0.756
N2200 X-0.0942 Y-0.757
N2205 X-0.0873 Y-0.7581
N2210 X-0.0804 Y-0.7593
N2215 X-0.0735 Y-0.7608
N2220 X-0.0715 Y-0.7614
N2225 X-0.0667 Y-0.7628
N2230 X-0.0598 Y-0.7648
N2235 X-0.0529 Y-0.7669
N2240 X-0.0492 Y-0.7683
N2245 X-0.046 Y-0.7696
N2250 X-0.0391 Y-0.7724
N2255 X-0.0327 Y-0.7751
N2260 X-0.0323 Y-0.7753
N2265 X-0.0254 Y-0.7788
N2270 X-0.0185 Y-0.7826
N2275 X-0.0116 Y-0.7864
N2280 X-0.0075 Y-0.7889
N2285 X-0.0047 Y-0.7908
N2290 X-0.0022 Y-0.7926
N2295 X0.0003 Y-0.7944
N2300 G3 X0.0299 Y-0.7791 I0.0109 J0.0153
N2305 G1 Y-0.7209
N2310 G3 X0.0003 Y-0.7056 I-0.0187 J0.
N2315 G1 X-0.0007 Y-0.7064
N2320 X-0.0047 Y-0.7092
N2325 X-0.011 Y-0.7132
N2330 X-0.0116 Y-0.7136
N2335 X-0.0185 Y-0.7174
N2340 X-0.0254 Y-0.7212
N2345 X-0.0323 Y-0.7247
N2350 X-0.0377 Y-0.727
N2355 X-0.046 Y-0.7304
N2360 X-0.0529 Y-0.7331
N2365 X-0.0552 Y-0.7339
N2370 X-0.0598 Y-0.7352
N2375 X-0.0667 Y-0.7372
N2380 X-0.0735 Y-0.7392
N2385 X-0.0804 Y-0.7407
N2390 X-0.0808
N2395 X-0.0873 Y-0.7419
N2400 X-0.0942 Y-0.743
N2405 X-0.101 Y-0.744
N2410 X-0.1079 Y-0.7445
N2415 X-0.1148 Y-0.7449
N2420 X-0.1217 Y-0.7453
N2425 X-0.1286
N2430 X-0.3693
N2435 X-0.3762
N2440 X-0.3831 Y-0.7451
N2445 X-0.3968 Y-0.7446
N2450 X-0.4037 Y-0.7442
N2455 X-0.4106 Y-0.7435
N2460 X-0.4243 Y-0.7419
N2465 X-0.4312 Y-0.741
N2470 X-0.4329 Y-0.7407
N2475 X-0.4381 Y-0.7398
N2480 X-0.4519 Y-0.7372
N2485 X-0.4587 Y-0.7357
N2490 X-0.4656 Y-0.7339
N2495 X-0.4794 Y-0.7302
N2500 X-0.4862 Y-0.7282
N2505 X-0.4897 Y-0.727
N2510 X-0.5069 Y-0.721
N2515 X-0.5093 Y-0.7201
N2520 X-0.5138 Y-0.7183
N2525 X-0.5275 Y-0.7123
N2530 X-0.5344 Y-0.7093
N2535 X-0.5402 Y-0.7064
N2540 X-0.555 Y-0.6985
N2545 X-0.5619 Y-0.6947
N2550 X-0.5652 Y-0.6926
N2555 X-0.5762 Y-0.6857
N2560 X-0.5825 Y-0.6817
N2565 X-0.5866 Y-0.6788
N2570 X-0.6032 Y-0.6666
N2575 X-0.6052 Y-0.6651
N2580 X-0.6101 Y-0.661
N2585 X-0.6238 Y-0.6492
N2590 X-0.629 Y-0.6444
N2595 X-0.6307 Y-0.6428
N2600 X-0.6428 Y-0.6307
N2605 X-0.6444 Y-0.629
N2610 X-0.6492 Y-0.6238
N2615 X-0.661 Y-0.6101
N2620 X-0.6651 Y-0.6052
N2625 X-0.6666 Y-0.6032
N2630 X-0.6788 Y-0.5866
N2635 X-0.6817 Y-0.5825
N2640 X-0.6857 Y-0.5762
N2645 X-0.6926 Y-0.5652
N2650 X-0.6947 Y-0.5619
N2655 X-0.6985 Y-0.555
N2660 X-0.7064 Y-0.5402
N2665 X-0.7093 Y-0.5344
N2670 X-0.7123 Y-0.5275
N2675 X-0.7183 Y-0.5138
N2680 X-0.7201 Y-0.5093
N2685 X-0.721 Y-0.5069
N2690 X-0.727 Y-0.4897
N2695 X-0.7282 Y-0.4862
N2700 X-0.7302 Y-0.4794
N2705 X-0.7339 Y-0.4656
N2710 X-0.7357 Y-0.4587
N2715 X-0.7372 Y-0.4519
N2720 X-0.7398 Y-0.4381
N2725 X-0.7407 Y-0.4329
N2730 X-0.741 Y-0.4312
N2735 X-0.7419 Y-0.4243
N2740 X-0.7435 Y-0.4106
N2745 X-0.7442 Y-0.4037
N2750 X-0.7446 Y-0.3968
N2755 X-0.7451 Y-0.3831
N2760 X-0.7453 Y-0.3762
N2765 Y-0.3693
N2770 Y-0.1286
N2775 Y-0.1217
N2780 X-0.7449 Y-0.1148
N2785 X-0.7445 Y-0.1079
N2790 X-0.744 Y-0.101
N2795 X-0.743 Y-0.0942
N2800 X-0.7419 Y-0.0873
N2805 X-0.7407 Y-0.0808
N2810 Y-0.0804
N2815 X-0.7392 Y-0.0735
N2820 X-0.7372 Y-0.0667
N2825 X-0.7352 Y-0.0598
N2830 X-0.7339 Y-0.0552
N2835 X-0.7331 Y-0.0529
N2840 X-0.7304 Y-0.046
N2845 X-0.727 Y-0.0377
N2850 X-0.7247 Y-0.0323
N2855 X-0.7212 Y-0.0254
N2860 X-0.7174 Y-0.0185
N2865 X-0.7136 Y-0.0116
N2870 X-0.7132 Y-0.011
N2875 X-0.7092 Y-0.0047
N2880 X-0.7064 Y-0.0007
N2885 X-0.7056 Y0.0003
N2890 G3 X-0.7101 Y0.0265 I-0.0153 J0.0109
N2895 G1 X-0.7127 Y0.0284 Z-0.1597
N2900 X-0.7153 Y0.0302 Z-0.1589
N2905 X-0.7177 Y0.0319 Z-0.1575
N2910 X-0.7199 Y0.0334 Z-0.1556
N2915 X-0.7218 Y0.0348 Z-0.1533
N2920 X-0.7233 Y0.0359 Z-0.1506
N2925 X-0.7244 Y0.0367 Z-0.1477
N2930 X-0.7251 Y0.0372 Z-0.1445
N2935 X-0.7254 Y0.0373 Z-0.1412
N2940 Z0.6
(WHEN USING FUSION FOR PERSONAL USE, THE FEEDRATE OF RAPID)
(MOVES IS REDUCED TO MATCH THE FEEDRATE OF CUTTING MOVES,)
(WHICH CAN INCREASE MACHINING TIME. UNRESTRICTED RAPID MOVES)
(ARE AVAILABLE WITH A FUSION SUBSCRIPTION.)
(SCALLOP1)
N2945 G0 X-0.5247 Y0.0938
N2950 G1 Z0.6 F20.
N2955 Z0.0525
N2960 Z-0.1104 F6.667
N2965 Z-0.1105 F20.
N2970 X-0.5252 Z-0.2699
N2975 X-0.5309 Z-0.2846
N2980 X-0.5329 Z-0.2885
N2985 X-0.5444 Z-0.3104
N2990 X-0.556 Z-0.3277
N2995 X-0.5598 Z-0.3333
N3000 X-0.5676 Z-0.3427
N3005 X-0.5791 Z-0.3552
N3010 X-0.583 Z-0.3591
N3015 X-0.5907 Z-0.3662
N3020 X-0.5984 Z-0.3727
N3025 X-0.6138 Z-0.3846
N3030 X-0.637 Z-0.3985
N3035 X-0.6447 Z-0.4024
N3040 X-0.6601 Z-0.4094
N3045 X-0.6678 Z-0.4123
N3050 X-0.6755 Z-0.4148
N3055 X-0.691 Z-0.4192
N3060 X-0.6987 Z-0.4213
N3065 X-0.7141 Z-0.4242
N3070 X-0.7218 Z-0.4252
N3075 X-0.7295 Z-0.4261
N3080 X-0.7372 Z-0.4266
N3085 X-0.745 Z-0.4268
N3090 X-0.7527 Z-0.4269
N3095 X-0.7681 Z-0.4261
N3100 X-0.7835 Z-0.4243
N3105 X-0.7912 Z-0.4231
N3110 X-0.7989 Z-0.4217
N3115 X-0.8067 Z-0.4201
N3120 X-0.8221 Z-0.4159
N3125 X-0.8452 Z-0.4071
N3130 X-0.8529 Z-0.4037
N3135 X-0.8684 Z-0.3956
N3140 X-0.8761 Z-0.3909
N3145 X-0.8915 Z-0.3807
N3150 X-0.8992 Z-0.3747
N3155 X-0.9069 Z-0.3683
N3160 X-0.9146 Z-0.361
N3165 X-0.9224 Z-0.3536
N3170 X-0.9262 Z-0.3496
N3175 X-0.9378 Z-0.3363
N3180 X-0.9416 Z-0.3311
N3185 X-0.9455 Z-0.3258
N3190 X-0.9494 Z-0.3201
N3195 X-0.9532 Z-0.3141
N3200 X-0.9571 Z-0.3078
N3205 X-0.9667 Z-0.2895
N3210 X-0.9686 Z-0.2852
N3215 X-0.9725 Z-0.276
N3220 X-0.9744 Z-0.2712
N3225 X-0.9783 Z-0.2596
N3230 X-0.9802 Z-0.2536
N3235 X-0.985 Z-0.2336
N3240 X-0.9852 Z-0.1747
N3245 X-0.9854 Z-0.1032
N3250 X-0.9852 Z-0.1019
N3255 X-0.9848 Z-0.1006
N3260 X-0.9842 Z-0.0994
N3265 X-0.9835 Z-0.0983
N3270 X-0.9821 Z-0.0967
N3275 X-0.9805 Z-0.0954
N3280 X-0.9793 Z-0.0946
N3285 X-0.978 Z-0.0939
N3290 X-0.9767 Z-0.0932
N3295 X-0.9738 Y0.0937 Z-0.0921
N3300 X-0.9709 Z-0.0914
N3305 X-0.968 Y0.0935 Z-0.0909
N3310 X-0.9644 Y0.0934 Z-0.0906
N3315 X-0.9608 Y0.0932 Z-0.0905
N3320 X-0.9536 Y0.0927 Z-0.0909
N3325 X-0.95 Y0.0925 Z-0.0914
N3330 X-0.9465 Y0.092 Z-0.092
N3335 X-0.9396 Y0.0909 Z-0.0938
N3340 X-0.935 Y0.0902 Z-0.0953
N3345 X-0.9304 Y0.0894 Z-0.0969
N3350 X-0.9258 Y0.0885 Z-0.0986
N3355 X-0.9169 Y0.0863 Z-0.102
N3360 X-0.9124 Y0.0851 Z-0.1037
N3365 X-0.908 Y0.0837 Z-0.1054
N3370 X-0.9036 Y0.0823 Z-0.107
N3375 X-0.8992 Y0.0808 Z-0.1086
N3380 X-0.8948 Y0.0791 Z-0.11
N3385 X-0.8905 Y0.0774 Z-0.1112
N3390 X-0.8862 Y0.0755 Z-0.1123
N3395 X-0.8818 Y0.0736 Z-0.1133
N3400 X-0.8774 Y0.0716 Z-0.114
N3405 X-0.8732 Y0.0693 Z-0.1144
N3410 X-0.8689 Y0.067 Z-0.1146
N3415 X-0.8607 Y0.0624 Z-0.1147
N3420 X-0.8529 Y0.0575
N3425 X-0.8409 Y0.0489
N3430 X-0.8375 Y0.0464
N3435 X-0.8298 Y0.0398
N3440 X-0.8221 Y0.0329 Z-0.1146
N3445 X-0.8151 Y0.0258
N3450 X-0.8067 Y0.0164
N3455 X-0.8016 Y0.0103
N3460 X-0.7989 Y0.0068
N3465 X-0.7905 Y-0.0051
N3470 X-0.7857 Y-0.0128
N3475 X-0.7814 Y-0.0205 Z-0.1147
N3480 X-0.7772 Y-0.0283 Z-0.1148
N3485 X-0.7758 Y-0.0312 Z-0.1147
N3490 X-0.7737 Y-0.036
N3495 X-0.7681 Y-0.0496 Z-0.1146
N3500 X-0.7674 Y-0.0514
N3505 X-0.7649 Y-0.0592
N3510 X-0.7627 Y-0.0669
N3515 X-0.7604 Y-0.0753
N3520 X-0.759 Y-0.0823
N3525 X-0.7577 Y-0.09 Z-0.1147
N3530 X-0.7564 Y-0.0978
N3535 X-0.7556 Y-0.1055 Z-0.1146
N3540 X-0.7548 Y-0.1209 Z-0.1145
N3545 X-0.7547 Y-0.1286 Z-0.1146
N3550 Y-0.2676 Z-0.1147
N3555 Y-0.368
N3560 X-0.7545 Y-0.3834 Z-0.1148
N3565 X-0.7543 Y-0.3911
N3570 X-0.7539 Y-0.3989 Z-0.1147
N3575 X-0.7533 Y-0.4066
N3580 X-0.7526 Y-0.4143 Z-0.1148
N3585 X-0.7517 Y-0.422
N3590 X-0.7507 Y-0.4298
N3595 X-0.7494 Y-0.4375 Z-0.1147
N3600 X-0.7481 Y-0.4452
N3605 X-0.7466 Y-0.4529 Z-0.1148
N3610 X-0.7448 Y-0.4606
N3615 X-0.7429 Y-0.4684
N3620 X-0.7409 Y-0.4761 Z-0.1147
N3625 X-0.7387 Y-0.4838
N3630 X-0.7363 Y-0.4915
N3635 X-0.7337 Y-0.4992
N3640 X-0.731 Y-0.507
N3645 X-0.728 Y-0.5147
N3650 X-0.7248 Y-0.5224
N3655 X-0.7215 Y-0.5301
N3660 X-0.7179 Y-0.5378
N3665 X-0.7141 Y-0.5457
N3670 X-0.7102 Y-0.5533 Z-0.1148
N3675 X-0.7059 Y-0.561
N3680 X-0.6987 Y-0.5734 Z-0.1147
N3685 X-0.691 Y-0.5854
N3690 X-0.6866 Y-0.5919
N3695 X-0.6811 Y-0.5996
N3700 X-0.6752 Y-0.6073
N3705 X-0.6678 Y-0.6166
N3710 X-0.6601 Y-0.6256 Z-0.1148
N3715 X-0.6524 Y-0.6342 Z-0.1147
N3720 X-0.6447 Y-0.6422
N3725 X-0.637 Y-0.6498 Z-0.1148
N3730 X-0.6293 Y-0.6569
N3735 X-0.6216 Y-0.6637 Z-0.1147
N3740 X-0.6138 Y-0.6701
N3745 X-0.6053 Y-0.6768
N3750 X-0.5948 Y-0.6845
N3755 X-0.5907 Y-0.6874
N3760 X-0.583 Y-0.6926
N3765 X-0.5753 Y-0.6975
N3770 X-0.5676 Y-0.7022
N3775 X-0.5578 Y-0.7077
N3780 X-0.5521 Y-0.7108
N3785 X-0.543 Y-0.7154 Z-0.1148
N3790 X-0.5367 Y-0.7185
N3795 X-0.5264 Y-0.7231 Z-0.1147
N3800 X-0.5213 Y-0.7253
N3805 X-0.5136 Y-0.7284
N3810 X-0.5059 Y-0.7314
N3815 X-0.4981 Y-0.7341
N3820 X-0.4843 Y-0.7386
N3825 X-0.475 Y-0.7412
N3830 X-0.4673 Y-0.7432
N3835 X-0.4596 Y-0.7451
N3840 X-0.4519 Y-0.7468
N3845 X-0.4442 Y-0.7483
N3850 X-0.4364 Y-0.7496
N3855 X-0.4287 Y-0.7508
N3860 X-0.421 Y-0.7518
N3865 X-0.4133 Y-0.7527
N3870 X-0.4056 Y-0.7534
N3875 X-0.3969 Y-0.754
N3880 X-0.3902 Y-0.7543
N3885 X-0.3825 Y-0.7545
N3890 X-0.3747 Y-0.7547
N3895 X-0.1356 Z-0.1146
N3900 X-0.1279
N3905 X-0.1202 Y-0.7548 Z-0.1145
N3910 X-0.1048 Y-0.7557 Z-0.1146
N3915 X-0.0971 Y-0.7565
N3920 X-0.0816 Y-0.7591
N3925 X-0.0739 Y-0.7607
N3930 X-0.0585 Y-0.7651
N3935 X-0.0508 Y-0.7676
N3940 X-0.0354 Y-0.774
N3945 X-0.0277 Y-0.7775
N3950 X-0.0122 Y-0.786
N3955 X-0.0045 Y-0.7909
N3960 X0.0032 Y-0.7964 Z-0.1147
N3965 X0.0087 Y-0.8004
N3970 X0.0109 Y-0.802 Z-0.1146
N3975 X0.0186 Y-0.8087
N3980 X0.0266 Y-0.8158
N3985 X0.0342 Y-0.8235
N3990 X0.0418 Y-0.832
N3995 X0.0475 Y-0.839
N4000 X0.0585 Y-0.8544
N4005 X0.0632 Y-0.8621 Z-0.1145
N4010 X0.0675 Y-0.8698 Z-0.1146
N4015 X0.0716 Y-0.8776
N4020 X0.0726 Y-0.8796
N4025 X0.0751 Y-0.8853
N4030 X0.0803 Y-0.898
N4035 X0.0813 Y-0.9007
N4040 X0.0837 Y-0.9084
N4045 X0.086 Y-0.9162
N4050 X0.0881 Y-0.9239
N4055 X0.0889 Y-0.9277
N4060 X0.091 Y-0.9397 Z-0.1147
N4065 Z-0.1899
N4070 Z-0.1999
N4075 X0.0914 Y-0.9396 Z-0.2178
N4080 X0.0921 Y-0.9395 Z-0.2407
N4085 X0.0923 Z-0.2457
N4090 X0.0924 Y-0.9393 Z-0.2503
N4095 Y-0.9368 Z-0.2568
N4100 Y-0.9297 Z-0.2736
N4105 Y-0.9277 Z-0.2777
N4110 Y-0.9239 Z-0.2849
N4115 Y-0.92 Z-0.2917
N4120 Y-0.9123 Z-0.3033
N4125 Y-0.9084 Z-0.3086
N4130 Y-0.9007 Z-0.3182
N4135 Y-0.8969 Z-0.3225
N4140 Y-0.893 Z-0.3265
N4145 Y-0.8853 Z-0.3338
N4150 Y-0.8776 Z-0.3404
N4155 Y-0.8698 Z-0.3469
N4160 Y-0.8621 Z-0.3522
N4165 Y-0.8544 Z-0.3573
N4170 Y-0.8467 Z-0.3618
N4175 Y-0.839 Z-0.3659
N4180 Y-0.8312 Z-0.3697
N4185 Y-0.8158 Z-0.3756
N4190 Y-0.8081 Z-0.3783
N4195 Y-0.8004 Z-0.3804
N4200 Y-0.7926 Z-0.3822
N4205 Y-0.7849 Z-0.3836
N4210 Y-0.7772 Z-0.3848
N4215 Y-0.7695 Z-0.3857
N4220 Y-0.7617 Z-0.3864
N4225 Y-0.754 Z-0.3868
N4230 Y-0.7463 Z-0.3869
N4235 Y-0.7386 Z-0.3866
N4240 Y-0.7309 Z-0.386
N4245 Y-0.7231 Z-0.3851
N4250 Y-0.7154 Z-0.3838
N4255 Y-0.7077 Z-0.3823
N4260 Y-0.7 Z-0.3803
N4265 Y-0.6923 Z-0.3782
N4270 Y-0.6845 Z-0.3757
N4275 Y-0.6768 Z-0.373
N4280 Y-0.6691 Z-0.3696
N4285 Y-0.6614 Z-0.366
N4290 Y-0.6537 Z-0.3617
N4295 Y-0.6459 Z-0.3574
N4300 Y-0.6382 Z-0.3526
N4305 Y-0.6305 Z-0.3471
N4310 Y-0.6228 Z-0.3409
N4315 Y-0.6151 Z-0.3343
N4320 Y-0.6073 Z-0.3267
N4325 Y-0.6035 Z-0.3227
N4330 Y-0.5958 Z-0.3138
N4335 Y-0.5919 Z-0.3092
N4340 Y-0.588 Z-0.3036
N4345 Y-0.5803 Z-0.2922
N4350 Y-0.5764 Z-0.2854
N4355 Y-0.5687 Z-0.2708
N4360 Y-0.5668 Z-0.2665
N4365 Y-0.5652 Z-0.2625
N4370 X0.0922 Y-0.5651 Z-0.2557
N4375 X0.0914 Y-0.565 Z-0.2389
N4380 X0.0908 Y-0.5649 Z-0.2249
N4385 X0.0904 Y-0.5648 Z-0.2059
N4390 X0.0902 Z-0.191
N4395 Y-0.5646 Z-0.1487
N4400 Y-0.5647 Z-0.1146
N4405 X0.0888 Y-0.5726
N4410 X0.088 Y-0.5764
N4415 X0.0859 Y-0.5842
N4420 X0.0836 Y-0.5919
N4425 X0.0812 Y-0.5996
N4430 X0.0803 Y-0.602
N4435 X0.0749 Y-0.6151
N4440 X0.0726 Y-0.6204
N4445 X0.0715 Y-0.6228
N4450 X0.0649 Y-0.6348 Z-0.1147
N4455 X0.063 Y-0.6382
N4460 X0.0583 Y-0.6459 Z-0.1146
N4465 X0.0495 Y-0.6584 Z-0.1147
N4470 X0.0473 Y-0.6614
N4475 X0.0418 Y-0.668
N4480 X0.0338 Y-0.6768 Z-0.1146
N4485 X0.0262 Y-0.6845 Z-0.1147
N4490 X0.0176 Y-0.6923 Z-0.1146
N4495 X0.0109 Y-0.698
N4500 X0.0083 Y-0.7
N4505 X-0.0045 Y-0.7091 Z-0.1147
N4510 X-0.0122 Y-0.714 Z-0.1146
N4515 X-0.029 Y-0.7231
N4520 X-0.0354 Y-0.726
N4525 X-0.0508 Y-0.7323
N4530 X-0.0585 Y-0.7349
N4535 X-0.0739 Y-0.7393
N4540 X-0.0816 Y-0.7409 Z-0.1145
N4545 X-0.0971 Y-0.7435 Z-0.1146
N4550 X-0.1048 Y-0.7443
N4555 X-0.1202 Y-0.7452 Z-0.1145
N4560 X-0.1279 Y-0.7453 Z-0.1146
N4565 X-0.1588
N4570 X-0.367
N4575 X-0.3747
N4580 X-0.3902 Y-0.7448
N4585 X-0.3979 Y-0.7445
N4590 X-0.4056 Y-0.744
N4595 X-0.4287 Y-0.7414 Z-0.1145
N4600 X-0.4364 Y-0.7401 Z-0.1146
N4605 X-0.4519 Y-0.7372
N4610 X-0.4596 Y-0.7355
N4615 X-0.477 Y-0.7309
N4620 X-0.4827 Y-0.7293
N4625 X-0.4904 Y-0.7268
N4630 X-0.5059 Y-0.7214
N4635 X-0.5136 Y-0.7184
N4640 X-0.5213 Y-0.715
N4645 X-0.529 Y-0.7117
N4650 X-0.5376 Y-0.7077 Z-0.1145
N4655 X-0.5522 Y-0.7 Z-0.1146
N4660 X-0.5598 Y-0.6959 Z-0.1145
N4665 X-0.5676 Y-0.6911
N4670 X-0.5781 Y-0.6845 Z-0.1146
N4675 X-0.583 Y-0.6814
N4680 X-0.5907 Y-0.6758
N4685 X-0.5998 Y-0.6691
N4690 X-0.6061 Y-0.6644
N4695 X-0.6216 Y-0.6512
N4700 X-0.6275 Y-0.6459
N4705 X-0.643 Y-0.6305
N4710 X-0.6447 Y-0.6288
N4715 X-0.6501 Y-0.6228
N4720 X-0.6634 Y-0.6073
N4725 X-0.6693 Y-0.5996 Z-0.1145
N4730 X-0.6806 Y-0.5842 Z-0.1146
N4735 X-0.6833 Y-0.5801
N4740 X-0.6952 Y-0.561
N4745 X-0.6994 Y-0.5533 Z-0.1147
N4750 X-0.7076 Y-0.5378 Z-0.1146
N4755 X-0.7112 Y-0.5301
N4760 X-0.7179 Y-0.5147 Z-0.1145
N4765 X-0.721 Y-0.507 Z-0.1146
N4770 X-0.7237 Y-0.4992 Z-0.1147
N4775 X-0.729 Y-0.4838 Z-0.1146
N4780 X-0.7311 Y-0.4761
N4785 X-0.7353 Y-0.4606
N4790 X-0.737 Y-0.4529
N4795 X-0.7399 Y-0.4375 Z-0.1147
N4800 X-0.7413 Y-0.4298 Z-0.1145
N4805 X-0.7439 Y-0.4066 Z-0.1146
N4810 X-0.7445 Y-0.3989
N4815 X-0.7451 Y-0.3834
N4820 X-0.7454 Y-0.3757
N4825 Y-0.1364
N4830 Y-0.1286
N4835 X-0.7453 Y-0.1209 Z-0.1145
N4840 X-0.7444 Y-0.1055 Z-0.1146
N4845 X-0.7436 Y-0.0978
N4850 X-0.741 Y-0.0823
N4855 X-0.7394 Y-0.0746 Z-0.1147
N4860 X-0.7351 Y-0.0592 Z-0.1146
N4865 X-0.7326 Y-0.0514
N4870 X-0.7263 Y-0.036
N4875 X-0.7228 Y-0.0283
N4880 X-0.7141 Y-0.0125
N4885 X-0.7095 Y-0.0051
N4890 X-0.6987 Y0.01
N4895 X-0.691 Y0.019 Z-0.1147
N4900 X-0.6833 Y0.0276
N4905 X-0.6772 Y0.0335 Z-0.1146
N4910 X-0.6678 Y0.0419
N4915 X-0.6601 Y0.0482 Z-0.1147
N4920 X-0.6447 Y0.0591 Z-0.1146
N4925 X-0.6357 Y0.0644
N4930 X-0.6293 Y0.068
N4935 X-0.6215 Y0.0721
N4940 X-0.6138 Y0.0754
N4945 X-0.6032 Y0.0798
N4950 X-0.5984 Y0.0816
N4955 X-0.5907 Y0.084
N4960 X-0.5782 Y0.0875
N4965 X-0.5753 Y0.0883
N4970 X-0.5714 Y0.0891
N4975 X-0.5647 Y0.0902
N4980 Z-0.1685
N4985 X-0.5648 Y0.0903 Z-0.1995
N4990 X-0.5649 Y0.0906 Z-0.2173
N4995 X-0.565 Y0.091 Z-0.231
N5000 X-0.5651 Y0.0922 Z-0.2559
N5005 X-0.5653 Y0.0924 Z-0.2626
N5010 X-0.5676 Y0.0925 Z-0.2685
N5015 X-0.5753 Y0.0924 Z-0.2832
N5020 X-0.5791 Z-0.2904
N5025 X-0.5907 Z-0.3076
N5030 X-0.5946 Z-0.3126
N5035 X-0.5984 Z-0.3172
N5040 X-0.6061 Z-0.3255
N5045 X-0.6138 Z-0.3332
N5050 X-0.6216 Z-0.3399
N5055 X-0.6293 Z-0.346
N5060 X-0.637 Z-0.3518
N5065 X-0.6524 Z-0.3611
N5070 X-0.6601 Z-0.3654
N5075 X-0.6678 Z-0.369
N5080 X-0.6755 Z-0.3725
N5085 X-0.6833 Z-0.3752
N5090 X-0.691 Z-0.3776
N5095 X-0.7064 Z-0.3819
N5100 X-0.7141 Z-0.3835
N5105 X-0.7218 Z-0.3849
N5110 X-0.7295 Z-0.3859
N5115 X-0.7372 Z-0.3866
N5120 X-0.745 Z-0.3868
N5125 X-0.7527
N5130 X-0.7604 Z-0.3865
N5135 X-0.7681 Z-0.3859
N5140 X-0.7758 Z-0.385
N5145 X-0.7835 Z-0.3839
N5150 X-0.7912 Z-0.3825
N5155 X-0.7989 Z-0.3808
N5160 X-0.8067 Z-0.3787
N5165 X-0.8144 Z-0.3761
N5170 X-0.8298 Z-0.3702
N5175 X-0.8375 Z-0.3666
N5180 X-0.8452 Z-0.3626
N5185 X-0.8529 Z-0.3582
N5190 X-0.8607 Z-0.3531
N5195 X-0.8684 Z-0.348
N5200 X-0.8761 Z-0.342
N5205 X-0.8838 Z-0.3352
N5210 X-0.8915 Z-0.3278
N5215 X-0.8954 Z-0.324
N5220 X-0.8992 Z-0.3197
N5225 X-0.9069 Z-0.3108
N5230 X-0.9108 Z-0.3056
N5235 X-0.9146 Z-0.3
N5240 X-0.9195 Z-0.2926
N5245 X-0.9224 Z-0.2879
N5250 X-0.9301 Z-0.2733
N5255 X-0.9314 Y0.0925 Z-0.2706
N5260 X-0.9359 Y0.0924 Z-0.26
N5265 X-0.9378 Z-0.2547
N5270 X-0.9416 Z-0.2429
N5275 X-0.945 Z-0.229
N5280 X-0.9451 Y0.0922 Z-0.2195
N5285 X-0.9452 Y0.0919 Z-0.1967
N5290 X-0.9453 Z-0.1146
N5295 X-0.9301 Y0.0893
N5300 X-0.9262 Y0.0886
N5305 X-0.9218 Y0.0875
N5310 X-0.9069 Y0.0833
N5315 X-0.8992 Y0.0808
N5320 X-0.8838 Y0.0744
N5325 X-0.8785 Y0.0721
N5330 X-0.8761 Y0.0709
N5335 X-0.8689 Y0.067
N5340 X-0.8623 Y0.0633 Z-0.1151
N5345 X-0.8591 Y0.0615 Z-0.1157
N5350 X-0.8559 Y0.0595 Z-0.1165
N5355 X-0.8498 Y0.0554 Z-0.1185
N5360 X-0.844 Y0.0513 Z-0.1211
N5365 X-0.8383 Y0.047 Z-0.1241
N5370 X-0.8329 Y0.0427 Z-0.1275
N5375 X-0.8277 Y0.0382 Z-0.131
N5380 X-0.8227 Y0.0336 Z-0.1347
N5385 X-0.8178 Y0.0288 Z-0.1383
N5390 X-0.8131 Y0.0239 Z-0.1418
N5395 X-0.8085 Y0.0187 Z-0.1452
N5400 X-0.8039 Y0.0132 Z-0.1482
N5405 X-0.7995 Y0.0076 Z-0.1508
N5410 X-0.7952 Y0.0016 Z-0.1528
N5415 X-0.7931 Y-0.0014 Z-0.1536
N5420 X-0.7909 Y-0.0045 Z-0.1541
N5425 X-0.7888 Y-0.0076 Z-0.1545
N5430 X-0.7869 Y-0.0109 Z-0.1546
N5435 X-0.7857 Y-0.0128
N5440 X-0.7814 Y-0.0205 Z-0.1547
N5445 X-0.7772 Y-0.0283 Z-0.1548
N5450 X-0.7758 Y-0.0312 Z-0.1547
N5455 X-0.7737 Y-0.036
N5460 X-0.7681 Y-0.0496 Z-0.1546
N5465 X-0.7674 Y-0.0514
N5470 X-0.7649 Y-0.0592
N5475 X-0.7627 Y-0.0669
N5480 X-0.7604 Y-0.0753
N5485 X-0.759 Y-0.0823 Z-0.1547
N5490 X-0.7577 Y-0.09
N5495 X-0.7564 Y-0.0978
N5500 X-0.7556 Y-0.1055 Z-0.1546
N5505 X-0.7548 Y-0.1209 Z-0.1545
N5510 X-0.7547 Y-0.1286 Z-0.1546
N5515 Y-0.3294 Z-0.1547
N5520 Y-0.368
N5525 X-0.7545 Y-0.3834 Z-0.1548
N5530 X-0.7543 Y-0.3911
N5535 X-0.7539 Y-0.3989 Z-0.1547
N5540 X-0.7533 Y-0.4066
N5545 X-0.7526 Y-0.4143 Z-0.1548
N5550 X-0.7517 Y-0.422
N5555 X-0.7507 Y-0.4298
N5560 X-0.7494 Y-0.4375 Z-0.1547
N5565 X-0.7481 Y-0.4452
N5570 X-0.7466 Y-0.4529 Z-0.1548
N5575 X-0.7448 Y-0.4606
N5580 X-0.7429 Y-0.4684
N5585 X-0.7409 Y-0.4761 Z-0.1547
N5590 X-0.7387 Y-0.4838
N5595 X-0.7363 Y-0.4915
N5600 X-0.7337 Y-0.4992
N5605 X-0.731 Y-0.507
N5610 X-0.728 Y-0.5147
N5615 X-0.7248 Y-0.5224
N5620 X-0.7215 Y-0.5301
N5625 X-0.7179 Y-0.5378
N5630 X-0.7141 Y-0.5457
N5635 X-0.7102 Y-0.5533 Z-0.1548
N5640 X-0.7059 Y-0.561
N5645 X-0.6987 Y-0.5734 Z-0.1547
N5650 X-0.691 Y-0.5854
N5655 X-0.6866 Y-0.5919
N5660 X-0.6811 Y-0.5996
N5665 X-0.6752 Y-0.6073
N5670 X-0.6678 Y-0.6166
N5675 X-0.6601 Y-0.6256 Z-0.1548
N5680 X-0.6524 Y-0.6342 Z-0.1547
N5685 X-0.6447 Y-0.6422
N5690 X-0.637 Y-0.6498 Z-0.1548
N5695 X-0.6293 Y-0.6569
N5700 X-0.6216 Y-0.6637 Z-0.1547
N5705 X-0.6138 Y-0.6701
N5710 X-0.6053 Y-0.6768
N5715 X-0.5948 Y-0.6845
N5720 X-0.5907 Y-0.6874
N5725 X-0.583 Y-0.6926
N5730 X-0.5753 Y-0.6975
N5735 X-0.5676 Y-0.7022
N5740 X-0.5578 Y-0.7077
N5745 X-0.5521 Y-0.7108
N5750 X-0.543 Y-0.7154 Z-0.1548
N5755 X-0.5367 Y-0.7185
N5760 X-0.5264 Y-0.7231 Z-0.1547
N5765 X-0.5213 Y-0.7253
N5770 X-0.5136 Y-0.7284
N5775 X-0.5059 Y-0.7314
N5780 X-0.4981 Y-0.7341
N5785 X-0.4843 Y-0.7386
N5790 X-0.475 Y-0.7412
N5795 X-0.4673 Y-0.7432
N5800 X-0.4596 Y-0.7451
N5805 X-0.4519 Y-0.7468
N5810 X-0.4442 Y-0.7483
N5815 X-0.4364 Y-0.7496
N5820 X-0.4287 Y-0.7508
N5825 X-0.421 Y-0.7518
N5830 X-0.4133 Y-0.7527
N5835 X-0.4056 Y-0.7534
N5840 X-0.3969 Y-0.754
N5845 X-0.3902 Y-0.7543
N5850 X-0.3825 Y-0.7545
N5855 X-0.3747 Y-0.7547
N5860 X-0.1356 Z-0.1546
N5865 X-0.1279
N5870 X-0.1202 Y-0.7548 Z-0.1545
N5875 X-0.1048 Y-0.7557 Z-0.1546
N5880 X-0.0971 Y-0.7565
N5885 X-0.0816 Y-0.7591
N5890 X-0.0739 Y-0.7607
N5895 X-0.0585 Y-0.7651
N5900 X-0.0508 Y-0.7676
N5905 X-0.0354 Y-0.774
N5910 X-0.0277 Y-0.7775
N5915 X-0.0122 Y-0.786
N5920 X-0.0045 Y-0.7909
N5925 X0.0032 Y-0.7964 Z-0.1547
N5930 X0.0087 Y-0.8004
N5935 X0.0109 Y-0.802 Z-0.1546
N5940 X0.0186 Y-0.8087
N5945 X0.0266 Y-0.8158
N5950 X0.0342 Y-0.8235
N5955 X0.0418 Y-0.832
N5960 X0.0475 Y-0.839
N5965 X0.0585 Y-0.8544
N5970 X0.0632 Y-0.8621 Z-0.1545
N5975 X0.0675 Y-0.8698 Z-0.1546
N5980 X0.0716 Y-0.8776
N5985 X0.0726 Y-0.8796
N5990 X0.0751 Y-0.8853
N5995 X0.0807 Y-0.8989
N6000 X0.0813 Y-0.9008
N6005 X0.0814 Z-0.1887
N6010 X0.0816 Z-0.2009
N6015 X0.0818 Y-0.9007 Z-0.2087
N6020 X0.0824 Y-0.9006 Z-0.2195
N6025 X0.0832 Y-0.9005 Z-0.2309
N6030 X0.0838 Y-0.9004 Z-0.2383
N6035 X0.0842 Y-0.8998 Z-0.2437
N6040 X0.0841 Y-0.8969 Z-0.2507
N6045 X0.0842 Y-0.8949 Z-0.2552
N6050 Y-0.893 Z-0.2595
N6055 Y-0.8891 Z-0.2668
N6060 Y-0.8853 Z-0.2732
N6065 Y-0.8814 Z-0.2791
N6070 X0.0843 Y-0.8776 Z-0.2845
N6075 Y-0.8737 Z-0.2893
N6080 Y-0.8698 Z-0.2939
N6085 Y-0.866 Z-0.2981
N6090 X0.0842 Y-0.8621 Z-0.3018
N6095 Y-0.8544 Z-0.3087
N6100 Y-0.8467 Z-0.3152
N6105 Y-0.839 Z-0.3206
N6110 Y-0.8312 Z-0.3255
N6115 Y-0.8235 Z-0.3297
N6120 X0.0843 Y-0.8158 Z-0.3336
N6125 X0.0842 Y-0.8081 Z-0.3366
N6130 Y-0.8004 Z-0.3395
N6135 X0.0843 Y-0.7926 Z-0.3419
N6140 X0.0842 Y-0.7849 Z-0.3438
N6145 Y-0.7772 Z-0.3452
N6150 Y-0.7695 Z-0.3463
N6155 Y-0.7617 Z-0.3471
N6160 Y-0.754 Z-0.3476
N6165 X0.0843 Y-0.7463 Z-0.3477
N6170 Y-0.7386 Z-0.3474
N6175 Y-0.7309 Z-0.3466
N6180 X0.0842 Y-0.7231 Z-0.3454
N6185 Y-0.7154 Z-0.3438
N6190 Y-0.7077 Z-0.3418
N6195 Y-0.7 Z-0.3396
N6200 Y-0.6923 Z-0.3369
N6205 Y-0.6845 Z-0.3336
N6210 Y-0.6768 Z-0.3298
N6215 Y-0.6691 Z-0.3255
N6220 Y-0.6614 Z-0.3209
N6225 Y-0.6537 Z-0.3155
N6230 Y-0.6459 Z-0.3092
N6235 Y-0.6382 Z-0.3022
N6240 X0.0843 Y-0.6344 Z-0.2983
N6245 X0.0842 Y-0.6305 Z-0.2941
N6250 Y-0.6266 Z-0.2897
N6255 X0.0843 Y-0.6228 Z-0.285
N6260 X0.0842 Y-0.6189 Z-0.2794
N6265 Y-0.6151 Z-0.2737
N6270 Y-0.6112 Z-0.2673
N6275 Y-0.6073 Z-0.2601
N6280 X0.0843 Y-0.6047 Z-0.255
N6285 X0.0838 Y-0.6042 Z-0.2503
N6290 X0.0823 Y-0.604 Z-0.2344
N6295 X0.0812 Y-0.6037 Z-0.2221
N6300 X0.0808 Y-0.6036 Z-0.2163
N6305 X0.0802 Y-0.6035 Z-0.205
N6310 X0.0799 Y-0.6034 Z-0.1982
N6315 X0.0798 Z-0.1889
N6320 Y-0.6033 Z-0.1546
N6325 X0.0749 Y-0.6151
N6330 X0.0726 Y-0.6204
N6335 X0.0715 Y-0.6228
N6340 X0.0649 Y-0.6348 Z-0.1547
N6345 X0.063 Y-0.6382
N6350 X0.0583 Y-0.6459 Z-0.1546
N6355 X0.0495 Y-0.6584 Z-0.1547
N6360 X0.0473 Y-0.6614
N6365 X0.0418 Y-0.668
N6370 X0.0338 Y-0.6768 Z-0.1546
N6375 X0.0262 Y-0.6845 Z-0.1547
N6380 X0.0176 Y-0.6923 Z-0.1546
N6385 X0.0109 Y-0.698
N6390 X0.0083 Y-0.7
N6395 X-0.0045 Y-0.7091 Z-0.1547
N6400 X-0.0122 Y-0.714 Z-0.1546
N6405 X-0.029 Y-0.7231
N6410 X-0.0354 Y-0.726
N6415 X-0.0508 Y-0.7323
N6420 X-0.0585 Y-0.7349
N6425 X-0.0739 Y-0.7393
N6430 X-0.0816 Y-0.7409 Z-0.1545
N6435 X-0.0971 Y-0.7435 Z-0.1546
N6440 X-0.1048 Y-0.7443
N6445 X-0.1202 Y-0.7452 Z-0.1545
N6450 X-0.1279 Y-0.7453 Z-0.1546
N6455 X-0.1665
N6460 X-0.367
N6465 X-0.3747
N6470 X-0.3902 Y-0.7448
N6475 X-0.3979 Y-0.7445
N6480 X-0.4056 Y-0.744
N6485 X-0.4287 Y-0.7414 Z-0.1545
N6490 X-0.4364 Y-0.7401 Z-0.1546
N6495 X-0.4519 Y-0.7372
N6500 X-0.4596 Y-0.7355
N6505 X-0.477 Y-0.7309
N6510 X-0.4827 Y-0.7293
N6515 X-0.4904 Y-0.7268
N6520 X-0.5059 Y-0.7214
N6525 X-0.5136 Y-0.7184
N6530 X-0.5213 Y-0.715
N6535 X-0.529 Y-0.7117
N6540 X-0.5376 Y-0.7077 Z-0.1545
N6545 X-0.5522 Y-0.7 Z-0.1546
N6550 X-0.5598 Y-0.6959 Z-0.1545
N6555 X-0.5676 Y-0.6911
N6560 X-0.5781 Y-0.6845 Z-0.1546
N6565 X-0.583 Y-0.6814
N6570 X-0.5907 Y-0.6758
N6575 X-0.5998 Y-0.6691
N6580 X-0.6061 Y-0.6644
N6585 X-0.6216 Y-0.6512
N6590 X-0.6275 Y-0.6459
N6595 X-0.643 Y-0.6305
N6600 X-0.6447 Y-0.6288
N6605 X-0.6501 Y-0.6228
N6610 X-0.6634 Y-0.6073
N6615 X-0.6693 Y-0.5996 Z-0.1545
N6620 X-0.6806 Y-0.5842 Z-0.1546
N6625 X-0.6833 Y-0.5801
N6630 X-0.6952 Y-0.561
N6635 X-0.6994 Y-0.5533 Z-0.1547
N6640 X-0.7076 Y-0.5378 Z-0.1546
N6645 X-0.7112 Y-0.5301
N6650 X-0.7179 Y-0.5147 Z-0.1545
N6655 X-0.721 Y-0.507 Z-0.1546
N6660 X-0.7237 Y-0.4992 Z-0.1547
N6665 X-0.729 Y-0.4838 Z-0.1546
N6670 X-0.7311 Y-0.4761
N6675 X-0.7353 Y-0.4606
N6680 X-0.737 Y-0.4529
N6685 X-0.7399 Y-0.4375 Z-0.1547
N6690 X-0.7413 Y-0.4298 Z-0.1545
N6695 X-0.7439 Y-0.4066 Z-0.1546
N6700 X-0.7445 Y-0.3989
N6705 X-0.7451 Y-0.3834
N6710 X-0.7454 Y-0.3757
N6715 Y-0.1364
N6720 Y-0.1286
N6725 X-0.7453 Y-0.1209 Z-0.1545
N6730 X-0.7444 Y-0.1055 Z-0.1546
N6735 X-0.7436 Y-0.0978
N6740 X-0.741 Y-0.0823
N6745 X-0.7394 Y-0.0746 Z-0.1547
N6750 X-0.7351 Y-0.0592 Z-0.1546
N6755 X-0.7326 Y-0.0514
N6760 X-0.7263 Y-0.036
N6765 X-0.7228 Y-0.0283
N6770 X-0.7141 Y-0.0125
N6775 X-0.7095 Y-0.0051
N6780 X-0.6987 Y0.01
N6785 X-0.691 Y0.019 Z-0.1547
N6790 X-0.6833 Y0.0276
N6795 X-0.6772 Y0.0335 Z-0.1546
N6800 X-0.6678 Y0.0419
N6805 X-0.6601 Y0.0482 Z-0.1547
N6810 X-0.6447 Y0.0591 Z-0.1546
N6815 X-0.6357 Y0.0644
N6820 X-0.6293 Y0.068
N6825 X-0.6215 Y0.0721
N6830 X-0.6138 Y0.0754
N6835 X-0.6033 Y0.0798
N6840 X-0.6034 Z-0.1928
N6845 X-0.6035 Y0.08 Z-0.202
N6850 Y0.0803 Z-0.2078
N6855 X-0.6036 Y0.0807 Z-0.2154
N6860 X-0.6038 Y0.0816 Z-0.2274
N6865 X-0.6042 Y0.0836 Z-0.2479
N6870 X-0.6046 Y0.0843 Z-0.2549
N6875 X-0.61 Y0.0842 Z-0.2651
N6880 X-0.6138 Z-0.2719
N6885 X-0.6177 Z-0.2776
N6890 X-0.6216 Y0.0843 Z-0.2833
N6895 X-0.6254 Z-0.2884
N6900 X-0.6293 Z-0.2929
N6905 X-0.6331 Y0.0842 Z-0.297
N6910 X-0.637 Z-0.301
N6915 X-0.6447 Z-0.3082
N6920 X-0.6524 Z-0.3144
N6925 X-0.6601 Z-0.3201
N6930 X-0.6678 Z-0.3247
N6935 X-0.6755 Z-0.3292
N6940 X-0.6833 Z-0.333
N6945 X-0.691 Z-0.3364
N6950 X-0.6987 Z-0.339
N6955 X-0.7064 Z-0.3413
N6960 X-0.7141 Z-0.3434
N6965 X-0.7218 Z-0.3451
N6970 X-0.7295 Y0.0843 Z-0.3464
N6975 X-0.7372 Z-0.3473
N6980 X-0.745 Y0.0842 Z-0.3477
N6985 X-0.7527 Z-0.3476
N6990 X-0.7604 Z-0.3472
N6995 X-0.7681 Z-0.3465
N7000 X-0.7758 Z-0.3454
N7005 X-0.7835 Z-0.3441
N7010 X-0.7912 Y0.0843 Z-0.3423
N7015 X-0.7989 Y0.0842 Z-0.34
N7020 X-0.8067 Z-0.3372
N7025 X-0.8144 Y0.0843 Z-0.3342
N7030 X-0.8221 Y0.0842 Z-0.3305
N7035 X-0.8298 Z-0.3263
N7040 X-0.8375 Z-0.3215
N7045 X-0.8452 Z-0.3164
N7050 X-0.8529 Z-0.3102
N7055 X-0.8607 Z-0.3031
N7060 X-0.8684 Z-0.2955
N7065 X-0.8761 Y0.0843 Z-0.2866
N7070 X-0.8799 Z-0.2813
N7075 X-0.8838 Z-0.2757
N7080 X-0.8876 Z-0.2696
N7085 X-0.8915 Y0.0842 Z-0.2625
N7090 X-0.8954 Y0.0843 Z-0.2551
N7095 X-0.8975 Z-0.2502
N7100 X-0.8992 Z-0.2461
N7105 X-0.9011 Z-0.2407
N7110 X-0.904 Z-0.2319
N7115 X-0.9058 Y0.0842 Z-0.2244
N7120 X-0.906 Y0.0838 Z-0.2167
N7125 X-0.9061 Y0.0834 Z-0.2075
N7130 X-0.9062 Y0.0832 Z-0.1997
N7135 Y0.0831 Z-0.1884
N7140 Z-0.1546
N7145 X-0.8992 Y0.0808
N7150 X-0.8838 Y0.0744
N7155 X-0.8785 Y0.0721
N7160 X-0.8761 Y0.0709
N7165 X-0.8607 Y0.0624 Z-0.1547
N7170 X-0.8529 Y0.0575
N7175 X-0.8409 Y0.0489
N7180 X-0.8375 Y0.0464
N7185 X-0.8298 Y0.0398
N7190 X-0.8221 Y0.0329 Z-0.1546
N7195 X-0.8151 Y0.0258
N7200 X-0.8067 Y0.0164
N7205 X-0.8016 Y0.0103
N7210 X-0.7989 Y0.0068
N7215 X-0.7905 Y-0.0051
N7220 X-0.7869 Y-0.0109
N7225 X-0.7857 Y-0.0126 Z-0.1547
N7230 X-0.7849 Y-0.0135 Z-0.1548
N7235 X-0.783 Y-0.0152 Z-0.1552
N7240 X-0.781 Y-0.0166 Z-0.1557
N7245 X-0.7796 Y-0.0174 Z-0.1561
N7250 X-0.7781 Y-0.0181 Z-0.1565
N7255 X-0.7766 Y-0.0188 Z-0.157
N7260 X-0.7735 Y-0.0198 Z-0.1581
N7265 X-0.7719 Y-0.0202 Z-0.1587
N7270 X-0.7703 Y-0.0205 Z-0.1594
N7275 X-0.767 Y-0.0208 Z-0.1607
N7280 X-0.7638 Y-0.0209 Z-0.1621
N7285 X-0.7568 Y-0.0203 Z-0.1652
N7290 X-0.7534 Y-0.0197 Z-0.1668
N7295 X-0.75 Y-0.0188 Z-0.1685
N7300 X-0.7434 Y-0.0166 Z-0.1717
N7305 X-0.7402 Y-0.0152 Z-0.1733
N7310 X-0.737 Y-0.0136 Z-0.1749
N7315 X-0.7333 Y-0.0115 Z-0.1767
N7320 X-0.7297 Y-0.0093 Z-0.1786
N7325 X-0.7261 Y-0.007 Z-0.1804
N7330 X-0.7225 Y-0.0046 Z-0.1822
N7335 X-0.7189 Y-0.0022 Z-0.1839
N7340 X-0.7154 Y0.0004 Z-0.1856
N7345 X-0.7119 Y0.0031 Z-0.1871
N7350 X-0.7085 Y0.0058 Z-0.1886
N7355 X-0.7051 Y0.0086 Z-0.1899
N7360 X-0.7016 Y0.0115 Z-0.1911
N7365 X-0.6982 Y0.0144 Z-0.1922
N7370 X-0.6948 Y0.0174 Z-0.1931
N7375 X-0.6915 Y0.0205 Z-0.1938
N7380 X-0.6881 Y0.0236 Z-0.1943
N7385 X-0.6847 Y0.0267 Z-0.1946
N7390 X-0.6814 Y0.0299 Z-0.1947
N7395 X-0.6776 Y0.0335
N7400 X-0.6678 Y0.0422 Z-0.1946
N7405 X-0.6601 Y0.0485 Z-0.1947
N7410 X-0.6485 Y0.0567 Z-0.1946
N7415 X-0.6447 Y0.0593
N7420 X-0.6398 Y0.0623
N7425 X-0.6395 Y0.0626 Z-0.1978
N7430 X-0.6396 Y0.063 Z-0.2042
N7435 X-0.6397 Y0.0633 Z-0.2088
N7440 X-0.6401 Y0.0644 Z-0.2186
N7445 X-0.6404 Y0.0653 Z-0.2255
N7450 X-0.6407 Y0.0663 Z-0.2312
N7455 X-0.6412 Y0.0678 Z-0.2388
N7460 X-0.6419 Y0.0692 Z-0.2462
N7465 X-0.6447 Y0.0693 Z-0.2511
N7470 X-0.6485 Y0.0692 Z-0.2571
N7475 X-0.6524 Y0.0693 Z-0.2626
N7480 X-0.6563 Z-0.2674
N7485 X-0.6601 Z-0.2716
N7490 X-0.6678 Z-0.279
N7495 X-0.6755 Y0.0692 Z-0.2854
N7500 X-0.6833 Z-0.2907
N7505 X-0.691 Z-0.2953
N7510 X-0.6987 Z-0.2993
N7515 X-0.7064 Z-0.3025
N7520 X-0.7141 Y0.0691 Z-0.3049
N7525 X-0.7218 Y0.0692 Z-0.3071
N7530 X-0.7295 Z-0.3088
N7535 X-0.7372 Y0.0693 Z-0.3099
N7540 X-0.745 Z-0.3105
N7545 X-0.7527
N7550 X-0.7604 Y0.0692 Z-0.31
N7555 X-0.7681 Z-0.3091
N7560 X-0.7758 Y0.0693 Z-0.3078
N7565 X-0.7835 Z-0.3059
N7570 X-0.7912 Y0.0692 Z-0.3033
N7575 X-0.7989 Y0.0693 Z-0.3004
N7580 X-0.8067 Z-0.2967
N7585 X-0.8144 Y0.0692 Z-0.2922
N7590 X-0.8221 Y0.0693 Z-0.2872
N7595 X-0.8298 Y0.0692 Z-0.2811
N7600 X-0.8375 Z-0.2738
N7605 X-0.8414 Y0.0693 Z-0.27
N7610 X-0.8452 Z-0.2656
N7615 X-0.8491 Y0.0694 Z-0.2607
N7620 X-0.8529 Y0.0693 Z-0.255
N7625 X-0.8568 Z-0.2487
N7630 X-0.8607 Z-0.2414
N7635 X-0.8625 Z-0.2376
N7640 X-0.8643 Z-0.2335
N7645 X-0.8663 Z-0.2279
N7650 X-0.8684 Z-0.2215
N7655 X-0.869 Y0.0687 Z-0.2145
N7660 X-0.8692 Y0.0681 Z-0.2075
N7665 X-0.8693 Y0.0676 Z-0.2005
N7670 X-0.8691 Y0.0672 Z-0.1946
N7675 X-0.8607 Y0.0625 Z-0.1947
N7680 X-0.8529 Y0.0577
N7685 X-0.8405 Y0.0489
N7690 X-0.8375 Y0.0467
N7695 X-0.8298 Y0.0401
N7700 X-0.8221 Y0.0332 Z-0.1946
N7705 X-0.8144 Y0.0255
N7710 X-0.8067 Y0.0169
N7715 X-0.801 Y0.0103
N7720 X-0.7989 Y0.0076
N7725 X-0.7898 Y-0.0051
N7730 X-0.7849 Y-0.0128
N7735 X-0.7762 Y-0.0283 Z-0.1948
N7740 X-0.7726 Y-0.036 Z-0.1946
N7745 X-0.7659 Y-0.0514
N7750 X-0.7631 Y-0.0592 Z-0.1945
N7755 X-0.7604 Y-0.0673
N7760 X-0.7578 Y-0.0746
N7765 X-0.7566 Y-0.0785
N7770 X-0.7555 Y-0.0823
N7775 X-0.7544 Y-0.0862
N7780 X-0.7527 Y-0.0912 Z-0.1944
N7785 X-0.7521 Y-0.0925
N7790 X-0.7508 Y-0.095 Z-0.1942
N7795 X-0.7498 Y-0.096 Z-0.1941
N7800 X-0.7492 Y-0.0955
N7805 X-0.7482 Y-0.0939 Z-0.1942
N7810 X-0.7476 Y-0.0925 Z-0.1943
N7815 X-0.7467 Y-0.09 Z-0.1944
N7820 X-0.745 Y-0.0844 Z-0.1945
N7825 X-0.7422 Y-0.0746 Z-0.1946
N7830 X-0.7395 Y-0.0669
N7835 X-0.7369 Y-0.0592
N7840 X-0.7342 Y-0.0514
N7845 X-0.7274 Y-0.036
N7850 X-0.7238 Y-0.0283
N7855 X-0.7194 Y-0.0205
N7860 X-0.7141 Y-0.0112
N7865 X-0.7102 Y-0.0051
N7870 X-0.7046 Y0.0026
N7875 X-0.6987 Y0.0107
N7880 X-0.691 Y0.0196
N7885 X-0.6833 Y0.0281 Z-0.1947
N7890 X-0.6814 Y0.0299
N7895 X-0.6815
N7900 X-0.6805 Y0.0309 Z-0.1949
N7905 X-0.6798 Y0.0319 Z-0.1953
N7910 X-0.6792 Y0.033 Z-0.1959
N7915 X-0.6788 Y0.034 Z-0.1967
N7920 X-0.6785 Y0.0351 Z-0.1976
N7925 X-0.6783 Y0.0365 Z-0.1992
N7930 X-0.6784 Y0.0379 Z-0.2009
N7935 X-0.6785 Y0.0388 Z-0.2022
N7940 X-0.6787 Y0.0397 Z-0.2035
N7945 X-0.6794 Y0.0413 Z-0.2063
N7950 X-0.6799 Y0.042 Z-0.2076
N7955 X-0.6804 Y0.0426 Z-0.209
N7960 X-0.681 Y0.0432 Z-0.2104
N7965 X-0.6816 Y0.0437 Z-0.2118
N7970 X-0.6854 Y0.0459 Z-0.2187
N7975 X-0.6874 Y0.0468 Z-0.2222
N7980 X-0.6897 Y0.0476 Z-0.2255
N7985 X-0.6945 Y0.0487 Z-0.232
N7990 X-0.6971 Y0.049 Z-0.2352
N7995 X-0.6999 Y0.0492 Z-0.2382
N8000 X-0.7074 Y0.0494 Z-0.2457
N8005 X-0.7151 Z-0.2529
N8010 X-0.7232 Y0.0492 Z-0.2597
N8015 X-0.7275 Y0.049 Z-0.2628
N8020 X-0.7318 Y0.0489 Z-0.2658
N8025 X-0.7361 Y0.0487 Z-0.2683
N8030 X-0.7406 Y0.0485 Z-0.2706
N8035 X-0.7451 Y0.0483 Z-0.2724
N8040 X-0.7499 Y0.0482 Z-0.2739
N8045 X-0.7522 Y0.0481 Z-0.2745
N8050 X-0.7546 Y0.048 Z-0.275
N8055 X-0.7595 Y0.0479 Z-0.2755
N8060 X-0.7619 Y0.0478
N8065 X-0.7643 Z-0.2754
N8070 X-0.7667 Z-0.2751
N8075 X-0.7691 Z-0.2746
N8080 X-0.7758 Z-0.2729
N8085 X-0.7835 Z-0.2702
N8090 X-0.7912 Z-0.2666
N8095 X-0.7989 Y0.0477 Z-0.262
N8100 X-0.8067 Z-0.2564
N8105 X-0.8144 Y0.0478 Z-0.2493
N8110 X-0.8182 Y0.0479 Z-0.2452
N8115 X-0.8221 Z-0.2403
N8120 X-0.8248 Z-0.2363
N8125 X-0.826 Y0.0476 Z-0.2338
N8130 X-0.8221 Y0.0449 Z-0.2337
N8135 X-0.8144 Y0.0392 Z-0.2334
N8140 X-0.8067 Y0.0335 Z-0.233
N8145 X-0.7989 Y0.0274 Z-0.2325
N8150 X-0.7912 Y0.0209 Z-0.232
N8155 X-0.7878 Y0.0181 Z-0.2316
N8160 X-0.7835 Y0.0145 Z-0.231
N8165 X-0.7787 Y0.0103 Z-0.2303
N8170 X-0.7758 Y0.0078 Z-0.2299
N8175 X-0.7701 Y0.0026 Z-0.2288
N8180 X-0.7681 Y0.0008 Z-0.2283
N8185 X-0.7604 Y-0.0058 Z-0.2261
N8190 X-0.7565 Y-0.0092 Z-0.2247
N8195 X-0.7525 Y-0.0128 Z-0.2231
N8200 X-0.75 Y-0.015 Z-0.2219
N8205 X-0.7473 Y-0.0128 Z-0.223
N8210 X-0.745 Y-0.0107 Z-0.224
N8215 X-0.7372 Y-0.0039 Z-0.2268
N8220 X-0.7295 Y0.0029 Z-0.2289
N8225 X-0.7213 Y0.0103 Z-0.2303
N8230 X-0.7122 Y0.0181 Z-0.2316
N8235 X-0.7064 Y0.0229 Z-0.2322
N8240 X-0.6987 Y0.0294 Z-0.2327
N8245 X-0.6934 Y0.0335 Z-0.2332
N8250 X-0.691 Y0.0353 Z-0.2333
N8255 X-0.6829 Y0.0412 Z-0.2336
N8260 X-0.6777 Y0.0451 Z-0.2337
N8265 X-0.6755 Y0.0466
N8270 Y0.0468 Z-0.2344
N8275 X-0.6766 Y0.0478 Z-0.2383
N8280 X-0.6798 Y0.0479 Z-0.2428
N8285 X-0.6833 Y0.0478 Z-0.2469
N8290 X-0.691 Z-0.2544
N8295 X-0.6987 Y0.0477 Z-0.2604
N8300 X-0.7064 Z-0.2652
N8305 X-0.7141 Z-0.2691
N8310 X-0.7218 Y0.0476 Z-0.272
N8315 X-0.7295 Y0.0477 Z-0.2742
N8320 X-0.7372 Y0.0478 Z-0.2758
N8325 X-0.745 Z-0.2767
N8330 X-0.7527
N8335 X-0.7604 Y0.0477 Z-0.276
N8340 X-0.7681 Y0.0478 Z-0.2749
N8345 X-0.7691 Z-0.2746
N8350 X-0.772 Z-0.2736
N8355 X-0.7748 Z-0.2721
N8360 X-0.7772 Y0.0477 Z-0.2702
N8365 X-0.7793 Z-0.2679
N8370 X-0.781 Z-0.2653
N8375 X-0.7822 Z-0.2625
N8380 X-0.783 Z-0.2595
N8385 X-0.7833 Z-0.2564
N8390 Z0.2
N8395 X-0.0919 Y-0.7435
N8400 Z0.052
N8405 Z-0.1875 F6.667
N8410 X-0.092 Y-0.7437 Z-0.1893 F20.
N8415 X-0.0924 Y-0.7442 Z-0.1909
N8420 X-0.093 Y-0.7452 Z-0.1923
N8425 X-0.0938 Y-0.7464 Z-0.1934
N8430 X-0.0947 Y-0.7477 Z-0.194
N8435 X-0.0957 Y-0.7492 Z-0.1941
N8440 X-0.0963 Y-0.7502
N8445 X-0.0951 Y-0.7511 Z-0.1942
N8450 X-0.0942 Y-0.7517
N8455 X-0.0932 Y-0.7521 Z-0.1943
N8460 X-0.0894 Y-0.7536 Z-0.1944
N8465 X-0.0816 Y-0.7558 Z-0.1945
N8470 X-0.0778 Y-0.7569
N8475 X-0.0739 Y-0.7581
N8480 X-0.0634 Y-0.7617
N8485 X-0.0585 Y-0.7633
N8490 X-0.0508 Y-0.7661 Z-0.1946
N8495 X-0.0354 Y-0.7728
N8500 X-0.0277 Y-0.7766
N8505 X-0.0122 Y-0.7853
N8510 X-0.0045 Y-0.7902
N8515 X0.0032 Y-0.7958 Z-0.1947
N8520 X0.0095 Y-0.8004
N8525 X0.0109 Y-0.8015 Z-0.1946
N8530 X0.0186 Y-0.8082
N8535 X0.0271 Y-0.8158
N8540 X0.0345 Y-0.8235
N8545 X0.0418 Y-0.8317
N8550 X0.0478 Y-0.839
N8555 X0.0587 Y-0.8544
N8560 X0.0633 Y-0.8621 Z-0.1945
N8565 X0.0646 Y-0.8644 Z-0.1946
N8570 X0.0649 Z-0.2001
N8575 X0.0655 Y-0.8642 Z-0.2094
N8580 X0.0662 Y-0.864 Z-0.2156
N8585 X0.0668 Y-0.8638 Z-0.2208
N8590 X0.0674 Y-0.8636 Z-0.2253
N8595 X0.0683 Y-0.8634 Z-0.2306
N8600 X0.0691 Y-0.8627 Z-0.2362
N8605 X0.0692 Y-0.8602 Z-0.2421
N8610 X0.0693 Y-0.8583 Z-0.2459
N8615 Y-0.8544 Z-0.2526
N8620 Y-0.8505 Z-0.2585
N8625 Y-0.8467 Z-0.2637
N8630 Y-0.8428 Z-0.2684
N8635 Y-0.839 Z-0.2726
N8640 X0.0692 Y-0.8312 Z-0.2797
N8645 X0.0693 Y-0.8235 Z-0.2862
N8650 X0.0692 Y-0.8158 Z-0.2914
N8655 Y-0.8081 Z-0.2959
N8660 X0.0693 Y-0.8004 Z-0.2998
N8665 X0.0692 Y-0.7926 Z-0.3028
N8670 X0.0693 Y-0.7849 Z-0.3055
N8675 Y-0.7772 Z-0.3075
N8680 X0.0692 Y-0.7695 Z-0.3089
N8685 Y-0.7617 Z-0.3098
N8690 Y-0.754 Z-0.3104
N8695 X0.0693 Y-0.7463 Z-0.3106
N8700 Y-0.7386 Z-0.3101
N8705 Y-0.7309 Z-0.309
N8710 X0.0692 Y-0.7231 Z-0.3075
N8715 Y-0.7154 Z-0.3055
N8720 X0.0693 Y-0.7077 Z-0.303
N8725 Y-0.7 Z-0.2999
N8730 X0.0692 Y-0.6923 Z-0.296
N8735 Y-0.6845 Z-0.2916
N8740 X0.0693 Y-0.6768 Z-0.2864
N8745 X0.0692 Y-0.6691 Z-0.2801
N8750 X0.0693 Y-0.6614 Z-0.2729
N8755 Y-0.6575 Z-0.2687
N8760 Y-0.6537 Z-0.2641
N8765 Y-0.6498 Z-0.2588
N8770 Y-0.6459 Z-0.2531
N8775 X0.0692 Y-0.6421 Z-0.2464
N8780 X0.0682 Y-0.6413 Z-0.2406
N8785 X0.0671 Y-0.641 Z-0.2353
N8790 X0.066 Y-0.6406 Z-0.2293
N8795 X0.0649 Y-0.6403 Z-0.2223
N8800 X0.064 Y-0.64 Z-0.2149
N8805 X0.0633 Y-0.6397 Z-0.2086
N8810 X0.063 Y-0.6396 Z-0.2046
N8815 X0.0626 Y-0.6395 Z-0.1968
N8820 X0.0623 Y-0.6397 Z-0.1947
N8825 X0.061 Y-0.6419
N8830 X0.0585 Y-0.6459 Z-0.1946
N8835 X0.0475 Y-0.6614 Z-0.1947
N8840 X0.0411 Y-0.6691
N8845 X0.034 Y-0.677 Z-0.1946
N8850 X0.0263 Y-0.6849 Z-0.1947
N8855 X0.0181 Y-0.6923 Z-0.1946
N8860 X0.0109 Y-0.6985
N8865 X0.009 Y-0.7
N8870 X-0.0045 Y-0.7098 Z-0.1947
N8875 X-0.0122 Y-0.7147 Z-0.1946
N8880 X-0.0277 Y-0.7234
N8885 X-0.0354 Y-0.7271 Z-0.1945
N8890 X-0.0508 Y-0.7339 Z-0.1946
N8895 X-0.0585 Y-0.7367
N8900 X-0.0662 Y-0.7393
N8905 X-0.0739 Y-0.742 Z-0.1945
N8910 X-0.0855 Y-0.7452 Z-0.1944
N8915 X-0.0894 Y-0.7463 Z-0.1943
N8920 X-0.0932 Y-0.7478 Z-0.1942
N8925 X-0.0951 Y-0.7489
N8930 X-0.0957 Y-0.7492 Z-0.1941
N8935 X-0.0958 Y-0.7496
N8940 X-0.0957 Y-0.7501
N8945 X-0.0951 Y-0.7509
N8950 X-0.0941 Y-0.7516 Z-0.1942
N8955 X-0.093 Y-0.752 Z-0.1943
N8960 X-0.0919 Y-0.7523 Z-0.1944
N8965 X-0.0897 Y-0.7525 Z-0.1947
N8970 X-0.0831 Y-0.753 Z-0.1958
N8975 X-0.0815 Y-0.7533 Z-0.196
N8980 X-0.08 Y-0.7536 Z-0.1961
N8985 X-0.0769 Y-0.7544 Z-0.1964
N8990 X-0.0707 Y-0.7563 Z-0.1972
N8995 X-0.0677 Y-0.7571 Z-0.1977
N9000 X-0.0662 Y-0.7573 Z-0.198
N9005 X-0.0647 Y-0.7575 Z-0.1984
N9010 X-0.0625 Y-0.7576 Z-0.1992
N9015 X-0.0603 Y-0.7574 Z-0.2001
N9020 X-0.0585 Y-0.7569 Z-0.2008
N9025 X-0.0537 Y-0.7554 Z-0.2025
N9030 X-0.0486 Y-0.7538 Z-0.2045
N9035 X-0.0436 Y-0.7521 Z-0.2066
N9040 X-0.0386 Y-0.7504 Z-0.2088
N9045 X-0.0338 Y-0.7486 Z-0.2111
N9050 X-0.0289 Y-0.7466 Z-0.2134
N9055 X-0.0242 Y-0.7446 Z-0.2157
N9060 X-0.0195 Y-0.7424 Z-0.218
N9065 X-0.0149 Y-0.74 Z-0.2201
N9070 X-0.0105 Y-0.7375 Z-0.2222
N9075 X-0.0061 Y-0.7347 Z-0.2242
N9080 X-0.0018 Y-0.7317 Z-0.226
N9085 X0.0024 Y-0.7285 Z-0.2277
N9090 X0.0064 Y-0.725 Z-0.229
N9095 X0.0103 Y-0.7212 Z-0.2302
N9100 X0.0121 Y-0.7192 Z-0.2306
N9105 X0.0139 Y-0.7172 Z-0.2309
N9110 X0.0186 Y-0.7115 Z-0.2317
N9115 X0.0218 Y-0.7077 Z-0.2321
N9120 X0.0283 Y-0.7 Z-0.2326
N9125 X0.0343 Y-0.6923 Z-0.2332
N9130 X0.0429 Y-0.6807 Z-0.2336
N9135 X0.0457 Y-0.6768 Z-0.2337
N9140 X0.0467 Y-0.6755 Z-0.2341
N9145 X0.0476 Y-0.6759 Z-0.2367
N9150 X0.0478 Y-0.6768 Z-0.2386
N9155 Y-0.6807 Z-0.2438
N9160 Y-0.6845 Z-0.2482
N9165 X0.0477 Y-0.6923 Z-0.2555
N9170 Y-0.7 Z-0.2613
N9175 Y-0.7077 Z-0.266
N9180 X0.0478 Y-0.7154 Z-0.2697
N9185 X0.0477 Y-0.7231 Z-0.2725
N9190 X0.0478 Y-0.7309 Z-0.2746
N9195 Y-0.7386 Z-0.276
N9200 Y-0.7463 Z-0.2767
N9205 X0.0477 Y-0.754 Z-0.2766
N9210 Y-0.7617 Z-0.2758
N9215 X0.0478 Y-0.7695 Z-0.2746
N9220 X0.0477 Y-0.7772 Z-0.2725
N9225 X0.0478 Y-0.7849 Z-0.2696
N9230 X0.0477 Y-0.7926 Z-0.2659
N9235 Y-0.8004 Z-0.2611
N9240 Y-0.8081 Z-0.2551
N9245 X0.0478 Y-0.8158 Z-0.2479
N9250 Y-0.8197 Z-0.2434
N9255 Y-0.8235 Z-0.2382
N9260 Y-0.8245 Z-0.2367
N9265 X0.0475 Y-0.8259 Z-0.2338
N9270 X0.0459 Y-0.8235 Z-0.2337
N9275 X0.0431 Y-0.8197 Z-0.2336
N9280 X0.0402 Y-0.8158 Z-0.2335
N9285 X0.034 Y-0.8075 Z-0.2331
N9290 X0.0285 Y-0.8004 Z-0.2326
N9295 X0.0221 Y-0.7926 Z-0.2321
N9300 X0.0186 Y-0.7884 Z-0.2317
N9305 X0.0157 Y-0.7849 Z-0.2313
N9310 X0.0109 Y-0.7793 Z-0.2304
N9315 X0.0032 Y-0.7708 Z-0.2289
N9320 X0.002 Y-0.7695 Z-0.2286
N9325 X-0.0048 Y-0.7617 Z-0.2265
N9330 X-0.0122 Y-0.7533 Z-0.2233
N9335 X-0.0152 Y-0.75 Z-0.2218
N9340 X-0.0119 Y-0.7463 Z-0.2235
N9345 X-0.0045 Y-0.738 Z-0.2266
N9350 X0.0018 Y-0.7309 Z-0.2286
N9355 X0.0088 Y-0.7231 Z-0.2301
N9360 X0.0109 Y-0.7207 Z-0.2304
N9365 X0.0139 Y-0.7172 Z-0.2309
N9370 X0.016 Y-0.7148 Z-0.231
N9375 X0.018 Y-0.7124 Z-0.2306
N9380 X0.0199 Y-0.7101 Z-0.2296
N9385 X0.0217 Y-0.708 Z-0.2282
N9390 X0.0233 Y-0.706 Z-0.2263
N9395 X0.0247 Y-0.7044 Z-0.224
N9400 X0.0258 Y-0.7031 Z-0.2214
N9405 X0.0267 Y-0.7021 Z-0.2185
N9410 X0.0272 Y-0.7015 Z-0.2154
N9415 X0.0274 Y-0.7013 Z-0.2123
N9420 Z0.2
N9425 X0.0938 Y-0.5247
N9430 Z0.0525
N9435 Z-0.1067 F6.667
N9440 Y-0.5252 Z-0.2668 F20.
N9445 Z-0.2699
N9450 Y-0.5301 Z-0.2825
N9455 Y-0.5321 Z-0.287
N9460 Y-0.5417 Z-0.3052
N9465 Y-0.5456 Z-0.3122
N9470 Y-0.5571 Z-0.3293
N9475 Y-0.561 Z-0.3347
N9480 Y-0.5726 Z-0.3482
N9485 Y-0.5764 Z-0.3524
N9490 Y-0.5842 Z-0.36
N9495 Y-0.5919 Z-0.3674
N9500 Y-0.6073 Z-0.3798
N9505 Y-0.6151 Z-0.3853
N9510 Y-0.6228 Z-0.3903
N9515 Y-0.6382 Z-0.3989
N9520 Y-0.6459 Z-0.4031
N9525 Y-0.6614 Z-0.41
N9530 Y-0.6768 Z-0.4153
N9535 Y-0.6845 Z-0.4176
N9540 Y-0.6923 Z-0.4196
N9545 Y-0.7 Z-0.4215
N9550 Y-0.7154 Z-0.4245
N9555 Y-0.7309 Z-0.4263
N9560 Y-0.7386 Z-0.4267
N9565 Y-0.7463 Z-0.4268
N9570 Y-0.754
N9575 Y-0.7695 Z-0.426
N9580 Y-0.7849 Z-0.4242
N9585 Y-0.7926 Z-0.4229
N9590 Y-0.8004 Z-0.4214
N9595 Y-0.8081 Z-0.4197
N9600 Y-0.8158 Z-0.4176
N9605 Y-0.8235 Z-0.4154
N9610 Y-0.8467 Z-0.4066
N9615 Y-0.8544 Z-0.4029
N9620 Y-0.8698 Z-0.3948
N9625 Y-0.8776 Z-0.3899
N9630 Y-0.893 Z-0.3797
N9635 Y-0.9007 Z-0.3732
N9640 Y-0.9162 Z-0.36
N9645 Y-0.9277 Z-0.348
N9650 Y-0.9316 Z-0.3436
N9655 Y-0.9393 Z-0.334
N9660 Y-0.9432 Z-0.3291
N9665 Y-0.9548 Z-0.3116
N9670 Y-0.9586 Z-0.3047
N9675 Y-0.9644 Z-0.2938
N9680 Y-0.9664 Z-0.2895
N9685 Y-0.976 Z-0.2667
N9690 Y-0.9779 Z-0.2608
N9695 Y-0.9794 Z-0.2562
N9700 Y-0.9795 Z-0.2513
N9705 Y-0.9797 Z-0.1111
N9710 Z0.6
(DRILL1)
N9715 G0 X-0.375 Y-0.375
N9720 Z0.6
N9725 Z0.2
N9730 G98 G81 X-0.375 Y-0.375 Z-0.6938 R0.2 F6.667
N9735 G80
N9740 G0 Z0.6
N9745 M5
N9750 M9
N9755 G53 G0 Z0.
N9760 M30
%
