(Project SC-0155-V1)
(Created with Estlcam 12.153)
(Machining time about 00:00:16 hours)

(Required tools:)
(Example tool)

G90
M03


F5.0

#<z> = -0.14
#<_z_clearance> = 0.02

#<_z_top> = #<_z_clearance>
#<_z_bot> = #<z>
o<pocket_circ> call [0+4] [0][0] [0.62] [0]

G91.1 ; incremental IJK

G0 Z0.2
G0 X0 Y0
G1 Z#<z>

;G03 X0.17690 Y0.19815 Z-0.00940 I-0.18946 J-0.17362
;G02 X0.16511 Y0.27472 Z-0.03987 I0.04179 J0.04563
G01 X0.16528 Y0.27503
G01 X0.22316 Y0.37528
G03 X0.21342 Y0.38090 I-0.00446 J0.00353
G02 X0.15357 Y0.27744 I-1.45649 J0.77342
G02 X0.07568 Y0.25461 I-0.05247 J0.03473
G03 X0.05413 Y0.26006 I-0.07770 J-0.26216
G02 X0.00562 Y0.32047 I0.01337 J0.06041
G01 Y0.43658
G03 X-0.00562 I-0.00562 J0.00082
G02 X-0.00572 Y0.31705 I-1.64807 J-0.05844
G02 X-0.06177 Y0.25834 I-0.06280 J0.00385
G03 X-0.08315 Y0.25228 I0.06379 J-0.26589
G02 X-0.15536 Y0.28035 I-0.01863 J0.05900
G01 X-0.21342 Y0.38090
G03 X-0.22316 Y0.37528 I-0.00528 J-0.00210
G02 X-0.16348 Y0.27171 I-1.39805 J-0.87464
G02 X-0.18266 Y0.19284 I-0.05631 J-0.02807
G03 X-0.19815 Y0.17690 I0.18819 J-0.19837
G02 X-0.27472 Y0.16511 I-0.04563 J0.04179
G01 X-0.37528 Y0.22316
G03 X-0.38090 Y0.21342 I-0.00353 J-0.00446
G02 X-0.27744 Y0.15357 I-0.77342 J-1.45649
G02 X-0.25461 Y0.07568 I-0.03473 J-0.05247
G03 X-0.26006 Y0.05413 I0.26216 J-0.07770
G02 X-0.32047 Y0.00562 I-0.06041 J0.01337
G01 X-0.43658
G03 Y-0.00562 I-0.00082 J-0.00562
G02 X-0.31705 Y-0.00572 I0.05844 J-1.64807
G02 X-0.25834 Y-0.06177 I-0.00385 J-0.06280
G03 X-0.25228 Y-0.08315 I0.26589 J0.06379
G02 X-0.28035 Y-0.15536 I-0.05900 J-0.01863
G01 X-0.38090 Y-0.21342
G03 X-0.37528 Y-0.22316 I0.00210 J-0.00528
G02 X-0.27171 Y-0.16348 I0.87464 J-1.39805
G02 X-0.19284 Y-0.18266 I0.02807 J-0.05631
G03 X-0.17690 Y-0.19815 I0.19837 J0.18819
G02 X-0.16511 Y-0.27472 I-0.04179 J-0.04563
G01 X-0.22316 Y-0.37528
G03 X-0.21342 Y-0.38090 I0.00446 J-0.00353
G02 X-0.15357 Y-0.27744 I1.45649 J-0.77342
G02 X-0.07568 Y-0.25461 I0.05247 J-0.03473
G03 X-0.05413 Y-0.26006 I0.07770 J0.26216
G02 X-0.00562 Y-0.32047 I-0.01337 J-0.06041
G01 Y-0.43658
G03 X0.00562 I0.00562 J-0.00082
G02 X0.00572 Y-0.31705 I1.64807 J0.05844
G02 X0.06177 Y-0.25834 I0.06280 J-0.00385
G03 X0.08315 Y-0.25228 I-0.06379 J0.26589
G02 X0.15536 Y-0.28035 I0.01863 J-0.05900
G01 X0.21342 Y-0.38090
G03 X0.22316 Y-0.37528 I0.00528 J0.00210
G02 X0.16348 Y-0.27171 I1.39805 J0.87464
G02 X0.18266 Y-0.19284 I0.05631 J0.02807
G03 X0.19815 Y-0.17690 I-0.18819 J0.19837
G02 X0.27472 Y-0.16511 I0.04563 J-0.04179
G01 X0.37528 Y-0.22316
G03 X0.38090 Y-0.21342 I0.00353 J0.00446
G02 X0.27744 Y-0.15357 I0.77342 J1.45649
G02 X0.25461 Y-0.07568 I0.03473 J0.05247
G03 X0.26006 Y-0.05413 I-0.26216 J0.07770
G02 X0.32047 Y-0.00562 I0.06041 J-0.01337
G01 X0.43658
G03 Y0.00562 I0.00082 J0.00562
G02 X0.31705 Y0.00572 I-0.05844 J1.64807
G02 X0.25834 Y0.06177 I0.00385 J0.06280
G03 X0.25228 Y0.08315 I-0.26589 J-0.06379
G02 X0.28035 Y0.15536 I0.05900 J0.01863
G01 X0.38090 Y0.21342
G03 X0.37528 Y0.22316 I-0.00210 J0.00528
G02 X0.27171 Y0.16348 I-0.87464 J1.39805
G02 X0.19528 Y0.18002 I-0.02798 J0.05559
G03 X0.17690 Y0.19815 I-0.18946 J-0.17362
G02 X0.16511 Y0.27472 I0.04179 J0.04563
G01 X0.16528 Y0.27503
G00 Z0.20000
G00 X0.00000 Y0.00000


M05
M30
