%
(SC-0239V6)
(T1 D=0.1875 CR=0.0937 - ZMIN=-0.2444 - BALL END MILL)
(T3 D=0.1875 CR=0. - ZMIN=-0.5 - FLAT END MILL)
N10 G90 G94 G17 G91.1
N15 G20
N20 G53 G0 Z0.
(SCALLOP1)
N25 T1 M6
N30 T3 ;G43
N35 S5000 M3
N40 G17 G90 G94
N45 G54
N50 G64 P0.0004 Q0.0004
N55 M8
N60 G0 X3.3582 Y2.8868
N65 G43 Z0.6 H1
N70 G0 Z0.0522
N75 G1 Z-0.1095 F6.667
N80 Z-0.11 F15.
N85 X3.3586 Y2.8863 Z-0.1338 F20.
N90 X3.3603 Z-0.1819
N95 X3.3606 Z-0.1886
N100 X3.361 Y2.8864 Z-0.1934
N105 X3.3616 Y2.8863 Z-0.198
N110 X3.3633 Y2.8864 Z-0.2048
N115 X3.3672 Y2.8863 Z-0.2141
N120 X3.3711 Z-0.2204
N125 X3.375 Y2.8864 Z-0.2252
N130 X3.3827 Y2.8863 Z-0.2325
N135 X3.3904 Z-0.2375
N140 X3.3982 Y2.8864 Z-0.241
N145 X3.4059 Y2.8865 Z-0.2431
N150 X3.4137 Y2.8863 Z-0.2443
N155 X3.4214
N160 X3.4291 Z-0.2432
N165 X3.4369 Z-0.241
N170 X3.4446 Z-0.2375
N175 X3.4524 Z-0.2324
N180 X3.4601 Z-0.2251
N185 X3.464 Y2.8864 Z-0.2201
N190 X3.4679 Z-0.2139
N195 X3.4717 Y2.8863 Z-0.2046
N200 X3.4736 Z-0.1971
N205 X3.4741 Y2.8864 Z-0.1921
N210 X3.4743 Y2.8865 Z-0.1878
N215 X3.4759 Y2.8863 Z-0.1491
N220 X3.4761 Z-0.1412
N225 X3.4766 Y2.8869 Z-0.1125
N230 Y2.887 Z-0.1115
N235 X3.4764 Y2.8872 Z-0.1105
N240 X3.4759 Y2.8879 Z-0.1091
N245 X3.4752 Y2.8887 Z-0.1078
N250 X3.4747 Y2.8893 Z-0.1071
N255 X3.4739 Y2.8904 Z-0.1061
N260 X3.4724 Y2.8925 Z-0.1047
N265 X3.4711 Y2.8944 Z-0.1039
N270 X3.4697 Y2.8963 Z-0.1033
N275 X3.4683 Y2.8982 Z-0.103
N280 X3.465 Y2.9029 Z-0.1029
N285 X3.4633 Y2.9053 Z-0.103
N290 X3.4617 Y2.9077 Z-0.1033
N295 X3.4586 Y2.9125 Z-0.1043
N300 X3.4572 Y2.9149 Z-0.105
N305 X3.4559 Y2.9173 Z-0.1058
N310 X3.4521 Y2.9238 Z-0.1085
N315 X3.4486 Y2.9303 Z-0.1114
N320 X3.4454 Y2.9371 Z-0.1143
N325 X3.4425 Y2.9439 Z-0.1171
N330 X3.4396 Y2.9508 Z-0.1196
N335 X3.4371 Y2.9579 Z-0.1216
N340 X3.4359 Y2.9616 Z-0.1223
N345 X3.4348 Y2.9653 Z-0.1229
N350 X3.4337 Y2.9691 Z-0.1233
N355 X3.4327 Y2.9728 Z-0.1234
N360 X3.4312 Y2.979
N365 X3.4285 Y2.9945
N370 X3.4273 Y3.0022
N375 X3.4268 Y3.0099
N380 X3.4263 Y3.0177
N385 X3.426 Y3.0254 Z-0.1235
N390 Y3.2112
N395 X3.4261 Y3.2189
N400 X3.4267 Y3.2344 Z-0.1234
N405 X3.4271 Y3.2422
N410 X3.4297 Y3.2654
N415 X3.4309 Y3.2731
N420 X3.4338 Y3.2886
N425 X3.4354 Y3.2963
N430 X3.4416 Y3.3196
N435 X3.4446 Y3.3287
N440 X3.4496 Y3.3428 Z-0.1235
N445 X3.4525 Y3.3505
N450 X3.4601 Y3.3679 Z-0.1234
N455 X3.4628 Y3.3737
N460 X3.4709 Y3.3892
N465 X3.4756 Y3.3979
N470 X3.4847 Y3.4124
N475 X3.4897 Y3.4202 Z-0.1235
N480 X3.4911 Y3.4222
N485 X3.501 Y3.4357 Z-0.1234
N490 X3.5069 Y3.4434
N495 X3.522 Y3.4611
N500 X3.5273 Y3.4666 Z-0.1235
N505 X3.5375 Y3.4768
N510 X3.5429 Y3.4821
N515 X3.5453 Y3.4843
N520 X3.5607 Y3.4976 Z-0.1234
N525 X3.5685 Y3.5037
N530 X3.584 Y3.5151
N535 X3.5927 Y3.5208
N540 X3.6072 Y3.5299
N545 X3.6149 Y3.5342
N550 X3.6304 Y3.5424
N555 X3.6336 Y3.544
N560 X3.6382 Y3.5461
N565 X3.6536 Y3.5528
N570 X3.6614 Y3.556
N575 X3.6769 Y3.5614
N580 X3.6846 Y3.564
N585 X3.7078 Y3.5703 Z-0.1235
N590 X3.7156 Y3.572 Z-0.1234
N595 X3.7313 Y3.575 Z-0.1235
N600 X3.7388 Y3.5763
N605 X3.762 Y3.579 Z-0.1234
N610 X3.7698 Y3.5795
N615 X3.7852 Y3.5801
N620 X3.793 Y3.5803
N625 X3.9788
N630 X3.9865 Y3.58
N635 X4.002 Y3.5791
N640 X4.0097 Y3.5781
N645 X4.0252 Y3.5755
N650 X4.0276 Y3.575
N655 X4.033 Y3.5737
N660 X4.0484 Y3.5692
N665 X4.0542 Y3.5673
N670 X4.0639 Y3.5633 Z-0.1235
N675 X4.0729 Y3.5595
N680 X4.0794 Y3.5563
N685 X4.0933 Y3.5485 Z-0.1234
N690 X4.0937 Y3.5498 Z-0.1645
N695 X4.0936 Y3.5503 Z-0.177
N700 X4.0935 Y3.5507 Z-0.1879
N705 X4.0936 Y3.5513 Z-0.1941
N710 X4.0935 Y3.5518 Z-0.1963
N715 Y3.5537 Z-0.2021
N720 X4.0934 Y3.5556 Z-0.2061
N725 X4.0936 Y3.5595 Z-0.2118
N730 X4.0935 Y3.5634 Z-0.2158
N735 Y3.5673 Z-0.2188
N740 Y3.5713 Z-0.2213
N745 X4.0936 Y3.575 Z-0.2229
N750 X4.0934 Y3.5827 Z-0.225
N755 X4.0936 Y3.5905 Z-0.2255
N760 X4.0935 Y3.5982 Z-0.2243
N765 Y3.6021 Z-0.223
N770 Y3.606 Z-0.2213
N775 X4.0934 Y3.6137 Z-0.2161
N780 X4.0935 Y3.6176 Z-0.2123
N785 Y3.6214 Z-0.2068
N790 Y3.6243 Z-0.2008
N795 Y3.6263 Z-0.1934
N800 X4.0936 Y3.6266 Z-0.1906
N805 Y3.6268 Z-0.1877
N810 X4.0935 Y3.6287 Z-0.1328
N815 X4.0934 Y3.6289 Z-0.126
N820 X4.0932 Z-0.1235
N825 X4.0794 Y3.6212 Z-0.1234
N830 X4.0717 Y3.6174
N835 X4.0562 Y3.611
N840 X4.0484 Y3.6083
N845 X4.033 Y3.6038
N850 X4.0252 Y3.602
N855 X4.0097 Y3.5994 Z-0.1236
N860 X4.002 Y3.5984 Z-0.1235
N865 X3.9865 Y3.5975 Z-0.1234
N870 X3.9788 Y3.5972
N875 X3.793 Z-0.1235
N880 X3.7775 Y3.5968 Z-0.1234
N885 X3.7698 Y3.5965 Z-0.1235
N890 X3.7543 Y3.5952 Z-0.1236
N895 X3.7465 Y3.5944 Z-0.1235
N900 X3.7311 Y3.5922
N905 X3.7217 Y3.5905
N910 X3.7078 Y3.5877 Z-0.1234
N915 X3.6884 Y3.5827 Z-0.1235
N920 X3.6846 Y3.5817
N925 X3.6691 Y3.5767 Z-0.1234
N930 X3.6641 Y3.575
N935 X3.6459 Y3.5681 Z-0.1235
N940 X3.6268 Y3.5595 Z-0.1234
N945 X3.6072 Y3.5494 Z-0.1236
N950 X3.5917 Y3.5403
N955 X3.584 Y3.5354 Z-0.1235
N960 X3.5737 Y3.5286
N965 X3.5685 Y3.5249 Z-0.1234
N970 X3.5529 Y3.5131
N975 X3.5375 Y3.5001
N980 X3.522 Y3.4855
N985 X3.5114 Y3.4744
N990 X3.5066 Y3.4692
N995 X3.4978 Y3.4589
N1000 X3.4911 Y3.4507
N1005 X3.4798 Y3.4357 Z-0.1235
N1010 X3.4679 Y3.4178
N1015 X3.4601 Y3.4047
N1020 X3.4557 Y3.397
N1025 X3.4477 Y3.3815
N1030 X3.4442 Y3.3737
N1035 X3.4407 Y3.366 Z-0.1234
N1040 X3.4374 Y3.3583
N1045 X3.4315 Y3.3428 Z-0.1235
N1050 X3.4289 Y3.335
N1055 X3.4239 Y3.3196 Z-0.1234
N1060 X3.42 Y3.3041 Z-0.1235
N1065 X3.4181 Y3.2963
N1070 X3.415 Y3.2809
N1075 X3.4137 Y3.2723
N1080 X3.4116 Y3.2576
N1085 X3.4102 Y3.2422 Z-0.1234
N1090 X3.4096 Y3.2344 Z-0.1235
N1095 X3.409 Y3.2112
N1100 Y3.0254 Z-0.1234
N1105 X3.4087 Y3.0177
N1110 X3.4082 Y3.0099
N1115 X3.4077 Y3.0022
N1120 X3.4065 Y2.9945 Z-0.1235
N1125 X3.4052 Y2.9867 Z-0.1236
N1130 X3.4038 Y2.979 Z-0.1235
N1135 X3.4019 Y2.9712 Z-0.1234
N1140 X3.3982 Y2.9585
N1145 X3.3973 Y2.9558
N1150 X3.3944 Y2.948
N1155 X3.3904 Y2.9385
N1160 X3.3879 Y2.9325
N1165 X3.3839 Y2.9248
N1170 X3.3773 Y2.9129
N1175 X3.3775 Y2.9126 Z-0.1338
N1180 X3.3791 Z-0.1807
N1185 X3.3793 Z-0.1855
N1190 X3.3797 Y2.9127 Z-0.1913
N1195 X3.38 Z-0.194
N1200 X3.3808 Z-0.1972
N1205 X3.3827 Y2.9128 Z-0.2027
N1210 X3.3866 Y2.9127 Z-0.2096
N1215 X3.3904 Y2.9128 Z-0.2141
N1220 X3.3954 Y2.9127 Z-0.2184
N1225 X3.3982 Z-0.2202
N1230 X3.4059 Y2.9128 Z-0.2236
N1235 X3.4137 Y2.9127 Z-0.2253
N1240 X3.4214
N1245 X3.4291 Z-0.2237
N1250 X3.433 Z-0.2222
N1255 X3.4369 Z-0.2202
N1260 X3.4446 Y2.9128 Z-0.2141
N1265 X3.4485 Z-0.2094
N1270 X3.4524 Z-0.2025
N1275 X3.4543 Y2.9127 Z-0.1969
N1280 X3.455 Z-0.1935
N1285 X3.4554 Y2.9128 Z-0.1895
N1290 X3.4558 Z-0.1812
N1295 X3.4569 Y2.9126 Z-0.1505
N1300 X3.4573 Z-0.1393
N1305 X3.4575 Y2.9129 Z-0.1292
N1310 X3.4576 Y2.9131 Z-0.1234
N1315 X3.4511 Y2.9248
N1320 X3.4471 Y2.9325
N1325 X3.4438 Y2.9403
N1330 X3.4406 Y2.948
N1335 X3.4377 Y2.9558
N1340 X3.4354 Y2.9635
N1345 X3.4327 Y2.9728
N1350 X3.4316 Y2.9772 Z-0.1235
N1355 X3.4306 Y2.9816 Z-0.1238
N1360 X3.4298 Y2.9859 Z-0.1242
N1365 X3.429 Y2.9903 Z-0.1248
N1370 X3.4283 Y2.9947 Z-0.1256
N1375 X3.4276 Y2.999 Z-0.1265
N1380 X3.427 Y3.0034 Z-0.1275
N1385 X3.4265 Y3.0077 Z-0.1285
N1390 X3.426 Y3.0121 Z-0.1297
N1395 X3.4256 Y3.0164 Z-0.131
N1400 X3.425 Y3.025 Z-0.1337
N1405 X3.4246 Y3.0336 Z-0.1366
N1410 X3.4243 Y3.0465 Z-0.1411
N1415 X3.4242 Y3.0594 Z-0.1455
N1420 X3.4243 Y3.0681 Z-0.1483
N1425 X3.4244 Y3.0769 Z-0.1507
N1430 X3.4245 Y3.0813 Z-0.1518
N1435 X3.4246 Y3.0857 Z-0.1528
N1440 Y3.0901 Z-0.1537
N1445 X3.4247 Y3.0946 Z-0.1544
N1450 X3.4248 Y3.0991 Z-0.155
N1455 Y3.1036 Z-0.1555
N1460 Y3.1081 Z-0.1558
N1465 X3.4249 Y3.1126 Z-0.1559
N1470 Y3.2112
N1475 X3.425 Y3.2189 Z-0.1558
N1480 X3.4256 Y3.2344
N1485 X3.426 Y3.2422 Z-0.1557
N1490 X3.4285 Y3.2654 Z-0.1558
N1495 X3.4291 Y3.2697
N1500 X3.4327 Y3.2886
N1505 X3.4343 Y3.2963
N1510 X3.4404 Y3.3196 Z-0.1557
N1515 X3.4429 Y3.3273 Z-0.1558
N1520 X3.4484 Y3.3428
N1525 X3.4513 Y3.3505 Z-0.1559
N1530 X3.4601 Y3.3708 Z-0.1557
N1535 X3.4615 Y3.3737
N1540 X3.4696 Y3.3892 Z-0.1558
N1545 X3.4738 Y3.397
N1550 X3.4756 Y3.4
N1555 X3.4883 Y3.4202
N1560 X3.4911 Y3.4241
N1565 X3.4996 Y3.4357
N1570 X3.5054 Y3.4434
N1575 X3.522 Y3.4628
N1580 X3.5257 Y3.4666
N1585 X3.5375 Y3.4784 Z-0.1559
N1590 X3.5412 Y3.4821 Z-0.1558
N1595 X3.5453 Y3.4858
N1600 X3.5607 Y3.4991
N1605 X3.5688 Y3.5053
N1610 X3.584 Y3.5165 Z-0.1557
N1615 X3.5917 Y3.5215
N1620 X3.6072 Y3.5313 Z-0.1558
N1625 X3.6164 Y3.5363
N1630 X3.6311 Y3.544
N1635 X3.6382 Y3.5473
N1640 X3.6536 Y3.5541
N1645 X3.6614 Y3.5572 Z-0.1557
N1650 X3.6769 Y3.5626 Z-0.1558
N1655 X3.6846 Y3.5652 Z-0.1557
N1660 X3.7078 Y3.5715 Z-0.1558
N1665 X3.7156 Y3.5732
N1670 X3.7311 Y3.5761
N1675 X3.7388 Y3.5774
N1680 X3.762 Y3.5801
N1685 X3.7698 Y3.5806
N1690 X3.7852 Y3.5812
N1695 X3.793 Y3.5814
N1700 X3.9788
N1705 X3.9865 Y3.5812 Z-0.1557
N1710 X4.002 Y3.5803 Z-0.1558
N1715 X4.0097 Y3.5793 Z-0.1557
N1720 X4.0252 Y3.5766
N1725 X4.033 Y3.5748 Z-0.1558
N1730 X4.0484 Y3.5703
N1735 X4.0562 Y3.5676
N1740 X4.0646 Y3.5642
N1745 X4.0647 Y3.5643 Z-0.1627
N1750 Y3.5647 Z-0.1728
N1755 X4.0646 Y3.5653 Z-0.1881
N1760 Y3.5658 Z-0.1921
N1765 Y3.5662 Z-0.1938
N1770 X4.0645 Y3.5673 Z-0.1967
N1775 Y3.5682 Z-0.1987
N1780 Y3.5692 Z-0.2003
N1785 X4.0646 Y3.5711 Z-0.2029
N1790 Y3.5731 Z-0.2049
N1795 X4.0645 Y3.575 Z-0.2064
N1800 X4.0646 Y3.5769 Z-0.2077
N1805 Y3.5789 Z-0.2087
N1810 X4.0645 Y3.5808 Z-0.2095
N1815 Y3.5827 Z-0.2101
N1820 Y3.5866 Z-0.2108
N1825 Y3.5885 Z-0.2109
N1830 X4.0646 Y3.5905
N1835 Y3.5943 Z-0.2102
N1840 Y3.5963 Z-0.2097
N1845 X4.0645 Y3.5982 Z-0.2089
N1850 Y3.6002 Z-0.2079
N1855 X4.0644 Y3.6021 Z-0.2067
N1860 X4.0645 Y3.604 Z-0.2052
N1865 Y3.606 Z-0.2034
N1870 Y3.6084 Z-0.2002
N1875 Y3.6096 Z-0.1981
N1880 X4.0646 Y3.6108 Z-0.1954
N1885 X4.0645 Y3.6113 Z-0.1938
N1890 X4.0646 Y3.612 Z-0.1904
N1895 Y3.6122 Z-0.1874
N1900 Y3.6131 Z-0.1634
N1905 X4.0644 Y3.6133 Z-0.1558
N1910 X4.0562 Y3.6099
N1915 X4.0484 Y3.6072
N1920 X4.033 Y3.6027
N1925 X4.0252 Y3.6009
N1930 X4.0097 Y3.5982 Z-0.1559
N1935 X4.002 Y3.5972
N1940 X3.9865 Y3.5963 Z-0.1558
N1945 X3.9788 Y3.5961 Z-0.1557
N1950 X3.793 Z-0.1558
N1955 X3.7775 Y3.5957
N1960 X3.7698 Y3.5954 Z-0.1559
N1965 X3.7543 Y3.5941
N1970 X3.7465 Y3.5932
N1975 X3.7311 Y3.591 Z-0.1558
N1980 X3.7275 Y3.5905
N1985 X3.7078 Y3.5866
N1990 X3.6923 Y3.5826
N1995 X3.6846 Y3.5805
N2000 X3.6674 Y3.575
N2005 X3.6536 Y3.5698
N2010 X3.6459 Y3.5668
N2015 X3.6295 Y3.5595
N2020 X3.6227 Y3.5562
N2025 X3.6072 Y3.5481 Z-0.1559
N2030 X3.5917 Y3.539
N2035 X3.5873 Y3.5363
N2040 X3.5757 Y3.5286 Z-0.1558
N2045 X3.5685 Y3.5235
N2050 X3.5547 Y3.5131
N2055 X3.5375 Y3.4986
N2060 X3.522 Y3.484
N2065 X3.513 Y3.4744
N2070 X3.5066 Y3.4675
N2075 X3.4988 Y3.4583
N2080 X3.4929 Y3.4512
N2085 X3.4812 Y3.4357
N2090 X3.4708 Y3.4202
N2095 X3.4679 Y3.4156
N2100 X3.4601 Y3.4025
N2105 X3.457 Y3.397
N2110 X3.449 Y3.3815
N2115 X3.4446 Y3.372
N2120 X3.4419 Y3.366
N2125 X3.4386 Y3.3583
N2130 X3.4327 Y3.3428
N2135 X3.43 Y3.335
N2140 X3.4251 Y3.3196
N2145 X3.4211 Y3.3041
N2150 X3.4193 Y3.2963
N2155 X3.4162 Y3.2809
N2160 X3.4149 Y3.2731
N2165 X3.4127 Y3.2576
N2170 X3.4114 Y3.2422
N2175 X3.4108 Y3.2344
N2180 X3.4101 Y3.2112
N2185 Y3.0254
N2190 X3.4098 Y3.0177 Z-0.1557
N2195 X3.4094 Y3.0099
N2200 X3.4088 Y3.0022 Z-0.1558
N2205 X3.4077 Y2.9945
N2210 X3.4064 Y2.9867 Z-0.1559
N2215 X3.405 Y2.979 Z-0.1558
N2220 X3.403 Y2.9712
N2225 X3.3985 Y2.9558
N2230 X3.3955 Y2.948
N2235 X3.3929 Y2.9416
N2240 X3.393 Y2.9415 Z-0.1604
N2245 X3.3938 Y2.9416 Z-0.1836
N2250 X3.3941 Z-0.1887
N2255 X3.3946 Z-0.1925
N2260 X3.3953 Y2.9417 Z-0.1949
N2265 X3.396 Z-0.1968
N2270 X3.3972 Z-0.1992
N2275 X3.3982 Y2.9416 Z-0.2008
N2280 X3.4001 Y2.9417 Z-0.2032
N2285 X3.4021 Z-0.2051
N2290 X3.404 Y2.9416 Z-0.2066
N2295 X3.4059 Y2.9417 Z-0.2078
N2300 X3.4098 Y2.9418 Z-0.2096
N2305 X3.4117 Z-0.2101
N2310 X3.4137 Z-0.2106
N2315 X3.4156 Y2.9417 Z-0.2108
N2320 X3.4175 Z-0.2109
N2325 X3.4214 Z-0.2106
N2330 X3.4233 Z-0.2102
N2335 X3.4253 Z-0.2096
N2340 X3.4291 Z-0.2078
N2345 X3.4311 Y2.9418 Z-0.2065
N2350 X3.433 Z-0.205
N2355 X3.435 Z-0.2031
N2360 X3.4369 Z-0.2006
N2365 X3.4379 Z-0.199
N2370 X3.4388 Z-0.1971
N2375 X3.44 Y2.9417 Z-0.1939
N2380 X3.4408 Z-0.1901
N2385 X3.441 Z-0.1865
N2390 X3.4419 Y2.9416 Z-0.1616
N2395 X3.4421 Y2.9418 Z-0.1558
N2400 X3.4395 Y2.948
N2405 X3.4365 Y2.9558
N2410 X3.432 Y2.9712
N2415 X3.43 Y2.979
N2420 X3.4286 Y2.9867
N2425 X3.4273 Y2.9945
N2430 X3.4262 Y3.0022
N2435 X3.4256 Y3.0099
N2440 X3.4252 Y3.0177
N2445 X3.4249 Y3.0254
N2450 Y3.1126 Z-0.1559
N2455 X3.4248 Y3.1171 Z-0.156
N2460 Y3.1216 Z-0.1562
N2465 Y3.1261 Z-0.1567
N2470 X3.4247 Y3.1305 Z-0.1573
N2475 X3.4246 Y3.135 Z-0.158
N2480 X3.4245 Y3.1394 Z-0.1589
N2485 X3.4244 Y3.1438 Z-0.1599
N2490 X3.4243 Y3.1482 Z-0.1609
N2495 X3.424 Y3.1569 Z-0.1634
N2500 X3.4238 Y3.1656 Z-0.1661
N2505 X3.4234 Y3.1785 Z-0.1705
N2510 X3.4232 Y3.1913 Z-0.1749
N2515 Y3.1999 Z-0.1778
N2520 Y3.2085 Z-0.1805
N2525 X3.4233 Y3.2129 Z-0.1818
N2530 X3.4234 Y3.2173 Z-0.183
N2535 X3.4235 Y3.2216 Z-0.1841
N2540 X3.4237 Y3.226 Z-0.1851
N2545 X3.4239 Y3.2304 Z-0.1859
N2550 X3.4242 Y3.2348 Z-0.1867
N2555 X3.4245 Y3.2393 Z-0.1873
N2560 X3.4248 Y3.2437 Z-0.1877
N2565 X3.4252 Y3.2482 Z-0.188
N2570 X3.4257 Y3.2527 Z-0.1881
N2575 X3.4262 Y3.2576
N2580 X3.4272 Y3.2654
N2585 X3.4284 Y3.2731
N2590 X3.4298 Y3.2809
N2595 X3.4313 Y3.2886
N2600 X3.4329 Y3.2963
N2605 X3.4349 Y3.3041
N2610 X3.439 Y3.3196
N2615 X3.4415 Y3.3273
N2620 X3.4446 Y3.3365 Z-0.1882
N2625 X3.4469 Y3.3428
N2630 X3.4499 Y3.3505
N2635 X3.4531 Y3.3583
N2640 X3.4565 Y3.366 Z-0.1881
N2645 X3.4601 Y3.3738
N2650 X3.4639 Y3.3815
N2655 X3.4722 Y3.397 Z-0.1882
N2660 X3.4769 Y3.4047 Z-0.1881
N2665 X3.4833 Y3.415 Z-0.1882
N2670 X3.4867 Y3.4202
N2675 X3.4921 Y3.4279
N2680 X3.4988 Y3.437 Z-0.1881
N2685 X3.5066 Y3.4469
N2690 X3.5101 Y3.4512
N2695 X3.5169 Y3.4589
N2700 X3.522 Y3.4647
N2705 X3.5238 Y3.4666
N2710 X3.5375 Y3.4804 Z-0.1882
N2715 X3.5393 Y3.4821
N2720 X3.5479 Y3.4899 Z-0.1881
N2725 X3.5568 Y3.4976
N2730 X3.5607 Y3.5008
N2735 X3.5685 Y3.5069
N2740 X3.5769 Y3.5131
N2745 X3.588 Y3.5208
N2750 X3.6003 Y3.5286
N2755 X3.6072 Y3.5328
N2760 X3.6149 Y3.5371
N2765 X3.6281 Y3.544
N2770 X3.6304 Y3.5452
N2775 X3.6382 Y3.5488
N2780 X3.6459 Y3.5523
N2785 X3.6536 Y3.5555
N2790 X3.6638 Y3.5595
N2795 X3.6769 Y3.564
N2800 X3.6846 Y3.5666
N2805 X3.6869 Y3.5673
N2810 X3.7078 Y3.5729 Z-0.1882
N2815 X3.7178 Y3.575
N2820 X3.7311 Y3.5775
N2825 X3.7388 Y3.5787
N2830 X3.7465 Y3.5798
N2835 X3.7543 Y3.5807
N2840 X3.762 Y3.5814
N2845 X3.7698 Y3.582 Z-0.1881
N2850 X3.7852 Y3.5825
N2855 X3.793 Y3.5827
N2860 X3.9788
N2865 X3.9865 Y3.5825
N2870 X4.002 Y3.5815
N2875 X4.0097 Y3.5805
N2880 X4.0252 Y3.5778
N2885 X4.0337 Y3.5758
N2890 X4.0339 Y3.5759 Z-0.1898
N2895 Y3.5762 Z-0.191
N2900 Y3.5769 Z-0.193
N2905 X4.0338 Y3.5777 Z-0.1943
N2910 X4.0339 Y3.5784 Z-0.1954
N2915 Y3.5791 Z-0.1963
N2920 Y3.5798 Z-0.197
N2925 Y3.5813 Z-0.1982
N2930 Y3.5827 Z-0.1991
N2935 Y3.5837 Z-0.1995
N2940 X4.0338 Y3.5847 Z-0.1999
N2945 Y3.5866 Z-0.2003
N2950 Y3.5885 Z-0.2005
N2955 X4.0339 Y3.5905 Z-0.2004
N2960 Y3.5924 Z-0.2
N2965 X4.0338 Y3.5943 Z-0.1992
N2970 Y3.5953 Z-0.1987
N2975 X4.0337 Y3.5963 Z-0.1981
N2980 X4.0338 Y3.5973 Z-0.1973
N2985 Y3.5982 Z-0.1964
N2990 X4.0339 Y3.5991 Z-0.1955
N2995 Y3.5999 Z-0.1942
N3000 Y3.6008 Z-0.1924
N3005 Y3.6012 Z-0.1912
N3010 Y3.6015 Z-0.1901
N3015 X4.0337 Y3.6017 Z-0.1881
N3020 X4.0252 Y3.5997 Z-0.1882
N3025 X4.0097 Y3.597 Z-0.1883
N3030 X4.002 Y3.596 Z-0.1882
N3035 X3.9865 Y3.595 Z-0.1881
N3040 X3.9788 Y3.5948
N3045 X3.793 Z-0.1882
N3050 X3.7775 Y3.5943
N3055 X3.7698 Y3.594
N3060 X3.7543 Y3.5927 Z-0.1883
N3065 X3.7465 Y3.5919
N3070 X3.7311 Y3.5897 Z-0.1882
N3075 X3.7233 Y3.5883
N3080 X3.7078 Y3.5852 Z-0.1881
N3085 X3.698 Y3.5827
N3090 X3.6846 Y3.5791 Z-0.1882
N3095 X3.6691 Y3.5741 Z-0.1881
N3100 X3.6614 Y3.5714
N3105 X3.6459 Y3.5653 Z-0.1882
N3110 X3.6382 Y3.562
N3115 X3.6304 Y3.5584 Z-0.1881
N3120 X3.6227 Y3.5548 Z-0.1882
N3125 X3.6149 Y3.5507
N3130 X3.6027 Y3.544 Z-0.1883
N3135 X3.5995 Y3.5421
N3140 X3.584 Y3.5325 Z-0.1882
N3145 X3.5762 Y3.5273
N3150 X3.567 Y3.5208 Z-0.1881
N3155 X3.5607 Y3.516
N3160 X3.553 Y3.5099
N3165 X3.5453 Y3.5035
N3170 X3.5375 Y3.4967
N3175 X3.5298 Y3.4896
N3180 X3.522 Y3.4819
N3185 X3.5143 Y3.474
N3190 X3.5066 Y3.4653
N3195 X3.4988 Y3.4564
N3200 X3.4886 Y3.4434 Z-0.1882
N3205 X3.4829 Y3.4357
N3210 X3.4756 Y3.4251
N3215 X3.4724 Y3.4202
N3220 X3.4629 Y3.4047
N3225 X3.4586 Y3.397
N3230 X3.4544 Y3.3892
N3235 X3.4505 Y3.3815
N3240 X3.4446 Y3.3689
N3245 X3.4433 Y3.366
N3250 X3.4401 Y3.3583 Z-0.1881
N3255 X3.4369 Y3.3502
N3260 X3.4341 Y3.3428 Z-0.1882
N3265 X3.4289 Y3.3273
N3270 X3.4266 Y3.3196 Z-0.1881
N3275 X3.4225 Y3.3041 Z-0.1882
N3280 X3.4214 Y3.2999
N3285 X3.4175 Y3.2809
N3290 X3.4163 Y3.2731
N3295 X3.4141 Y3.2576
N3300 X3.4127 Y3.2422
N3305 X3.4121 Y3.2344
N3310 X3.4115 Y3.2112
N3315 Y3.0254 Z-0.1881
N3320 X3.4111 Y3.0177
N3325 X3.41 Y3.0022
N3330 X3.4089 Y2.9945 Z-0.1882
N3335 X3.4076 Y2.9867 Z-0.1883
N3340 X3.4059 Y2.9779 Z-0.1882
N3345 X3.4046 Y2.9727
N3350 X3.4048 Y2.9723 Z-0.1904
N3355 X3.4055 Y2.9724 Z-0.1925
N3360 X3.4059 Z-0.1935
N3365 X3.4069 Y2.9723 Z-0.1951
N3370 X3.4079 Y2.9724 Z-0.1963
N3375 X3.4088 Z-0.1972
N3380 X3.4098 Z-0.198
N3385 X3.4108 Z-0.1986
N3390 X3.4117 Z-0.1992
N3395 X3.4137 Z-0.1999
N3400 X3.4156 Z-0.2004
N3405 X3.4175 Z-0.2005
N3410 X3.4195 Z-0.2004
N3415 X3.4214 Y2.9723 Z-0.1999
N3420 X3.4233 Z-0.1992
N3425 X3.4243 Y2.9724 Z-0.1986
N3430 X3.4253 Y2.9725 Z-0.1979
N3435 X3.4262 Z-0.1971
N3440 X3.4272 Y2.9724 Z-0.1961
N3445 X3.4282 Y2.9725 Z-0.1949
N3450 X3.4291 Z-0.1933
N3455 X3.4296 Y2.9724 Z-0.1922
N3460 X3.43 Z-0.1913
N3465 X3.4303 Z-0.1901
N3470 X3.4304 Y2.9727 Z-0.1881
N3475 X3.4291 Y2.9776
N3480 X3.4289 Y2.979
N3485 X3.4261 Y2.9945
N3490 X3.425 Y3.0022
N3495 X3.4239 Y3.0177
N3500 X3.4235 Y3.0254 Z-0.1882
N3505 Y3.2112
N3510 X3.4236 Y3.2189
N3515 X3.4242 Y3.2344 Z-0.1881
N3520 X3.4247 Y3.2422
N3525 X3.4257 Y3.2527
N3530 X3.426 Y3.2559 Z-0.1878 F15.
N3535 X3.4264 Y3.2591 Z-0.187
N3540 X3.4267 Y3.262 Z-0.1856
N3545 X3.427 Y3.2647 Z-0.1837
N3550 X3.4272 Y3.267 Z-0.1814
N3555 X3.4274 Y3.2688 Z-0.1787
N3560 X3.4276 Y3.2702 Z-0.1758
N3565 Y3.271 Z-0.1726
N3570 X3.4277 Y3.2713 Z-0.1693
N3575 G0 Z0.08
N3580 X4.1193 Y3.5296
N3585 Z0.0522
N3590 G1 Z-0.1091 F6.667
N3595 Z-0.1101 F15.
N3600 X4.1196 Y3.5295 Z-0.1151 F20.
N3605 X4.1197 Y3.5296 Z-0.1206
N3610 X4.12 Y3.5312 Z-0.1728
N3615 X4.1198 Y3.5318 Z-0.1869
N3620 X4.1199 Y3.5323 Z-0.1943
N3625 Y3.5326 Z-0.1965
N3630 Y3.5334 Z-0.2003
N3635 Y3.5342 Z-0.2035
N3640 Y3.5363 Z-0.2093
N3645 Y3.5402 Z-0.2169
N3650 X4.12 Y3.544 Z-0.2227
N3655 X4.1199 Y3.5479 Z-0.2271
N3660 Y3.5518 Z-0.2307
N3665 Y3.5595 Z-0.2363
N3670 X4.12 Y3.5673 Z-0.2402
N3675 X4.1198 Y3.575 Z-0.2426
N3680 Y3.5827 Z-0.244
N3685 X4.1199 Y3.5905 Z-0.2444
N3690 Y3.5982 Z-0.2436
N3695 Y3.606 Z-0.2417
N3700 Y3.6137 Z-0.2386
N3705 X4.1198 Y3.6214 Z-0.234
N3710 X4.1199 Y3.6292 Z-0.2275
N3715 Y3.6331 Z-0.2231
N3720 Y3.6369 Z-0.2177
N3725 Y3.6408 Z-0.2103
N3730 Y3.6427 Z-0.2053
N3735 Y3.6447 Z-0.1977
N3740 Y3.6455 Z-0.1919
N3745 Y3.6457 Z-0.1863
N3750 X4.1198 Y3.6477 Z-0.1287
N3755 X4.1194 Y3.6479 Z-0.1112
N3760 Z-0.1106 F15.
N3765 G0 Z0.08
N3770 X4.6452 Y3.3817
N3775 Z0.0519
N3780 G1 Z-0.1193 F6.667
N3785 X4.6451 Y3.3815 Z-0.1209 F15.
N3790 X4.6449 Y3.381 Z-0.1223
N3795 X4.6445 Y3.3801 Z-0.1236
N3800 X4.6368 Y3.3628 Z-0.1235 F20.
N3805 X4.6349 Y3.3583 Z-0.1234
N3810 X4.629 Y3.3428 Z-0.1235
N3815 X4.6264 Y3.335
N3820 X4.6213 Y3.3189
N3825 X4.6175 Y3.3041
N3830 X4.6156 Y3.2963
N3835 X4.6125 Y3.2809
N3840 X4.6113 Y3.2731
N3845 X4.6091 Y3.2576
N3850 X4.6077 Y3.2422
N3855 X4.6071 Y3.2344
N3860 X4.6065 Y3.2112
N3865 Y3.0254 Z-0.1234
N3870 X4.6062 Y3.0177
N3875 X4.6057 Y3.0099
N3880 X4.6052 Y3.0022
N3885 X4.604 Y2.9945
N3890 X4.6013 Y2.979
N3895 X4.5993 Y2.9712
N3900 X4.5948 Y2.9558
N3905 X4.5919 Y2.948
N3910 X4.5854 Y2.9325
N3915 X4.5826 Y2.927
N3920 X4.5748 Y2.913
N3925 Y2.9128 Z-0.1265
N3930 X4.5758 Y2.9126 Z-0.1578
N3935 X4.577 Y2.9127 Z-0.1891
N3940 X4.5773 Z-0.1921
N3945 X4.5776 Y2.9128 Z-0.1943
N3950 X4.5787 Z-0.1987
N3955 X4.5806 Y2.9127 Z-0.2038
N3960 X4.5826 Z-0.2073
N3965 X4.5864 Y2.9128 Z-0.2125
N3970 X4.5903 Z-0.2163
N3975 X4.5954 Z-0.22
N3980 X4.5981 Y2.9127 Z-0.2215
N3985 X4.6058 Y2.9128 Z-0.2243
N3990 X4.6135 Y2.9127 Z-0.2255
N3995 X4.6213 Z-0.225
N4000 X4.629 Z-0.2228
N4005 X4.6329 Z-0.221
N4010 X4.6368 Y2.9128 Z-0.2186
N4015 X4.6408 Z-0.2154
N4020 X4.6445 Z-0.2114
N4025 X4.6484 Z-0.2056
N4030 X4.6503 Z-0.2015
N4035 X4.6522 Y2.9127 Z-0.195
N4040 X4.6527 Z-0.1921
N4045 X4.6532 Z-0.1843
N4050 X4.6547 Z-0.1408
N4055 X4.6551 Y2.9129 Z-0.1277
N4060 Y2.913 Z-0.1234
N4065 X4.6486 Y2.9248
N4070 X4.6445 Y2.9327
N4075 X4.6381 Y2.948 Z-0.1235
N4080 X4.6368 Y2.9513
N4085 X4.6352 Y2.9558
N4090 X4.6306 Y2.9712 Z-0.1234
N4095 X4.629 Y2.9774
N4100 X4.6287 Y2.979
N4105 X4.626 Y2.9945
N4110 X4.6248 Y3.0022
N4115 X4.6243 Y3.0099
N4120 X4.6238 Y3.0177
N4125 X4.6235 Y3.0254
N4130 Y3.2112
N4135 X4.6236 Y3.2189
N4140 X4.6242 Y3.2344
N4145 X4.6246 Y3.2422
N4150 X4.6272 Y3.2654 Z-0.1236
N4155 X4.6284 Y3.2731 Z-0.1235
N4160 X4.6313 Y3.2886 Z-0.1234
N4165 X4.6329 Y3.2963
N4170 X4.6391 Y3.3196
N4175 X4.6416 Y3.3273
N4180 X4.6471 Y3.3428
N4185 X4.65 Y3.3505
N4190 X4.6568 Y3.366
N4195 X4.6603 Y3.3737 Z-0.1235
N4200 X4.6643 Y3.3815
N4205 X4.6726 Y3.397 Z-0.1234
N4210 X4.6774 Y3.4047
N4215 X4.6832 Y3.414
N4220 X4.6872 Y3.4202
N4225 X4.6928 Y3.4279
N4230 X4.6987 Y3.4359
N4235 X4.7044 Y3.4434
N4240 X4.7177 Y3.4589
N4245 X4.7219 Y3.4637
N4250 X4.7374 Y3.4792 Z-0.1235
N4255 X4.7404 Y3.4821 Z-0.1234
N4260 X4.7492 Y3.4899
N4265 X4.7606 Y3.4996
N4270 X4.7684 Y3.5055
N4275 X4.7787 Y3.5131
N4280 X4.7838 Y3.5168
N4285 X4.8025 Y3.5286
N4290 X4.8071 Y3.5313
N4295 X4.8226 Y3.5396
N4300 X4.8311 Y3.544
N4305 X4.8535 Y3.5539 Z-0.1235
N4310 X4.8613 Y3.5568
N4315 X4.8767 Y3.5622 Z-0.1234
N4320 X4.8845 Y3.5647
N4325 X4.9077 Y3.5709
N4330 X4.9154 Y3.5725
N4335 X4.9309 Y3.5754 Z-0.1235
N4340 X4.9387 Y3.5766 Z-0.1236
N4345 X4.9619 Y3.5792 Z-0.1234
N4350 X4.9696 Y3.5796
N4355 X4.9851 Y3.5801 Z-0.1235
N4360 X4.9929 Y3.5803
N4365 X5.1786 Z-0.1234
N4370 X5.1864 Y3.5799
N4375 X5.1941 Y3.5795
N4380 X5.2019 Y3.5789 Z-0.1235
N4385 X5.2096 Y3.5777
N4390 X5.2174 Y3.5764 Z-0.1234
N4395 X5.2251 Y3.575
N4400 X5.2328 Y3.573
N4405 X5.2483 Y3.5685 Z-0.1235
N4410 X5.2517 Y3.5673
N4415 X5.2561 Y3.5655
N4420 X5.2704 Y3.5595 Z-0.1234
N4425 X5.2715 Y3.559
N4430 X5.2793 Y3.555 Z-0.1235
N4435 X5.2907 Y3.5486
N4440 X5.2909 Y3.5488 Z-0.1303
N4445 Y3.5506 Z-0.1835
N4450 X5.291 Y3.5508 Z-0.1893
N4455 X5.2911 Y3.5518 Z-0.1964
N4460 Y3.5537 Z-0.2023
N4465 Y3.5556 Z-0.2062
N4470 Y3.5595 Z-0.2118
N4475 X5.291 Y3.563 Z-0.2154
N4480 Y3.5673 Z-0.2188
N4485 Y3.5711 Z-0.2212
N4490 Y3.575 Z-0.2229
N4495 X5.2909 Y3.5827 Z-0.2249
N4500 X5.2911 Y3.5905 Z-0.2255
N4505 X5.291 Y3.5982 Z-0.2243
N4510 Y3.6021 Z-0.223
N4515 Y3.606 Z-0.2213
N4520 X5.2909 Y3.6137 Z-0.2161
N4525 X5.291 Y3.6176 Z-0.2123
N4530 Y3.6214 Z-0.2069
N4535 Y3.6243 Z-0.2008
N4540 Y3.6262 Z-0.1942
N4545 Y3.6265 Z-0.1915
N4550 Y3.6269 Z-0.1844
N4555 X5.2911 Y3.6285 Z-0.1428
N4560 X5.2907 Y3.6289 Z-0.1234
N4565 X5.2773 Y3.6214
N4570 X5.2715 Y3.6185
N4575 X5.2602 Y3.6137
N4580 X5.2561 Y3.612
N4585 X5.2483 Y3.609
N4590 X5.2328 Y3.6045
N4595 X5.2251 Y3.6025
N4600 X5.2174 Y3.6011
N4605 X5.2096 Y3.5998 Z-0.1235
N4610 X5.2019 Y3.5986
N4615 X5.1975 Y3.5982
N4620 X5.1864 Y3.5976 Z-0.1234
N4625 X5.1786 Y3.5972
N4630 X4.9929 Z-0.1235
N4635 X4.9696 Y3.5966 Z-0.1236
N4640 X4.9542 Y3.5954 Z-0.1235
N4645 X4.9464 Y3.5947
N4650 X4.9309 Y3.5925
N4655 X4.9232 Y3.5913
N4660 X4.9077 Y3.5882 Z-0.1234
N4665 X4.9 Y3.5864 Z-0.1235
N4670 X4.8845 Y3.5824
N4675 X4.869 Y3.5775 Z-0.1234
N4680 X4.8613 Y3.5749 Z-0.1235
N4685 X4.8458 Y3.569 Z-0.1234
N4690 X4.8416 Y3.5673 Z-0.1235
N4695 X4.8243 Y3.5595
N4700 X4.8071 Y3.5507
N4705 X4.7993 Y3.5463
N4710 X4.7916 Y3.5417 Z-0.1234
N4715 X4.7838 Y3.537
N4720 X4.7684 Y3.5267 Z-0.1235
N4725 X4.7529 Y3.515 Z-0.1234
N4730 X4.7504 Y3.5131
N4735 X4.7374 Y3.5021 Z-0.1235
N4740 X4.7323 Y3.4976
N4745 X4.7219 Y3.4878 Z-0.1234
N4750 X4.7162 Y3.4821
N4755 X4.7064 Y3.4718 Z-0.1235
N4760 X4.7019 Y3.4666
N4765 X4.691 Y3.4537 Z-0.1236
N4770 X4.6889 Y3.4512
N4775 X4.6773 Y3.4357 Z-0.1235
N4780 X4.6669 Y3.4202
N4785 X4.6622 Y3.4124
N4790 X4.6576 Y3.4047
N4795 X4.6532 Y3.397 Z-0.1236
N4800 X4.6445 Y3.3801
N4805 X4.6427 Y3.376
N4810 X4.6409 Y3.3718 Z-0.1239
N4815 X4.6392 Y3.3677 Z-0.1243
N4820 X4.6375 Y3.3636 Z-0.1249
N4825 X4.6359 Y3.3594 Z-0.1256
N4830 X4.6343 Y3.3553 Z-0.1265
N4835 X4.6327 Y3.3512 Z-0.1275
N4840 X4.6312 Y3.3471 Z-0.1286
N4845 X4.6298 Y3.3429 Z-0.1297
N4850 X4.627 Y3.3347 Z-0.1323
N4855 X4.6245 Y3.3264 Z-0.1351
N4860 X4.6221 Y3.3182 Z-0.1381
N4865 X4.6199 Y3.3099 Z-0.1411
N4870 X4.6179 Y3.3015 Z-0.144
N4875 X4.6161 Y3.2931 Z-0.1468
N4880 X4.6144 Y3.2846 Z-0.1494
N4885 X4.6136 Y3.2803 Z-0.1506
N4890 X4.6129 Y3.2759 Z-0.1517
N4895 X4.6122 Y3.2716 Z-0.1527
N4900 X4.6116 Y3.2672 Z-0.1536
N4905 X4.611 Y3.2628 Z-0.1544
N4910 X4.6105 Y3.2584 Z-0.155
N4915 X4.61 Y3.2539 Z-0.1554
N4920 X4.6095 Y3.2495 Z-0.1557
N4925 X4.6091 Y3.245 Z-0.1558
N4930 X4.6083 Y3.2344
N4935 X4.6076 Y3.2112
N4940 Y3.0254
N4945 X4.6073 Y3.0177
N4950 X4.6069 Y3.0099
N4955 X4.6063 Y3.0022
N4960 X4.6058 Y2.9983
N4965 X4.6039 Y2.9867
N4970 X4.6025 Y2.979
N4975 X4.6005 Y2.9712 Z-0.1557
N4980 X4.596 Y2.9558
N4985 X4.593 Y2.948 Z-0.1558
N4990 X4.5904 Y2.9417
N4995 X4.5906 Y2.9415 Z-0.1622
N5000 X4.5915 Y2.9416 Z-0.1878
N5005 X4.5918 Y2.9417 Z-0.1905
N5010 X4.5923 Z-0.193
N5015 X4.5932 Z-0.1961
N5020 X4.5952 Z-0.1999
N5025 X4.5966 Z-0.202
N5030 X4.5981 Z-0.2036
N5035 X4.6 Z-0.2054
N5040 X4.6019 Y2.9418 Z-0.2069
N5045 X4.6058 Z-0.209
N5050 X4.6077 Z-0.2097
N5055 X4.6097 Y2.9417 Z-0.2103
N5060 X4.6116 Y2.9418 Z-0.2106
N5065 X4.6135 Y2.9417 Z-0.2109
N5070 X4.6174 Z-0.2108
N5075 X4.6193 Z-0.2105
N5080 X4.6213 Z-0.21
N5085 X4.6252 Z-0.2086
N5090 X4.6271 Z-0.2075
N5095 X4.629 Z-0.2062
N5100 X4.631 Z-0.2046
N5105 X4.6329 Z-0.2026
N5110 X4.6348 Y2.9418 Z-0.1999
N5115 X4.6368 Y2.9417 Z-0.1961
N5120 X4.6372 Z-0.1948
N5125 X4.6378 Z-0.1927
N5130 X4.6385 Y2.9416 Z-0.1874
N5135 X4.6394 Z-0.1637
N5140 X4.6396 Y2.9418 Z-0.1559
N5145 X4.6368 Y2.9485
N5150 X4.634 Y2.9558
N5155 X4.629 Y2.973 Z-0.1558
N5160 X4.6275 Y2.979
N5165 X4.6248 Y2.9945
N5170 X4.6237 Y3.0022
N5175 X4.6231 Y3.0099 Z-0.1557
N5180 X4.6227 Y3.0177
N5185 X4.6224 Y3.0254 Z-0.1558
N5190 Y3.2112
N5195 X4.6225 Y3.2189
N5200 X4.6231 Y3.2344
N5205 X4.6235 Y3.2422
N5210 X4.626 Y3.2654 Z-0.1559
N5215 X4.6273 Y3.2731
N5220 X4.6302 Y3.2886 Z-0.1558
N5225 X4.6318 Y3.2963
N5230 X4.6379 Y3.3196
N5235 X4.6404 Y3.3273
N5240 X4.6459 Y3.3428 Z-0.1557
N5245 X4.6488 Y3.3505 Z-0.1558
N5250 X4.6555 Y3.366
N5255 X4.659 Y3.3737
N5260 X4.663 Y3.3815 Z-0.1559
N5265 X4.6713 Y3.397 Z-0.1558
N5270 X4.676 Y3.4047
N5275 X4.6858 Y3.4202
N5280 X4.6914 Y3.4279
N5285 X4.6987 Y3.4378
N5290 X4.7029 Y3.4434
N5295 X4.7162 Y3.4589
N5300 X4.7219 Y3.4653
N5305 X4.7387 Y3.4821
N5310 X4.7475 Y3.4899
N5315 X4.7606 Y3.5011 Z-0.1557
N5320 X4.7684 Y3.5069 Z-0.1558
N5325 X4.7768 Y3.5131
N5330 X4.7838 Y3.5181
N5335 X4.8004 Y3.5286 Z-0.1557
N5340 X4.8071 Y3.5326
N5345 X4.8286 Y3.544 Z-0.1558
N5350 X4.8303 Y3.5449
N5355 X4.8459 Y3.5518 Z-0.1559
N5360 X4.8535 Y3.5551
N5365 X4.8613 Y3.558 Z-0.1558
N5370 X4.8767 Y3.5634
N5375 X4.8845 Y3.5659
N5380 X4.9077 Y3.5721
N5385 X4.9228 Y3.575
N5390 X4.9309 Y3.5765 Z-0.1559
N5395 X4.9387 Y3.5777
N5400 X4.9619 Y3.5803 Z-0.1558
N5405 X4.9696 Y3.5807
N5410 X4.9851 Y3.5813
N5415 X4.9929 Y3.5814
N5420 X5.1786
N5425 X5.1864 Y3.581
N5430 X5.1941 Y3.5806
N5435 X5.2019 Y3.58 Z-0.1559
N5440 X5.2096 Y3.5789 Z-0.1558
N5445 X5.2174 Y3.5775
N5450 X5.2251 Y3.5761 Z-0.1557
N5455 X5.2298 Y3.575 Z-0.1558
N5460 X5.2406 Y3.5719
N5465 X5.2483 Y3.5696
N5470 X5.2546 Y3.5673
N5475 X5.2618 Y3.5643
N5480 X5.262 Y3.5644 Z-0.1624
N5485 Y3.5651 Z-0.1831
N5490 X5.2621 Y3.5654 Z-0.1886
N5495 Y3.5658 Z-0.192
N5500 Y3.5662 Z-0.1938
N5505 X5.2622 Y3.5673 Z-0.1969
N5510 X5.2621 Y3.5682 Z-0.1988
N5515 Y3.5692 Z-0.2004
N5520 Y3.5711 Z-0.2029
N5525 X5.262 Y3.5731 Z-0.2049
N5530 Y3.575 Z-0.2064
N5535 Y3.5769 Z-0.2077
N5540 X5.2621 Y3.5789 Z-0.2087
N5545 X5.262 Y3.5808 Z-0.2095
N5550 Y3.5827 Z-0.2101
N5555 Y3.5866 Z-0.2108
N5560 Y3.5885 Z-0.2109
N5565 X5.2621 Y3.5905 Z-0.2108
N5570 X5.262 Y3.5943 Z-0.2102
N5575 Y3.5963 Z-0.2097
N5580 Y3.5982 Z-0.2089
N5585 X5.2619 Y3.6002 Z-0.2079
N5590 Y3.6021 Z-0.2067
N5595 Y3.604 Z-0.2052
N5600 X5.262 Y3.606 Z-0.2033
N5605 X5.2621 Y3.6074 Z-0.2016
N5610 Y3.6089 Z-0.1995
N5615 Y3.6098 Z-0.1977
N5620 Y3.6108 Z-0.1954
N5625 Y3.6118 Z-0.1918
N5630 Y3.6123 Z-0.1869
N5635 X5.2622 Y3.6131 Z-0.1634
N5640 X5.2619 Y3.6133 Z-0.1558
N5645 X5.2561 Y3.6108
N5650 X5.2483 Y3.6079
N5655 X5.2406 Y3.6056
N5660 X5.2328 Y3.6034
N5665 X5.2251 Y3.6014
N5670 X5.2174 Y3.5999
N5675 X5.2072 Y3.5982
N5680 X5.2019 Y3.5975
N5685 X5.1941 Y3.5969
N5690 X5.1864 Y3.5965
N5695 X5.1786 Y3.5961
N5700 X4.9929
N5705 X4.9696 Y3.5955 Z-0.1559
N5710 X4.9542 Y3.5943 Z-0.1558
N5715 X4.9464 Y3.5936
N5720 X4.925 Y3.5905 Z-0.1559
N5725 X4.9077 Y3.587 Z-0.1558
N5730 X4.9 Y3.5852
N5735 X4.8845 Y3.5812
N5740 X4.8649 Y3.575
N5745 X4.8613 Y3.5737
N5750 X4.8444 Y3.5673
N5755 X4.827 Y3.5595
N5760 X4.8226 Y3.5574
N5765 X4.8071 Y3.5494
N5770 X4.7977 Y3.544
N5775 X4.7916 Y3.5404
N5780 X4.7848 Y3.5363
N5785 X4.7684 Y3.5253 Z-0.1559
N5790 X4.7522 Y3.5131 Z-0.1558
N5795 X4.7374 Y3.5007
N5800 X4.7339 Y3.4976
N5805 X4.7219 Y3.4862
N5810 X4.7178 Y3.4821
N5815 X4.7064 Y3.4701
N5820 X4.7033 Y3.4666
N5825 X4.691 Y3.4519 Z-0.1559
N5830 X4.6787 Y3.4357
N5835 X4.6677 Y3.4193
N5840 X4.6635 Y3.4124
N5845 X4.6589 Y3.4047
N5850 X4.6545 Y3.397
N5855 X4.6465 Y3.3815
N5860 X4.6445 Y3.3773
N5865 X4.6368 Y3.36 Z-0.1558
N5870 X4.629 Y3.3397
N5875 X4.6226 Y3.3196
N5880 X4.6186 Y3.3041
N5885 X4.6168 Y3.2963 Z-0.1559
N5890 X4.6135 Y3.2801 Z-0.1558
N5895 X4.6124 Y3.2731
N5900 X4.6102 Y3.2576
N5905 X4.6091 Y3.245
N5910 X4.6088 Y3.2405 Z-0.1559
N5915 X4.6085 Y3.236 Z-0.1562
N5920 X4.6083 Y3.2316 Z-0.1566
N5925 X4.6081 Y3.2271 Z-0.1573
N5930 X4.608 Y3.2227 Z-0.158
N5935 X4.6079 Y3.2183 Z-0.1589
N5940 Y3.2139 Z-0.1599
N5945 X4.6078 Y3.2095 Z-0.161
N5950 X4.6079 Y3.2008 Z-0.1634
N5955 X4.608 Y3.1921 Z-0.1661
N5960 X4.6082 Y3.1793 Z-0.1705
N5965 X4.6084 Y3.1621 Z-0.1765
N5970 X4.6086 Y3.1535 Z-0.1793
N5975 X4.6087 Y3.1448 Z-0.1819
N5980 X4.6088 Y3.1404 Z-0.183
N5985 Y3.136 Z-0.1841
N5990 X4.6089 Y3.1316 Z-0.1851
N5995 Y3.1272 Z-0.186
N6000 Y3.1228 Z-0.1867
N6005 Y3.1183 Z-0.1873
N6010 X4.609 Y3.1138 Z-0.1878
N6015 Y3.1093 Z-0.188
N6020 Y3.1048 Z-0.1881
N6025 Y3.0254
N6030 X4.6086 Y3.0177
N6035 X4.6075 Y3.0022
N6040 X4.6064 Y2.9945
N6045 X4.6036 Y2.979
N6050 X4.6027 Y2.9751
N6055 X4.6021 Y2.9727
N6060 X4.6022 Y2.9724 Z-0.1899
N6065 X4.6024 Z-0.1908
N6070 X4.6028 Z-0.192
N6075 X4.6031 Z-0.1929
N6080 X4.6039 Y2.9723 Z-0.1943
N6085 X4.6048 Y2.9724 Z-0.1956
N6090 X4.6058 Z-0.1967
N6095 X4.6068 Z-0.1976
N6100 X4.6077 Z-0.1983
N6105 X4.6097 Z-0.1994
N6110 X4.6116 Z-0.2001
N6115 X4.6135 Z-0.2004
N6120 X4.6155 Z-0.2005
N6125 X4.6174 Z-0.2003
N6130 X4.6193 Z-0.1998
N6135 X4.6213 Z-0.1989
N6140 X4.6223 Z-0.1983
N6145 X4.6232 Z-0.1976
N6150 X4.6242 Z-0.1967
N6155 X4.6252 Z-0.1956
N6160 X4.6261 Z-0.1942
N6165 X4.6268 Z-0.1929
N6170 X4.6274 Z-0.1915
N6175 X4.6278 Z-0.1899
N6180 X4.628 Y2.9725 Z-0.1881
N6185 X4.6274 Y2.9747
N6190 X4.6263 Y2.979
N6195 X4.6236 Y2.9945
N6200 X4.6225 Y3.0022
N6205 X4.6213 Y3.0194
N6210 X4.621 Y3.0254
N6215 Y3.2112
N6220 X4.6211 Y3.2189
N6225 X4.6217 Y3.2344
N6230 X4.6222 Y3.2422
N6235 X4.6229 Y3.2499 Z-0.1882
N6240 X4.6237 Y3.2576
N6245 X4.6247 Y3.2654 Z-0.1883
N6250 X4.6258 Y3.2731 Z-0.1882
N6255 X4.6272 Y3.2809
N6260 X4.6304 Y3.2963 Z-0.1881
N6265 X4.6324 Y3.3041
N6270 X4.6368 Y3.3203
N6275 X4.639 Y3.3273
N6280 X4.6416 Y3.335
N6285 X4.6445 Y3.3432
N6290 X4.6474 Y3.3505
N6295 X4.6506 Y3.3583
N6300 X4.654 Y3.366
N6305 X4.6576 Y3.3737 Z-0.1882
N6310 X4.66 Y3.3787
N6315 X4.6656 Y3.3892
N6320 X4.6697 Y3.397 Z-0.1881
N6325 X4.6755 Y3.4064
N6330 X4.6832 Y3.4187
N6335 X4.691 Y3.4298
N6340 X4.6953 Y3.4357
N6345 X4.6987 Y3.4401
N6350 X4.7064 Y3.4497
N6355 X4.7144 Y3.4589
N6360 X4.7219 Y3.4672
N6365 X4.7374 Y3.4827 Z-0.1882
N6370 X4.7454 Y3.4899 Z-0.1881
N6375 X4.7543 Y3.4976
N6380 X4.764 Y3.5053
N6385 X4.7684 Y3.5087
N6390 X4.7761 Y3.5143
N6395 X4.7855 Y3.5208
N6400 X4.7993 Y3.5295
N6405 X4.8071 Y3.5342
N6410 X4.8226 Y3.5425
N6415 X4.8256 Y3.544
N6420 X4.8303 Y3.5463
N6425 X4.8422 Y3.5518 Z-0.1882
N6430 X4.8458 Y3.5533
N6435 X4.8535 Y3.5565
N6440 X4.8613 Y3.5595
N6445 X4.869 Y3.5622
N6450 X4.8767 Y3.5648 Z-0.1881
N6455 X4.8845 Y3.5673
N6460 X4.9 Y3.5715
N6465 X4.9077 Y3.5734
N6470 X4.9232 Y3.5766 Z-0.1882
N6475 X4.9309 Y3.5779
N6480 X4.9387 Y3.5791 Z-0.1883
N6485 X4.9464 Y3.5801 Z-0.1882
N6490 X4.9542 Y3.5809
N6495 X4.9619 Y3.5816 Z-0.1881
N6500 X4.9696 Y3.5821
N6505 X4.9851 Y3.5826 Z-0.1882
N6510 X4.9929 Y3.5827
N6515 X5.1786 Z-0.1881
N6520 X5.1864 Y3.5823
N6525 X5.2019 Y3.5812 Z-0.1882
N6530 X5.2096 Y3.5801
N6535 X5.2174 Y3.5787 Z-0.1881
N6540 X5.2251 Y3.5773
N6545 X5.2309 Y3.5759
N6550 X5.2312 Y3.5758
N6555 X5.2314 Y3.576 Z-0.19
N6560 X5.2315 Y3.5765 Z-0.1918
N6565 Y3.5769 Z-0.1931
N6570 X5.2314 Y3.5779 Z-0.1947
N6575 Y3.5789 Z-0.196
N6580 Y3.5798 Z-0.197
N6585 X5.2313 Y3.5808 Z-0.1978
N6590 X5.2314 Y3.5827 Z-0.1991
N6595 Y3.5837 Z-0.1995
N6600 X5.2313 Y3.5847 Z-0.1998
N6605 Y3.5866 Z-0.2003
N6610 Y3.5885 Z-0.2005
N6615 X5.2314 Y3.5905 Z-0.2004
N6620 Y3.5924 Z-0.2
N6625 X5.2313 Y3.5943 Z-0.1992
N6630 X5.2312 Y3.5953 Z-0.1987
N6635 Y3.5963 Z-0.1981
N6640 Y3.5973 Z-0.1973
N6645 X5.2313 Y3.5982 Z-0.1964
N6650 X5.2314 Y3.5992 Z-0.1953
N6655 Y3.6001 Z-0.1939
N6660 Y3.6008 Z-0.1924
N6665 Y3.6014 Z-0.1905
N6670 X5.2311 Y3.6017 Z-0.1881
N6675 X5.229 Y3.6011
N6680 X5.2251 Y3.6002
N6685 X5.2142 Y3.5982 Z-0.1882
N6690 X5.2096 Y3.5974
N6695 X5.2019 Y3.5963
N6700 X5.1941 Y3.5957
N6705 X5.1864 Y3.5952
N6710 X5.1786 Y3.5948 Z-0.1881
N6715 X4.9929 Z-0.1882
N6720 X4.9696 Y3.5941 Z-0.1883
N6725 X4.9619 Y3.5936 Z-0.1882
N6730 X4.9542 Y3.5929
N6735 X4.9464 Y3.5922
N6740 X4.9309 Y3.59
N6745 X4.9232 Y3.5888
N6750 X4.9077 Y3.5857
N6755 X4.9 Y3.5839
N6760 X4.8845 Y3.5798
N6765 X4.8767 Y3.5774 Z-0.1881
N6770 X4.8613 Y3.5723 Z-0.1882
N6775 X4.8483 Y3.5673
N6780 X4.838 Y3.5631
N6785 X4.8226 Y3.5559
N6790 X4.8144 Y3.5518
N6795 X4.8002 Y3.544
N6800 X4.7874 Y3.5363 Z-0.1881
N6805 X4.7838 Y3.5341 Z-0.1882
N6810 X4.7756 Y3.5286
N6815 X4.7645 Y3.5208
N6820 X4.7606 Y3.5179
N6825 X4.7529 Y3.5118
N6830 X4.7449 Y3.5053 Z-0.1881
N6835 X4.7361 Y3.4976 Z-0.1882
N6840 X4.7297 Y3.4918
N6845 X4.7219 Y3.4843 Z-0.1881
N6850 X4.7142 Y3.4765 Z-0.1882
N6855 X4.7122 Y3.4744 Z-0.1881
N6860 X4.7052 Y3.4666 Z-0.1882
N6865 X4.6984 Y3.4589
N6870 X4.691 Y3.4496 Z-0.1883
N6875 X4.6861 Y3.4434 Z-0.1882
N6880 X4.6832 Y3.4396
N6885 X4.675 Y3.4279
N6890 X4.6699 Y3.4202
N6895 X4.6651 Y3.4124
N6900 X4.66 Y3.404
N6905 X4.652 Y3.3892 Z-0.1883
N6910 X4.648 Y3.3815
N6915 X4.6408 Y3.366 Z-0.1882
N6920 X4.6368 Y3.3562 Z-0.1881
N6925 X4.6345 Y3.3505
N6930 X4.6315 Y3.3428 Z-0.1882
N6935 X4.6264 Y3.3273
N6940 X4.6241 Y3.3196
N6945 X4.62 Y3.3041
N6950 X4.6182 Y3.2963
N6955 X4.615 Y3.2809
N6960 X4.6135 Y3.2715
N6965 X4.6116 Y3.2576
N6970 X4.6102 Y3.2422
N6975 X4.6096 Y3.2344
N6980 X4.609 Y3.2112
N6985 Y3.1048 Z-0.1881
N6990 G19 G2 Y3.0861 Z-0.1694 J0. K0.0188 F15.
N6995 G0 Z0.08
N7000 X5.3169 Y3.5296
N7005 Z0.0522
N7010 G1 Z-0.1114 F6.667
N7015 Z-0.1119 F15.
N7020 X5.3172 Y3.5299 Z-0.1287 F20.
N7025 X5.3173 Y3.5319 Z-0.1873
N7030 X5.3174 Y3.5322 Z-0.1937
N7035 Y3.5329 Z-0.1982
N7040 Y3.5339 Z-0.2023
N7045 X5.3175 Y3.5363 Z-0.2096
N7050 X5.3174 Y3.5402 Z-0.2171
N7055 X5.3175 Y3.544 Z-0.2227
N7060 X5.3174 Y3.5479 Z-0.227
N7065 Y3.5518 Z-0.2306
N7070 Y3.5595 Z-0.2363
N7075 Y3.5673 Z-0.2402
N7080 X5.3173 Y3.575 Z-0.2426
N7085 Y3.5827 Z-0.244
N7090 X5.3174 Y3.5905 Z-0.2443
N7095 Y3.5982 Z-0.2436
N7100 Y3.606 Z-0.2417
N7105 Y3.6137 Z-0.2385
N7110 X5.3173 Y3.6214 Z-0.2339
N7115 X5.3174 Y3.6292 Z-0.2275
N7120 Y3.6331 Z-0.2231
N7125 Y3.6369 Z-0.2177
N7130 X5.3175 Y3.6408 Z-0.2105
N7135 X5.3174 Y3.6427 Z-0.2053
N7140 Y3.6447 Z-0.1977
N7145 Y3.6454 Z-0.1922
N7150 X5.3173 Y3.6456 Z-0.1877
N7155 X5.3175 Y3.6473 Z-0.144
N7160 X5.3168 Y3.6479 Z-0.11
N7165 Z-0.1095 F15.
N7170 G0 Z0.08
N7175 X5.8441 Y3.3846
N7180 Z0.0519
N7185 G1 Z-0.1152 F6.667
N7190 Y3.3844 Z-0.1175 F15.
N7195 X5.8438 Y3.3838 Z-0.1197
N7200 X5.8433 Y3.3828 Z-0.1217
N7205 X5.8427 Y3.3815 Z-0.1235
N7210 X5.8366 Y3.3681 Z-0.1234 F20.
N7215 X5.8324 Y3.3583
N7220 X5.8265 Y3.3428 Z-0.1235
N7225 X5.8239 Y3.335
N7230 X5.8189 Y3.3196 Z-0.1234
N7235 X5.815 Y3.3041 Z-0.1235
N7240 X5.8134 Y3.2979
N7245 X5.81 Y3.2809 Z-0.1236
N7250 X5.8088 Y3.2731 Z-0.1235
N7255 X5.8066 Y3.2576
N7260 X5.8052 Y3.2422 Z-0.1234
N7265 X5.8046 Y3.2344 Z-0.1235
N7270 X5.804 Y3.2112
N7275 Y3.0254 Z-0.1234
N7280 X5.8037 Y3.0177
N7285 X5.8032 Y3.0099
N7290 X5.8027 Y3.0022 Z-0.1235
N7295 X5.8015 Y2.9945
N7300 X5.7988 Y2.979
N7305 X5.7979 Y2.9752 Z-0.1234
N7310 X5.7946 Y2.9635
N7315 X5.7923 Y2.9558
N7320 X5.7902 Y2.9499
N7325 X5.7862 Y2.9403
N7330 X5.7825 Y2.9316
N7335 X5.7789 Y2.9248
N7340 X5.7724 Y2.913
N7345 Y2.9128 Z-0.1286
N7350 X5.7726 Y2.9126 Z-0.1367
N7355 X5.774 Z-0.1773
N7360 X5.7745 Y2.9127 Z-0.1881
N7365 X5.7747 Z-0.1916
N7370 X5.7764 Y2.9128 Z-0.1993
N7375 X5.7786 Z-0.2045
N7380 X5.7825 Y2.9127 Z-0.2108
N7385 X5.7863 Z-0.215
N7390 X5.7902 Y2.9128 Z-0.2182
N7395 X5.7941 Y2.9127 Z-0.2208
N7400 X5.7979 Z-0.2226
N7405 X5.8057 Y2.9128 Z-0.2248
N7410 X5.8134 Y2.9127 Z-0.2255
N7415 X5.8212 Y2.9128 Z-0.2244
N7420 X5.8289 Y2.9127 Z-0.2218
N7425 X5.8318 Z-0.2202
N7430 X5.8366 Y2.9128 Z-0.2168
N7435 X5.8405 Y2.9127 Z-0.2132
N7440 X5.8444 Y2.9128 Z-0.2081
N7445 X5.8463 Z-0.2048
N7450 X5.8483 Z-0.2003
N7455 X5.8502 Y2.9127 Z-0.1926
N7460 X5.8507 Z-0.1847
N7465 X5.852 Y2.9126 Z-0.1496
N7470 X5.8524 Y2.9129 Z-0.1309
N7475 X5.8526 Y2.9131 Z-0.1234
N7480 X5.8444 Y2.9279
N7485 X5.8421 Y2.9325
N7490 X5.8356 Y2.948
N7495 X5.8327 Y2.9558
N7500 X5.8281 Y2.9712 Z-0.1235
N7505 X5.8262 Y2.979 Z-0.1236
N7510 X5.8235 Y2.9945 Z-0.1235
N7515 X5.8223 Y3.0022 Z-0.1234
N7520 X5.8218 Y3.0099
N7525 X5.8212 Y3.0205 Z-0.1235
N7530 X5.821 Y3.0254
N7535 Y3.2112 Z-0.1236
N7540 X5.8212 Y3.2202 Z-0.1235
N7545 X5.8217 Y3.2344 Z-0.1234
N7550 X5.8221 Y3.2422
N7555 X5.8247 Y3.2654
N7560 X5.8259 Y3.2731
N7565 X5.8289 Y3.2889 Z-0.1235
N7570 X5.8304 Y3.2963
N7575 X5.8366 Y3.3197
N7580 X5.8391 Y3.3273
N7585 X5.8446 Y3.3428 Z-0.1234
N7590 X5.8475 Y3.3505
N7595 X5.8543 Y3.366 Z-0.1235
N7600 X5.8578 Y3.3737
N7605 X5.8676 Y3.3924 Z-0.1234
N7610 X5.8701 Y3.397
N7615 X5.8797 Y3.4124
N7620 X5.8831 Y3.4178
N7625 X5.8847 Y3.4202
N7630 X5.8986 Y3.4392 Z-0.1235
N7635 X5.9019 Y3.4434
N7640 X5.9152 Y3.4589 Z-0.1234
N7645 X5.9223 Y3.4666
N7650 X5.9379 Y3.4821
N7655 X5.9467 Y3.4899 Z-0.1235
N7660 X5.9557 Y3.4976
N7665 X5.9605 Y3.5015
N7670 X5.9762 Y3.5131 Z-0.1234
N7675 X5.9837 Y3.5183
N7680 X6. Y3.5286 Z-0.1235
N7685 X6.007 Y3.5327 Z-0.1234
N7690 X6.0224 Y3.5408
N7695 X6.0286 Y3.544
N7700 X6.0462 Y3.5518
N7705 X6.0534 Y3.5548
N7710 X6.0689 Y3.5603
N7715 X6.0766 Y3.563
N7720 X6.0844 Y3.5654
N7725 X6.0998 Y3.5695 Z-0.1235
N7730 X6.1076 Y3.5714 Z-0.1236
N7735 X6.1231 Y3.5744
N7740 X6.1308 Y3.5758 Z-0.1235
N7745 X6.1386 Y3.5769
N7750 X6.154 Y3.5786 Z-0.1234
N7755 X6.1618 Y3.5793
N7760 X6.185 Y3.5802 Z-0.1236
N7765 X6.3708 Y3.5803 Z-0.1234
N7770 X6.3785 Y3.5802
N7775 X6.394 Y3.5793
N7780 X6.4017 Y3.5786
N7785 X6.4172 Y3.576
N7790 X6.4226 Y3.575
N7795 X6.425 Y3.5745
N7800 X6.4405 Y3.5701
N7805 X6.4482 Y3.5676 Z-0.1235
N7810 X6.4559 Y3.5645 Z-0.1234
N7815 X6.4679 Y3.5595
N7820 X6.4714 Y3.5578
N7825 X6.4879 Y3.5488
N7830 X6.4883 Y3.5486 Z-0.1235
N7835 X6.4886 Y3.5488 Z-0.1359
N7840 X6.4887 Y3.5494 Z-0.1548
N7845 X6.4886 Y3.5502 Z-0.177
N7850 X6.4884 Y3.5507 Z-0.1873
N7855 Y3.551 Z-0.1913
N7860 X6.4886 Y3.5518 Z-0.1964
N7865 X6.4885 Y3.5537 Z-0.2022
N7870 Y3.5556 Z-0.2061
N7875 X6.4886 Y3.5595 Z-0.2118
N7880 X6.4885 Y3.5623 Z-0.2148
N7885 Y3.5673 Z-0.2188
N7890 Y3.5711 Z-0.2212
N7895 X6.4886 Y3.575 Z-0.2229
N7900 X6.4884 Y3.5827 Z-0.225
N7905 X6.4886 Y3.5905 Z-0.2255
N7910 X6.4885 Y3.5982 Z-0.2243
N7915 Y3.6021 Z-0.223
N7920 Y3.606 Z-0.2213
N7925 X6.4884 Y3.6137 Z-0.2161
N7930 X6.4885 Y3.6176 Z-0.2123
N7935 Y3.6214 Z-0.2068
N7940 Y3.6234 Z-0.2031
N7945 X6.4886 Y3.6253 Z-0.1979
N7950 Y3.6265 Z-0.1918
N7955 Y3.6269 Z-0.1879
N7960 X6.4883 Y3.6287 Z-0.1294
N7965 X6.4881 Y3.6288 Z-0.1234
N7970 X6.4748 Y3.6214
N7975 X6.4714 Y3.6197
N7980 X6.4637 Y3.6162
N7985 X6.4559 Y3.613 Z-0.1235
N7990 X6.4482 Y3.6099
N7995 X6.4405 Y3.6074
N8000 X6.425 Y3.603 Z-0.1234
N8005 X6.4172 Y3.6015
N8010 X6.4017 Y3.5989 Z-0.1235
N8015 X6.394 Y3.5982
N8020 X6.3785 Y3.5973 Z-0.1234
N8025 X6.363 Y3.5972
N8030 X6.1927 Z-0.1235
N8035 X6.185 Y3.5971
N8040 X6.1695 Y3.5967
N8045 X6.1618 Y3.5962
N8050 X6.1463 Y3.5949
N8055 X6.1386 Y3.5939 Z-0.1234
N8060 X6.1231 Y3.5917 Z-0.1235
N8065 X6.1076 Y3.5887
N8070 X6.0998 Y3.587
N8075 X6.0834 Y3.5827
N8080 X6.0766 Y3.5807
N8085 X6.0611 Y3.5758
N8090 X6.0457 Y3.5699 Z-0.1234
N8095 X6.0391 Y3.5673
N8100 X6.0218 Y3.5595 Z-0.1235
N8105 X6.0067 Y3.5518
N8110 X5.9992 Y3.5477 Z-0.1234
N8115 X5.9837 Y3.5386
N8120 X5.9682 Y3.5282 Z-0.1235
N8125 X5.9605 Y3.5226
N8130 X5.9479 Y3.5131
N8135 X5.9373 Y3.5041 Z-0.1234
N8140 X5.9295 Y3.4974 Z-0.1235
N8145 X5.9216 Y3.4899
N8150 X5.9137 Y3.4821
N8155 X5.9063 Y3.4743 Z-0.1234
N8160 X5.8986 Y3.4657
N8165 X5.8908 Y3.4565
N8170 X5.8864 Y3.4512 Z-0.1235
N8175 X5.8748 Y3.4357 Z-0.1234
N8180 X5.8644 Y3.4202
N8185 X5.8597 Y3.4124
N8190 X5.8521 Y3.3996 Z-0.1235
N8195 X5.8427 Y3.3815
N8200 X5.8409 Y3.3774
N8205 X5.8391 Y3.3733 Z-0.1238
N8210 X5.8373 Y3.3692 Z-0.1242
N8215 X5.8356 Y3.365 Z-0.1248
N8220 X5.8339 Y3.3609 Z-0.1256
N8225 X5.8323 Y3.3568 Z-0.1264
N8230 X5.8307 Y3.3527 Z-0.1274
N8235 X5.8292 Y3.3486 Z-0.1285
N8240 X5.8277 Y3.3445 Z-0.1297
N8245 X5.8263 Y3.3403 Z-0.1309
N8250 X5.8236 Y3.3321 Z-0.1337
N8255 X5.8211 Y3.3239 Z-0.1366
N8260 X5.8188 Y3.3156 Z-0.1395
N8265 X5.8166 Y3.3073 Z-0.1425
N8270 X5.8147 Y3.2989 Z-0.1454
N8275 X5.8129 Y3.2904 Z-0.1482
N8280 X5.8121 Y3.2862 Z-0.1494
N8285 X5.8113 Y3.2819 Z-0.1506
N8290 X5.8106 Y3.2775 Z-0.1517
N8295 X5.8099 Y3.2732 Z-0.1527
N8300 X5.8092 Y3.2688 Z-0.1536
N8305 X5.8086 Y3.2644 Z-0.1543
N8310 X5.8081 Y3.26 Z-0.1549
N8315 X5.8076 Y3.2555 Z-0.1554
N8320 X5.8071 Y3.2511 Z-0.1557
N8325 X5.8067 Y3.2466 Z-0.1558
N8330 X5.8058 Y3.2344
N8335 X5.8051 Y3.2112
N8340 Y3.0254
N8345 X5.8048 Y3.0177
N8350 X5.8044 Y3.0099
N8355 X5.8038 Y3.0022
N8360 X5.8027 Y2.9945
N8365 X5.8 Y2.979
N8370 X5.7979 Y2.9711
N8375 X5.7935 Y2.9558
N8380 X5.7902 Y2.9472
N8385 X5.7879 Y2.9417
N8390 X5.7881 Y2.9415 Z-0.1632
N8395 X5.7886 Z-0.1769
N8400 X5.7889 Y2.9416 Z-0.1847
N8405 X5.7895 Y2.9417 Z-0.1916
N8410 X5.7902 Z-0.1946
N8415 X5.7916 Z-0.1981
N8420 X5.7936 Z-0.2013
N8425 X5.795 Y2.9416 Z-0.2031
N8430 X5.7979 Y2.9417 Z-0.2058
N8435 X5.7999 Z-0.2072
N8440 X5.8018 Y2.9416 Z-0.2083
N8445 X5.8037 Y2.9417 Z-0.2092
N8450 X5.8057 Y2.9418 Z-0.2099
N8455 X5.8076 Z-0.2104
N8460 X5.8096 Z-0.2107
N8465 X5.8134 Y2.9417 Z-0.2109
N8470 X5.8154 Y2.9418 Z-0.2107
N8475 X5.8173 Z-0.2104
N8480 X5.8212 Y2.9417 Z-0.2092
N8485 X5.8231 Y2.9416 Z-0.2084
N8490 X5.825 Y2.9417 Z-0.2073
N8495 X5.827 Z-0.2059
N8500 X5.8289 Z-0.2042
N8505 X5.8308 Z-0.202
N8510 X5.8328 Z-0.1992
N8515 X5.8337 Z-0.1973
N8520 X5.8347 Z-0.1949
N8525 X5.8352 Z-0.1932
N8530 X5.8357 Y2.9416 Z-0.1909
N8535 X5.8362 Z-0.1831
N8540 X5.8369 Y2.9415 Z-0.1627
N8545 X5.8371 Y2.9417 Z-0.1558
N8550 X5.8345 Y2.948
N8555 X5.8315 Y2.9558
N8560 X5.827 Y2.9712 Z-0.1559
N8565 X5.825 Y2.979 Z-0.156
N8570 X5.8223 Y2.9945 Z-0.1558
N8575 X5.8212 Y3.0024
N8580 X5.8206 Y3.0099
N8585 X5.8202 Y3.0177
N8590 X5.8199 Y3.0254 Z-0.1559
N8595 Y3.2112
N8600 X5.82 Y3.2189
N8605 X5.8206 Y3.2344 Z-0.1558
N8610 X5.821 Y3.2422 Z-0.1557
N8615 X5.8235 Y3.2654 Z-0.1558
N8620 X5.8248 Y3.2731
N8625 X5.8289 Y3.2948
N8630 X5.8293 Y3.2963
N8635 X5.8354 Y3.3196 Z-0.1559
N8640 X5.8366 Y3.3235
N8645 X5.8444 Y3.3457 Z-0.1558
N8650 X5.8463 Y3.3505
N8655 X5.853 Y3.366
N8660 X5.8565 Y3.3737
N8665 X5.8676 Y3.3949
N8670 X5.8688 Y3.397
N8675 X5.8754 Y3.4076
N8680 X5.8833 Y3.4202
N8685 X5.8908 Y3.4306
N8690 X5.8986 Y3.441 Z-0.1559
N8695 X5.9004 Y3.4434
N8700 X5.9141 Y3.4593 Z-0.1558
N8705 X5.9207 Y3.4666
N8710 X5.9373 Y3.4831
N8715 X5.954 Y3.4976 Z-0.1559
N8720 X5.9605 Y3.5029 Z-0.1558
N8725 X5.976 Y3.5143
N8730 X5.9837 Y3.5197
N8735 X5.9992 Y3.5294
N8740 X6.007 Y3.5339
N8745 X6.0261 Y3.544
N8750 X6.0302 Y3.546 Z-0.1557
N8755 X6.0457 Y3.5528 Z-0.1558
N8760 X6.0534 Y3.5561
N8765 X6.0766 Y3.5642 Z-0.1557
N8770 X6.0844 Y3.5665 Z-0.1558
N8775 X6.0998 Y3.5707 Z-0.1559
N8780 X6.1076 Y3.5726
N8785 X6.1231 Y3.5755
N8790 X6.1308 Y3.577
N8795 X6.1386 Y3.578
N8800 X6.154 Y3.5798 Z-0.1558
N8805 X6.1618 Y3.5805
N8810 X6.185 Y3.5814 Z-0.1559
N8815 X6.3708 Z-0.1558
N8820 X6.3785 Y3.5813
N8825 X6.394 Y3.5805
N8830 X6.4017 Y3.5797
N8835 X6.4172 Y3.5771 Z-0.1557
N8840 X6.425 Y3.5756 Z-0.1558
N8845 X6.4273 Y3.575
N8850 X6.4405 Y3.5712
N8855 X6.4482 Y3.5688
N8860 X6.4521 Y3.5673
N8865 X6.4596 Y3.5641
N8870 X6.4598 Y3.5644 Z-0.1636
N8875 X6.4597 Y3.5649 Z-0.1772
N8880 X6.4595 Y3.5652 Z-0.1861
N8885 Y3.5654 Z-0.1896
N8890 X6.4596 Y3.5659 Z-0.1925
N8895 Y3.5663 Z-0.1941
N8900 Y3.5673 Z-0.1968
N8905 X6.4595 Y3.5682 Z-0.1988
N8910 Y3.5692 Z-0.2004
N8915 X6.4596 Y3.5711 Z-0.203
N8920 X6.4595 Y3.5731 Z-0.2049
N8925 Y3.575 Z-0.2064
N8930 X6.4596 Y3.5769 Z-0.2077
N8935 Y3.5789 Z-0.2087
N8940 X6.4595 Y3.5808 Z-0.2095
N8945 Y3.5827 Z-0.2101
N8950 Y3.5866 Z-0.2108
N8955 Y3.5885 Z-0.2109
N8960 X6.4596 Y3.5905
N8965 Y3.5943 Z-0.2102
N8970 X6.4595 Y3.5963 Z-0.2097
N8975 Y3.5982 Z-0.2089
N8980 Y3.6002 Z-0.2079
N8985 X6.4594 Y3.6021 Z-0.2067
N8990 X6.4595 Y3.604 Z-0.2052
N8995 Y3.606 Z-0.2034
N9000 X6.4596 Y3.607 Z-0.2021
N9005 Y3.6089 Z-0.1995
N9010 Y3.6101 Z-0.1972
N9015 Y3.6107 Z-0.1957
N9020 Y3.6118 Z-0.1918
N9025 X6.4597 Y3.6123 Z-0.1877
N9030 X6.4596 Y3.6132 Z-0.161
N9035 X6.4594 Y3.6133 Z-0.1558
N9040 X6.4482 Y3.6087 Z-0.1559
N9045 X6.4393 Y3.606 Z-0.1558
N9050 X6.425 Y3.6019
N9055 X6.4172 Y3.6004
N9060 X6.4017 Y3.5978 Z-0.1559
N9065 X6.394 Y3.597 Z-0.1558
N9070 X6.3785 Y3.5962
N9075 X6.363 Y3.5961
N9080 X6.1927
N9085 X6.185 Y3.596
N9090 X6.1695 Y3.5956
N9095 X6.1618 Y3.5951
N9100 X6.1463 Y3.5938
N9105 X6.1386 Y3.5928
N9110 X6.1225 Y3.5905
N9115 X6.1076 Y3.5875
N9120 X6.0998 Y3.5858 Z-0.1559
N9125 X6.0844 Y3.5818
N9130 X6.0766 Y3.5795
N9135 X6.0611 Y3.5746
N9140 X6.0419 Y3.5673 Z-0.1558
N9145 X6.0224 Y3.5586
N9150 X6.007 Y3.5506
N9155 X5.9992 Y3.5464
N9160 X5.9837 Y3.5372
N9165 X5.9682 Y3.5269
N9170 X5.96 Y3.5208 Z-0.1559
N9175 X5.9497 Y3.5131
N9180 X5.9373 Y3.5027 Z-0.1558
N9185 X5.9314 Y3.4976
N9190 X5.9218 Y3.4885
N9195 X5.9153 Y3.4821
N9200 X5.9063 Y3.4726
N9205 X5.9008 Y3.4666
N9210 X5.8908 Y3.4548
N9215 X5.8879 Y3.4512
N9220 X5.8754 Y3.4345
N9225 X5.8658 Y3.4202
N9230 X5.8599 Y3.4105
N9235 X5.8521 Y3.3972
N9240 X5.8437 Y3.3809
N9245 X5.8404 Y3.3737
N9250 X5.8366 Y3.3653
N9255 X5.8336 Y3.3583
N9260 X5.8277 Y3.3428
N9265 X5.825 Y3.335
N9270 X5.8201 Y3.3196
N9275 X5.8161 Y3.3041
N9280 X5.8143 Y3.2963 Z-0.1559
N9285 X5.8112 Y3.2809
N9290 X5.8099 Y3.2731
N9295 X5.8077 Y3.2576 Z-0.1558
N9300 X5.8067 Y3.2466
N9305 X5.8064 Y3.2421 Z-0.1559
N9310 X5.8061 Y3.2376 Z-0.1562
N9315 X5.8059 Y3.2332 Z-0.1566
N9320 X5.8057 Y3.2287 Z-0.1572
N9325 X5.8055 Y3.2243 Z-0.158
N9330 Y3.2199 Z-0.1589
N9335 X5.8054 Y3.2155 Z-0.1599
N9340 X5.8053 Y3.2111 Z-0.161
N9345 X5.8054 Y3.2024 Z-0.1634
N9350 X5.8055 Y3.1937 Z-0.1661
N9355 X5.8057 Y3.1809 Z-0.1705
N9360 X5.8059 Y3.1637 Z-0.1765
N9365 X5.8061 Y3.1551 Z-0.1793
N9370 X5.8062 Y3.1464 Z-0.1819
N9375 Y3.142 Z-0.1831
N9380 X5.8063 Y3.1376 Z-0.1841
N9385 Y3.1332 Z-0.1851
N9390 X5.8064 Y3.1288 Z-0.186
N9395 Y3.1244 Z-0.1867
N9400 Y3.1199 Z-0.1873
N9405 X5.8065 Y3.1154 Z-0.1878
N9410 Y3.1109 Z-0.1881
N9415 Y3.1064
N9420 Y3.0254
N9425 X5.8061 Y3.0177
N9430 X5.805 Y3.0022 Z-0.1882
N9435 X5.8039 Y2.9945
N9440 X5.8012 Y2.979
N9445 X5.8002 Y2.9751
N9450 X5.7996 Y2.9727 Z-0.1881
N9455 X5.7998 Y2.9724 Z-0.1903
N9460 X5.8004 Z-0.1922
N9465 X5.801 Z-0.1935
N9470 X5.8017 Z-0.1948
N9475 X5.8028 Y2.9723 Z-0.1962
N9480 X5.8041 Z-0.1975
N9485 X5.8057 Z-0.1986
N9490 X5.8066 Z-0.1991
N9495 X5.8076 Y2.9724 Z-0.1996
N9500 X5.8096 Y2.9725 Z-0.2002
N9505 X5.8115 Z-0.2005
N9510 X5.8134 Y2.9724
N9515 X5.8154 Z-0.2002
N9520 X5.8173 Z-0.1996
N9525 X5.8183 Z-0.1992
N9530 X5.8192 Z-0.1987
N9535 X5.8212 Z-0.1972
N9540 X5.8222 Z-0.1962
N9545 X5.8233 Z-0.1948
N9550 X5.824 Z-0.1936
N9555 X5.8244 Z-0.1927
N9560 X5.825 Z-0.1912
N9565 X5.8252 Z-0.1902
N9570 X5.8254 Y2.9725 Z-0.1883
N9575 X5.8248 Y2.9747
N9580 X5.8238 Y2.979
N9585 X5.8211 Y2.9945 Z-0.1882
N9590 X5.82 Y3.0022 Z-0.1881
N9595 X5.8189 Y3.0177 Z-0.1882
N9600 X5.8185 Y3.0254
N9605 Y3.2112 Z-0.1883
N9610 X5.8186 Y3.2189 Z-0.1882
N9615 X5.8192 Y3.2344 Z-0.1881
N9620 X5.8197 Y3.2422
N9625 X5.8204 Y3.2499
N9630 X5.8212 Y3.2576
N9635 X5.8222 Y3.2654
N9640 X5.8234 Y3.2731
N9645 X5.8248 Y3.2809
N9650 X5.8279 Y3.2963 Z-0.1882
N9655 X5.8289 Y3.3005
N9660 X5.834 Y3.3196
N9665 X5.8366 Y3.3277
N9670 X5.8391 Y3.335
N9675 X5.8419 Y3.3428 Z-0.1881
N9680 X5.8449 Y3.3505
N9685 X5.8481 Y3.3583
N9690 X5.8521 Y3.3674 Z-0.1882
N9695 X5.8551 Y3.3737
N9700 X5.8589 Y3.3815
N9705 X5.8676 Y3.3976 Z-0.1881
N9710 X5.8754 Y3.4102
N9715 X5.8817 Y3.4202
N9720 X5.8871 Y3.4279
N9725 X5.8928 Y3.4357 Z-0.1882
N9730 X5.8988 Y3.4434
N9735 X5.9051 Y3.4512
N9740 X5.9141 Y3.4614 Z-0.1881
N9745 X5.9188 Y3.4666
N9750 X5.9343 Y3.4821
N9755 X5.9373 Y3.4849
N9760 X5.945 Y3.4917 Z-0.1882
N9765 X5.9528 Y3.4984
N9770 X5.9615 Y3.5053
N9775 X5.9682 Y3.5105 Z-0.1881
N9780 X5.976 Y3.516
N9785 X5.9837 Y3.5213
N9790 X5.9992 Y3.531 Z-0.1882
N9795 X6.007 Y3.5355 Z-0.1881
N9800 X6.0231 Y3.544
N9805 X6.0302 Y3.5474
N9810 X6.0397 Y3.5518
N9815 X6.0457 Y3.5543
N9820 X6.0534 Y3.5574
N9825 X6.0611 Y3.5604
N9830 X6.0689 Y3.563
N9835 X6.0766 Y3.5656
N9840 X6.0819 Y3.5673
N9845 X6.0998 Y3.5721 Z-0.1882
N9850 X6.1076 Y3.5739 Z-0.1883
N9855 X6.1153 Y3.5755
N9860 X6.1231 Y3.577
N9865 X6.1308 Y3.5783 Z-0.1882
N9870 X6.1386 Y3.5794
N9875 X6.1463 Y3.5804
N9880 X6.154 Y3.5811 Z-0.1881
N9885 X6.1618 Y3.5818
N9890 X6.1695 Y3.5822 Z-0.1882
N9895 X6.185 Y3.5827 Z-0.1883
N9900 X6.3708 Z-0.1881
N9905 X6.3785
N9910 X6.394 Y3.5817
N9915 X6.4017 Y3.5809
N9920 X6.4172 Y3.5783
N9925 X6.425 Y3.5768
N9930 X6.4286 Y3.5758
N9935 X6.4289 Y3.576 Z-0.19
N9940 Y3.5765 Z-0.1918
N9945 Y3.5769 Z-0.193
N9950 Y3.5779 Z-0.1947
N9955 Y3.5789 Z-0.196
N9960 Y3.5796 Z-0.1968
N9965 Y3.5812 Z-0.1981
N9970 Y3.5827 Z-0.1991
N9975 Y3.5837 Z-0.1995
N9980 X6.4288 Y3.5847 Z-0.1999
N9985 Y3.5866 Z-0.2003
N9990 Y3.5885 Z-0.2005
N9995 X6.4289 Y3.5905 Z-0.2004
N10000 Y3.5924 Z-0.2
N10005 X6.4288 Y3.5943 Z-0.1992
N10010 Y3.5953 Z-0.1987
N10015 X6.4287 Y3.5963 Z-0.1981
N10020 X6.4288 Y3.5973 Z-0.1973
N10025 Y3.5982 Z-0.1964
N10030 X6.4289 Y3.5992 Z-0.1953
N10035 Y3.6002 Z-0.1938
N10040 Y3.6009 Z-0.1923
N10045 Y3.6015 Z-0.1902
N10050 X6.4286 Y3.6017 Z-0.1881
N10055 X6.425 Y3.6007
N10060 X6.4172 Y3.5992
N10065 X6.4017 Y3.5966 Z-0.1882
N10070 X6.394 Y3.5958
N10075 X6.3785 Y3.5948 Z-0.1881
N10080 X6.363
N10085 X6.1927 Z-0.1882
N10090 X6.185 Y3.5947
N10095 X6.1695 Y3.5942
N10100 X6.1618 Y3.5938
N10105 X6.1463 Y3.5924
N10110 X6.1386 Y3.5915 Z-0.1881
N10115 X6.1231 Y3.5892 Z-0.1882
N10120 X6.1153 Y3.5877 Z-0.1881
N10125 X6.0998 Y3.5845 Z-0.1882
N10130 X6.0844 Y3.5804 Z-0.1883
N10135 X6.0766 Y3.5782 Z-0.1882
N10140 X6.0611 Y3.5731
N10145 X6.0534 Y3.5703
N10150 X6.0379 Y3.5641
N10155 X6.0278 Y3.5595
N10160 X6.0224 Y3.557
N10165 X6.0147 Y3.5532
N10170 X5.9992 Y3.5449 Z-0.1881
N10175 X5.9915 Y3.5403
N10180 X5.9837 Y3.5356
N10185 X5.976 Y3.5305
N10190 X5.9621 Y3.5208 Z-0.1882
N10195 X5.952 Y3.5131
N10200 X5.945 Y3.5075
N10205 X5.9373 Y3.5009
N10210 X5.9295 Y3.494
N10215 X5.9251 Y3.4899
N10220 X5.9141 Y3.4789
N10225 X5.9097 Y3.4744
N10230 X5.9027 Y3.4666
N10235 X5.8986 Y3.462
N10240 X5.8959 Y3.4589 Z-0.1881
N10245 X5.8897 Y3.4512 Z-0.1882
N10250 X5.8831 Y3.4427
N10255 X5.8779 Y3.4357 Z-0.1881
N10260 X5.8725 Y3.4279
N10265 X5.8673 Y3.4202
N10270 X5.8599 Y3.408 Z-0.1882
N10275 X5.8579 Y3.4047
N10280 X5.8521 Y3.3942
N10285 X5.8494 Y3.3892
N10290 X5.845 Y3.3804
N10295 X5.8383 Y3.366 Z-0.1881
N10300 X5.8366 Y3.3622
N10305 X5.832 Y3.3505 Z-0.1882
N10310 X5.8289 Y3.3424
N10315 X5.8239 Y3.3273
N10320 X5.8216 Y3.3196
N10325 X5.8175 Y3.3041
N10330 X5.8157 Y3.2963
N10335 X5.8125 Y3.2809 Z-0.1883
N10340 X5.8113 Y3.2731 Z-0.1882
N10345 X5.8091 Y3.2576
N10350 X5.8077 Y3.2422
N10355 X5.8071 Y3.2344
N10360 X5.8065 Y3.2112
N10365 Y3.1064 Z-0.1881
N10370 G2 Y3.0877 Z-0.1694 J0. K0.0188 F15.
N10375 G0 Z0.08
N10380 X6.5143 Y3.5296
N10385 Z0.0522
N10390 G1 Z-0.1097 F6.667
N10395 Z-0.1103 F15.
N10400 X6.5149 Y3.5299 Z-0.1342 F20.
N10405 X6.515 Y3.5301 Z-0.1414
N10410 Y3.5314 Z-0.1778
N10415 X6.5148 Y3.532 Z-0.1901
N10420 X6.5149 Y3.5327 Z-0.1972
N10425 Y3.5336 Z-0.2014
N10430 Y3.5353 Z-0.207
N10435 Y3.5363 Z-0.2094
N10440 Y3.5402 Z-0.2169
N10445 X6.515 Y3.544 Z-0.2227
N10450 X6.5149 Y3.5479 Z-0.2271
N10455 Y3.5518 Z-0.2306
N10460 Y3.5595 Z-0.2363
N10465 X6.515 Y3.5673 Z-0.2402
N10470 X6.5148 Y3.575 Z-0.2426
N10475 Y3.5827 Z-0.244
N10480 X6.515 Y3.5905 Z-0.2444
N10485 X6.5149 Y3.5982 Z-0.2436
N10490 Y3.606 Z-0.2417
N10495 Y3.6137 Z-0.2386
N10500 X6.5148 Y3.6214 Z-0.234
N10505 X6.5149 Y3.6292 Z-0.2275
N10510 Y3.6331 Z-0.2231
N10515 Y3.6369 Z-0.2177
N10520 Y3.6408 Z-0.2103
N10525 Y3.6427 Z-0.2054
N10530 X6.515 Y3.6447 Z-0.198
N10535 X6.5149 Y3.6454 Z-0.1925
N10540 X6.515 Y3.6456 Z-0.1899
N10545 X6.5146 Y3.6477 Z-0.1222
N10550 X6.5145 Y3.6479 Z-0.1149
N10555 X6.5142 Y3.6478 Z-0.1103
N10560 Z-0.1091 F15.
N10565 G0 Z0.08
N10570 X7.0416 Y3.3846
N10575 Z0.0519
N10580 G1 Z-0.1153 F6.667
N10585 Y3.3844 Z-0.1175 F15.
N10590 X7.0413 Y3.3838 Z-0.1197
N10595 X7.0408 Y3.3828 Z-0.1217
N10600 X7.0402 Y3.3815 Z-0.1235
N10605 X7.0365 Y3.3734 F20.
N10610 X7.0332 Y3.366
N10615 X7.0299 Y3.3583
N10620 X7.024 Y3.3428
N10625 X7.021 Y3.3341 Z-0.1234
N10630 X7.0164 Y3.3196
N10635 X7.0125 Y3.3041
N10640 X7.0106 Y3.2963 Z-0.1235
N10645 X7.0075 Y3.2809 Z-0.1234
N10650 X7.0063 Y3.2731
N10655 X7.0041 Y3.2576
N10660 X7.0027 Y3.2422
N10665 X7.0021 Y3.2344 Z-0.1235
N10670 X7.0015 Y3.2112
N10675 Y3.0254 Z-0.1234
N10680 X7.0012 Y3.0177
N10685 X7.0007 Y3.0099 Z-0.1235
N10690 X7.0002 Y3.0022
N10695 X6.999 Y2.9945
N10700 X6.9963 Y2.979 Z-0.1234
N10705 X6.9943 Y2.9712
N10710 X6.9898 Y2.9558
N10715 X6.9869 Y2.948
N10720 X6.9823 Y2.937 Z-0.1235
N10725 X6.9804 Y2.9325
N10730 X6.9764 Y2.9248
N10735 X6.9699 Y2.9131 Z-0.1234
N10740 Y2.9129 Z-0.1259
N10745 X6.97 Y2.9128 Z-0.1309
N10750 X6.9719 Z-0.1871
N10755 X6.9727 Z-0.1943
N10760 X6.9746 Z-0.2012
N10765 X6.9785 Z-0.2087
N10770 X6.9823 Z-0.2135
N10775 X6.9851 Z-0.2161
N10780 X6.9901 Z-0.2198
N10785 X6.9939 Z-0.2219
N10790 X6.9978 Z-0.2235
N10795 X7.0056 Z-0.2252
N10800 X7.0133 Z-0.2253
N10805 X7.021 Z-0.2238
N10810 X7.0288 Z-0.2205
N10815 X7.0322 Y2.9127 Z-0.2183
N10820 X7.0365 Y2.9128 Z-0.2147
N10825 X7.0404 Y2.9127 Z-0.2103
N10830 X7.0443 Z-0.2039
N10835 X7.0462 Z-0.1991
N10840 X7.0477 Z-0.1927
N10845 X7.0482 Y2.9126 Z-0.1853
N10850 X7.0486 Y2.9127 Z-0.1735
N10855 X7.0502 Y2.913 Z-0.1234
N10860 X7.0436 Y2.9248 Z-0.1235
N10865 X7.0396 Y2.9325
N10870 X7.0363 Y2.9403
N10875 X7.0331 Y2.948
N10880 X7.0302 Y2.9558
N10885 X7.0279 Y2.9635
N10890 X7.0256 Y2.9712 Z-0.1234
N10895 X7.0237 Y2.979 Z-0.1235
N10900 X7.021 Y2.9945 Z-0.1234
N10905 X7.0198 Y3.0022
N10910 X7.0193 Y3.0099
N10915 X7.0188 Y3.0177
N10920 X7.0185 Y3.0254 Z-0.1235
N10925 Y3.2112
N10930 X7.0186 Y3.2189
N10935 X7.0192 Y3.2344
N10940 X7.0196 Y3.2422
N10945 X7.0222 Y3.2654 Z-0.1234
N10950 X7.0234 Y3.2731
N10955 X7.0263 Y3.2886
N10960 X7.0279 Y3.2963
N10965 X7.0341 Y3.3196
N10970 X7.0366 Y3.3273
N10975 X7.0421 Y3.3428
N10980 X7.0443 Y3.3487
N10985 X7.052 Y3.3666 Z-0.1235
N10990 X7.0553 Y3.3737 Z-0.1234
N10995 X7.0634 Y3.3892
N11000 X7.0676 Y3.397
N11005 X7.0772 Y3.4124
N11010 X7.0822 Y3.4202
N11015 X7.0935 Y3.4357
N11020 X7.0985 Y3.4423
N11025 X7.1139 Y3.4604
N11030 X7.1198 Y3.4666
N11035 X7.1354 Y3.4821
N11040 X7.1372 Y3.4837
N11045 X7.1532 Y3.4976 Z-0.1235
N11050 X7.1604 Y3.5033
N11055 X7.1759 Y3.5147 Z-0.1234
N11060 X7.1852 Y3.5208
N11065 X7.1991 Y3.5296
N11070 X7.2068 Y3.5339
N11075 X7.2223 Y3.5421
N11080 X7.2261 Y3.544
N11085 X7.2301 Y3.5458 Z-0.1235
N11090 X7.2455 Y3.5526 Z-0.1234
N11095 X7.2533 Y3.5557
N11100 X7.2765 Y3.5638
N11105 X7.289 Y3.5673 Z-0.1235
N11110 X7.2997 Y3.5701
N11115 X7.3075 Y3.5719
N11120 X7.3239 Y3.575 Z-0.1234
N11125 X7.3307 Y3.5762
N11130 X7.3539 Y3.5789
N11135 X7.3617 Y3.5795
N11140 X7.3849 Y3.5803 Z-0.1235
N11145 X7.5707
N11150 X7.5784 Y3.5801
N11155 X7.5939 Y3.5792
N11160 X7.6016 Y3.5782
N11165 X7.6171 Y3.5756 Z-0.1234
N11170 X7.6202 Y3.575
N11175 X7.6249 Y3.5739
N11180 X7.6403 Y3.5694
N11185 X7.6467 Y3.5673
N11190 X7.6636 Y3.5603
N11195 X7.6654 Y3.5595
N11200 X7.6713 Y3.5566
N11205 X7.6858 Y3.5485
N11210 X7.6859 Y3.5487 Z-0.13
N11215 X7.6862 Y3.55 Z-0.1712
N11220 X7.6861 Y3.5503 Z-0.1773
N11225 X7.686 Y3.5507 Z-0.1875
N11230 X7.6859 Y3.5513 Z-0.1935
N11235 X7.686 Y3.5518 Z-0.1961
N11240 Y3.5537 Z-0.2022
N11245 Y3.5556 Z-0.2061
N11250 X7.6861 Y3.5595 Z-0.2118
N11255 X7.686 Y3.5634 Z-0.2158
N11260 Y3.5673 Z-0.2188
N11265 Y3.5715 Z-0.2214
N11270 X7.6861 Y3.575 Z-0.2229
N11275 X7.6859 Y3.5827 Z-0.225
N11280 X7.686 Y3.5905 Z-0.2255
N11285 Y3.5982 Z-0.2243
N11290 Y3.6021 Z-0.223
N11295 Y3.606 Z-0.2213
N11300 X7.6859 Y3.6137 Z-0.2161
N11305 X7.686 Y3.6176 Z-0.2123
N11310 Y3.6214 Z-0.2069
N11315 X7.6861 Y3.6243 Z-0.2009
N11320 X7.686 Y3.6263 Z-0.1935
N11325 X7.6861 Y3.6268 Z-0.1889
N11330 X7.6862 Y3.6285 Z-0.1435
N11335 X7.6858 Y3.6289 Z-0.125
N11340 X7.6857 Z-0.1234
N11345 X7.6713 Y3.6209
N11350 X7.6636 Y3.6172
N11355 X7.6481 Y3.6108
N11360 X7.6403 Y3.6081
N11365 X7.6249 Y3.6036
N11370 X7.6171 Y3.6019
N11375 X7.6016 Y3.5993 Z-0.1235
N11380 X7.5939 Y3.5983
N11385 X7.5784 Y3.5974 Z-0.1234
N11390 X7.5707 Y3.5972
N11395 X7.3926 Z-0.1235
N11400 X7.3849
N11405 X7.3694 Y3.5968
N11410 X7.3617 Y3.5964
N11415 X7.3462 Y3.5951
N11420 X7.3384 Y3.5943 Z-0.1234
N11425 X7.3229 Y3.5921 Z-0.1235
N11430 X7.3142 Y3.5905 Z-0.1234
N11435 X7.2997 Y3.5876
N11440 X7.2809 Y3.5827 Z-0.1235
N11445 X7.2765 Y3.5815
N11450 X7.261 Y3.5765
N11455 X7.2566 Y3.575
N11460 X7.2455 Y3.5708 Z-0.1234
N11465 X7.2378 Y3.5678 Z-0.1235
N11470 X7.2193 Y3.5595
N11475 X7.1991 Y3.5491
N11480 X7.1836 Y3.54 Z-0.1234
N11485 X7.1778 Y3.5363 Z-0.1235
N11490 X7.1662 Y3.5286 Z-0.1234
N11495 X7.1604 Y3.5244 Z-0.1235
N11500 X7.1449 Y3.5127 Z-0.1234
N11505 X7.1294 Y3.4996
N11510 X7.1139 Y3.485
N11515 X7.1039 Y3.4744
N11520 X7.0985 Y3.4685 Z-0.1235
N11525 X7.0903 Y3.4589
N11530 X7.0839 Y3.4512
N11535 X7.0723 Y3.4357
N11540 X7.0619 Y3.4202
N11545 X7.0597 Y3.4168
N11550 X7.052 Y3.4037
N11555 X7.0482 Y3.397
N11560 X7.0402 Y3.3815
N11565 X7.0384 Y3.3774 Z-0.1236
N11570 X7.0366 Y3.3733 Z-0.1238
N11575 X7.0348 Y3.3692 Z-0.1243
N11580 X7.0331 Y3.365 Z-0.1249
N11585 X7.0314 Y3.3609 Z-0.1256
N11590 X7.0298 Y3.3568 Z-0.1265
N11595 X7.0282 Y3.3527 Z-0.1275
N11600 X7.0267 Y3.3486 Z-0.1285
N11605 X7.0252 Y3.3444 Z-0.1297
N11610 X7.0224 Y3.3362 Z-0.1323
N11615 X7.0198 Y3.328 Z-0.1351
N11620 X7.0174 Y3.3197 Z-0.1381
N11625 X7.0152 Y3.3115 Z-0.1411
N11630 X7.0131 Y3.3031 Z-0.144
N11635 X7.0113 Y3.2947 Z-0.1468
N11640 X7.0096 Y3.2861 Z-0.1494
N11645 X7.0088 Y3.2818 Z-0.1506
N11650 X7.0081 Y3.2775 Z-0.1517
N11655 X7.0074 Y3.2732 Z-0.1527
N11660 X7.0067 Y3.2688 Z-0.1536
N11665 X7.0061 Y3.2644 Z-0.1543
N11670 X7.0056 Y3.26 Z-0.1549
N11675 X7.0051 Y3.2555 Z-0.1554
N11680 X7.0046 Y3.251 Z-0.1557
N11685 X7.0042 Y3.2466 Z-0.1558
N11690 X7.0033 Y3.2344
N11695 X7.0026 Y3.2112
N11700 Y3.0254
N11705 X7.0023 Y3.0177
N11710 X7.0019 Y3.0099
N11715 X7.0013 Y3.0022 Z-0.1559
N11720 X7.0002 Y2.9945 Z-0.1558
N11725 X6.9978 Y2.9808
N11730 X6.9975 Y2.979
N11735 X6.9955 Y2.9712 Z-0.1557
N11740 X6.991 Y2.9558
N11745 X6.9901 Y2.9532 Z-0.1558
N11750 X6.9872 Y2.9459
N11755 X6.9855 Y2.9419
N11760 X6.9856 Y2.9417 Z-0.1614
N11765 X6.9864 Z-0.1829
N11770 X6.9867 Y2.9418 Z-0.1893
N11775 X6.987 Y2.9417 Z-0.1917
N11780 X6.9873 Y2.9418 Z-0.193
N11785 X6.9881 Y2.9417 Z-0.1958
N11790 X6.9891 Y2.9418 Z-0.198
N11795 X6.9901 Z-0.1997
N11800 X6.992 Y2.9417 Z-0.2025
N11805 X6.9939 Z-0.2045
N11810 X6.9959 Z-0.2061
N11815 X6.9978 Z-0.2075
N11820 X6.9998 Z-0.2085
N11825 X7.0017 Z-0.2094
N11830 X7.0036 Y2.9418 Z-0.21
N11835 X7.0056 Z-0.2105
N11840 X7.0094 Z-0.2109
N11845 X7.0114 Y2.9417
N11850 X7.0133 Z-0.2107
N11855 X7.0172 Z-0.2098
N11860 X7.0191 Y2.9418 Z-0.209
N11865 X7.021 Y2.9417 Z-0.2081
N11870 X7.023 Z-0.207
N11875 X7.0249 Z-0.2055
N11880 X7.0268 Z-0.2037
N11885 X7.0288 Z-0.2015
N11890 X7.03 Z-0.1997
N11895 X7.0312 Z-0.1975
N11900 X7.0317 Z-0.1963
N11905 X7.0324 Z-0.1943
N11910 X7.033 Z-0.192
N11915 X7.0335 Y2.9416 Z-0.1867
N11920 X7.034 Y2.9415 Z-0.1758
N11925 X7.0344 Y2.9416 Z-0.1605
N11930 X7.0345 Y2.9418 Z-0.1559
N11935 X7.032 Y2.948
N11940 X7.0288 Y2.9566 Z-0.1558
N11945 X7.0245 Y2.9712
N11950 X7.0225 Y2.979
N11955 X7.0198 Y2.9945
N11960 X7.0187 Y3.0022
N11965 X7.0181 Y3.0099
N11970 X7.0177 Y3.0177
N11975 X7.0174 Y3.0254
N11980 Y3.2112 Z-0.1559
N11985 X7.0175 Y3.2189 Z-0.1558
N11990 X7.0181 Y3.2344
N11995 X7.0185 Y3.2422
N12000 X7.021 Y3.2654
N12005 X7.0223 Y3.2731
N12010 X7.0252 Y3.2886
N12015 X7.0268 Y3.2963
N12020 X7.0329 Y3.3196 Z-0.1557
N12025 X7.0354 Y3.3273 Z-0.1558
N12030 X7.0409 Y3.3428 Z-0.1557
N12035 X7.0438 Y3.3505 Z-0.1558
N12040 X7.052 Y3.3694
N12045 X7.054 Y3.3737
N12050 X7.0621 Y3.3892
N12055 X7.0663 Y3.397
N12060 X7.0675 Y3.399
N12065 X7.0808 Y3.4202
N12070 X7.083 Y3.4233
N12075 X7.0921 Y3.4357 Z-0.1557
N12080 X7.0985 Y3.4441
N12085 X7.1139 Y3.4621 Z-0.1558
N12090 X7.1182 Y3.4666
N12095 X7.1337 Y3.4821
N12100 X7.1372 Y3.4852
N12105 X7.1526 Y3.4986
N12110 X7.1613 Y3.5053
N12115 X7.1759 Y3.5161
N12120 X7.1836 Y3.5212
N12125 X7.1991 Y3.5309
N12130 X7.2089 Y3.5363
N12135 X7.2236 Y3.544
N12140 X7.2301 Y3.547
N12145 X7.2455 Y3.5538
N12150 X7.2533 Y3.5569
N12155 X7.2688 Y3.5624
N12160 X7.2765 Y3.565
N12165 X7.292 Y3.5692 Z-0.1559
N12170 X7.2997 Y3.5713
N12175 X7.3075 Y3.573 Z-0.1558
N12180 X7.3229 Y3.576
N12185 X7.3307 Y3.5774 Z-0.1557
N12190 X7.3539 Y3.58 Z-0.1558
N12195 X7.3617 Y3.5806
N12200 X7.3849 Y3.5814 Z-0.1559
N12205 X7.5707 Z-0.1558
N12210 X7.5784 Y3.5812 Z-0.1559
N12215 X7.5939 Y3.5803
N12220 X7.6016 Y3.5794
N12225 X7.6171 Y3.5767 Z-0.1558
N12230 X7.6249 Y3.575
N12235 X7.6403 Y3.5705
N12240 X7.6481 Y3.5679 Z-0.1557
N12245 X7.6571 Y3.5642
N12250 X7.6572 Y3.5643 Z-0.1614
N12255 Y3.5648 Z-0.1762
N12260 X7.6571 Y3.5652 Z-0.1851
N12265 X7.657 Y3.5656 Z-0.1905
N12270 Y3.5663 Z-0.194
N12275 X7.6571 Y3.5673 Z-0.1968
N12280 Y3.5682 Z-0.1988
N12285 Y3.5692 Z-0.2004
N12290 Y3.5711 Z-0.2029
N12295 Y3.5731 Z-0.2049
N12300 X7.657 Y3.575 Z-0.2064
N12305 X7.6571 Y3.5769 Z-0.2077
N12310 Y3.5789 Z-0.2087
N12315 X7.657 Y3.5808 Z-0.2095
N12320 Y3.5827 Z-0.2101
N12325 Y3.5866 Z-0.2108
N12330 Y3.5885 Z-0.2109
N12335 Y3.5905 Z-0.2108
N12340 Y3.5943 Z-0.2102
N12345 Y3.5963 Z-0.2097
N12350 Y3.5982 Z-0.2089
N12355 Y3.6002 Z-0.2079
N12360 X7.6569 Y3.6021 Z-0.2067
N12365 X7.657 Y3.604 Z-0.2052
N12370 Y3.606 Z-0.2034
N12375 X7.6571 Y3.6073 Z-0.2018
N12380 Y3.6089 Z-0.1995
N12385 Y3.61 Z-0.1975
N12390 Y3.6106 Z-0.1959
N12395 Y3.6118 Z-0.1918
N12400 X7.6572 Y3.6123 Z-0.1875
N12405 Y3.6132 Z-0.1629
N12410 X7.657 Y3.6133 Z-0.1558
N12415 X7.6481 Y3.6096
N12420 X7.6403 Y3.607
N12425 X7.6249 Y3.6025
N12430 X7.6171 Y3.6008
N12435 X7.6016 Y3.5981 Z-0.1559
N12440 X7.5939 Y3.5972 Z-0.1558
N12445 X7.5784 Y3.5963
N12450 X7.5707 Y3.5961 Z-0.1557
N12455 X7.3926 Z-0.1558
N12460 X7.3849 Z-0.1559
N12465 X7.3694 Y3.5956
N12470 X7.3617 Y3.5953
N12475 X7.3462 Y3.594 Z-0.1558
N12480 X7.3384 Y3.5931
N12485 X7.3229 Y3.591
N12490 X7.32 Y3.5905
N12495 X7.2997 Y3.5864
N12500 X7.2842 Y3.5824 Z-0.1559
N12505 X7.2765 Y3.5803
N12510 X7.2599 Y3.575
N12515 X7.2455 Y3.5696 Z-0.1558
N12520 X7.2394 Y3.5673
N12525 X7.2301 Y3.5631
N12530 X7.222 Y3.5595
N12535 X7.2146 Y3.5559
N12540 X7.1991 Y3.5478
N12545 X7.1836 Y3.5387
N12550 X7.1798 Y3.5363
N12555 X7.1681 Y3.5285
N12560 X7.1604 Y3.523
N12565 X7.1472 Y3.5131
N12570 X7.1372 Y3.5047
N12575 X7.1289 Y3.4976
N12580 X7.1139 Y3.4833
N12585 X7.1055 Y3.4744
N12590 X7.0983 Y3.4666 Z-0.1559
N12595 X7.0854 Y3.4512
N12600 X7.0737 Y3.4357
N12605 X7.0633 Y3.4202
N12610 X7.0597 Y3.4146
N12615 X7.052 Y3.4014
N12620 X7.0495 Y3.397
N12625 X7.0413 Y3.381 Z-0.1558
N12630 X7.0365 Y3.3707
N12635 X7.0344 Y3.366 Z-0.1559
N12640 X7.0311 Y3.3583
N12645 X7.0252 Y3.3428 Z-0.1558
N12650 X7.0225 Y3.335
N12655 X7.0176 Y3.3196
N12660 X7.0133 Y3.3029
N12665 X7.0118 Y3.2963
N12670 X7.0087 Y3.2809
N12675 X7.0074 Y3.2731
N12680 X7.0052 Y3.2576
N12685 X7.0042 Y3.2466
N12690 X7.0039 Y3.2421 Z-0.1559
N12695 X7.0036 Y3.2376 Z-0.1562
N12700 X7.0034 Y3.2331 Z-0.1566
N12705 X7.0032 Y3.2287 Z-0.1572
N12710 X7.003 Y3.2243 Z-0.158
N12715 Y3.2198 Z-0.1589
N12720 X7.0029 Y3.2154 Z-0.1599
N12725 X7.0028 Y3.2111 Z-0.161
N12730 X7.0029 Y3.2024 Z-0.1634
N12735 X7.003 Y3.1937 Z-0.1661
N12740 X7.0032 Y3.1808 Z-0.1705
N12745 X7.0034 Y3.1637 Z-0.1765
N12750 X7.0036 Y3.1551 Z-0.1793
N12755 X7.0037 Y3.1464 Z-0.1819
N12760 Y3.142 Z-0.183
N12765 X7.0038 Y3.1376 Z-0.1841
N12770 Y3.1332 Z-0.1851
N12775 X7.0039 Y3.1288 Z-0.186
N12780 Y3.1243 Z-0.1867
N12785 Y3.1199 Z-0.1873
N12790 X7.004 Y3.1154 Z-0.1878
N12795 Y3.1109 Z-0.188
N12800 Y3.1064 Z-0.1881
N12805 Y3.0254
N12810 X7.0036 Y3.0177
N12815 X7.0025 Y3.0022 Z-0.1882
N12820 X7.0014 Y2.9945
N12825 X6.9987 Y2.979 Z-0.1881
N12830 X6.9974 Y2.9739
N12835 X6.9971 Y2.9727
N12840 X6.9972 Y2.9724 Z-0.19
N12845 X6.9978 Z-0.1921
N12850 X6.9983 Y2.9725 Z-0.1932
N12855 X6.9988 Y2.9724 Z-0.1941
N12860 X6.9998 Z-0.1955
N12865 X7.0007 Z-0.1966
N12870 X7.0017 Z-0.1975
N12875 X7.0027 Z-0.1983
N12880 X7.0036 Z-0.1988
N12885 X7.0056 Z-0.1997
N12890 X7.0075 Z-0.2003
N12895 X7.0094 Z-0.2005
N12900 X7.0114 Z-0.2004
N12905 X7.0133 Z-0.2001
N12910 X7.0143 Z-0.1998
N12915 X7.0152 Y2.9725 Z-0.1994
N12920 X7.0172 Y2.9724 Z-0.1984
N12925 X7.0181 Z-0.1977
N12930 X7.0191 Z-0.1968
N12935 X7.0201 Z-0.1958
N12940 X7.021 Z-0.1944
N12945 X7.022 Y2.9723 Z-0.1926
N12950 X7.0226 Z-0.1907
N12955 X7.0228 Z-0.1901
N12960 X7.0229 Y2.9726 Z-0.1882
N12965 X7.0223 Y2.9751
N12970 X7.021 Y2.9805
N12975 X7.0186 Y2.9945 Z-0.1881
N12980 X7.0175 Y3.0022
N12985 X7.0164 Y3.0177
N12990 X7.016 Y3.0254 Z-0.1882
N12995 Y3.2112
N13000 X7.0161 Y3.2189
N13005 X7.0166 Y3.2344
N13010 X7.0172 Y3.2422
N13015 X7.0179 Y3.2499 Z-0.1881
N13020 X7.0187 Y3.2576
N13025 X7.0197 Y3.2654
N13030 X7.021 Y3.2742
N13035 X7.0223 Y3.2809
N13040 X7.0238 Y3.2886
N13045 X7.0254 Y3.2963
N13050 X7.0288 Y3.3093
N13055 X7.0315 Y3.3196
N13060 X7.034 Y3.3273
N13065 X7.0366 Y3.335
N13070 X7.0394 Y3.3428
N13075 X7.0443 Y3.3552
N13080 X7.049 Y3.366 Z-0.1882
N13085 X7.0526 Y3.3737 Z-0.1881
N13090 X7.0564 Y3.3815
N13095 X7.0647 Y3.397
N13100 X7.0694 Y3.4047
N13105 X7.0752 Y3.414
N13110 X7.0792 Y3.4202
N13115 X7.0846 Y3.4279
N13120 X7.0907 Y3.4362
N13125 X7.0985 Y3.4461
N13130 X7.1026 Y3.4512
N13135 X7.1094 Y3.4589
N13140 X7.1163 Y3.4666
N13145 X7.1318 Y3.4821
N13150 X7.1404 Y3.4899
N13155 X7.1493 Y3.4976 Z-0.1882
N13160 X7.1526 Y3.5003
N13165 X7.1604 Y3.5064
N13170 X7.1694 Y3.5131 Z-0.1881
N13175 X7.1805 Y3.5208
N13180 X7.1928 Y3.5286
N13185 X7.1991 Y3.5324
N13190 X7.2068 Y3.5367
N13195 X7.2206 Y3.544
N13200 X7.2301 Y3.5485 Z-0.1882
N13205 X7.2378 Y3.552 Z-0.1881
N13210 X7.2455 Y3.5553
N13215 X7.2533 Y3.5584
N13220 X7.261 Y3.5612
N13225 X7.2765 Y3.5664
N13230 X7.2794 Y3.5673
N13235 X7.2997 Y3.5727 Z-0.1882
N13240 X7.3103 Y3.575
N13245 X7.3229 Y3.5774 Z-0.1881
N13250 X7.3307 Y3.5786
N13255 X7.3384 Y3.5797
N13260 X7.3462 Y3.5806
N13265 X7.3539 Y3.5813
N13270 X7.3617 Y3.582
N13275 X7.3771 Y3.5825 Z-0.1882
N13280 X7.3849 Y3.5827
N13285 X7.5707
N13290 X7.5784 Y3.5825
N13295 X7.5939 Y3.5815
N13300 X7.6016 Y3.5806 Z-0.1883
N13305 X7.6171 Y3.5779 Z-0.1882
N13310 X7.6249 Y3.5762 Z-0.1881
N13315 X7.6261 Y3.5758
N13320 X7.6263 Y3.5759 Z-0.1897
N13325 Y3.5762 Z-0.1911
N13330 X7.6264 Y3.5769 Z-0.1928
N13335 Y3.5775 Z-0.1941
N13340 Y3.5782 Z-0.1951
N13345 Y3.5793 Z-0.1965
N13350 Y3.5802 Z-0.1973
N13355 Y3.581 Z-0.198
N13360 Y3.5827 Z-0.1991
N13365 Y3.5837 Z-0.1995
N13370 X7.6263 Y3.5847 Z-0.1999
N13375 Y3.5866 Z-0.2003
N13380 Y3.5885 Z-0.2005
N13385 Y3.5905 Z-0.2004
N13390 Y3.5924 Z-0.2
N13395 Y3.5943 Z-0.1992
N13400 X7.6262 Y3.5953 Z-0.1987
N13405 Y3.5963 Z-0.1981
N13410 X7.6263 Y3.5973 Z-0.1973
N13415 Y3.5982 Z-0.1964
N13420 X7.6264 Y3.5991 Z-0.1954
N13425 Y3.5999 Z-0.1942
N13430 Y3.6007 Z-0.1927
N13435 Y3.6011 Z-0.1918
N13440 Y3.6015 Z-0.1901
N13445 X7.6262 Y3.6017 Z-0.1881
N13450 X7.6249 Y3.6013
N13455 X7.6171 Y3.5996
N13460 X7.6016 Y3.5969 Z-0.1882
N13465 X7.5939 Y3.596
N13470 X7.5784 Y3.595 Z-0.1881
N13475 X7.5707 Y3.5948
N13480 X7.3926 Z-0.1882
N13485 X7.3849 Y3.5947
N13490 X7.3694 Y3.5943
N13495 X7.3617 Y3.594
N13500 X7.3462 Y3.5927
N13505 X7.3384 Y3.5918 Z-0.1881
N13510 X7.3229 Y3.5896 Z-0.1882
N13515 X7.3152 Y3.5882
N13520 X7.2997 Y3.585 Z-0.1881
N13525 X7.2906 Y3.5827 Z-0.1882
N13530 X7.2765 Y3.5789
N13535 X7.261 Y3.5739
N13540 X7.2533 Y3.5712
N13545 X7.2378 Y3.5651
N13550 X7.2301 Y3.5617
N13555 X7.2146 Y3.5544
N13560 X7.2068 Y3.5504
N13565 X7.1991 Y3.5462
N13570 X7.1952 Y3.544 Z-0.1881
N13575 X7.1913 Y3.5418
N13580 X7.1824 Y3.5363 Z-0.1882
N13585 X7.1759 Y3.5321
N13590 X7.1681 Y3.5268
N13595 X7.1595 Y3.5208
N13600 X7.1526 Y3.5156
N13605 X7.1449 Y3.5094 Z-0.1881
N13610 X7.1372 Y3.503
N13615 X7.1294 Y3.4961
N13620 X7.1217 Y3.489
N13625 X7.1139 Y3.4813
N13630 X7.1062 Y3.4733 Z-0.1882
N13635 X7.0985 Y3.4646
N13640 X7.0934 Y3.4589
N13645 X7.0907 Y3.4556
N13650 X7.0811 Y3.4434
N13655 X7.0752 Y3.4353
N13660 X7.0675 Y3.4242
N13665 X7.0649 Y3.4202
N13670 X7.0554 Y3.4047
N13675 X7.0511 Y3.397
N13680 X7.0469 Y3.3892
N13685 X7.0443 Y3.3841
N13690 X7.0425 Y3.3804
N13695 X7.0365 Y3.3675
N13700 X7.0326 Y3.3583
N13705 X7.0288 Y3.3486
N13710 X7.0265 Y3.3428
N13715 X7.021 Y3.3261 Z-0.1881
N13720 X7.0191 Y3.3196
N13725 X7.0149 Y3.3041
N13730 X7.0132 Y3.2963 Z-0.1882
N13735 X7.01 Y3.2809 Z-0.1881
N13740 X7.0088 Y3.2731 Z-0.1882
N13745 X7.0066 Y3.2576
N13750 X7.0052 Y3.2422
N13755 X7.0046 Y3.2344
N13760 X7.004 Y3.2112
N13765 Y3.1064 Z-0.1881
N13770 G2 Y3.0877 Z-0.1694 J0. K0.0187 F15.
N13775 G0 Z0.08
N13780 X7.7119 Y3.5295
N13785 Z0.0522
N13790 G1 Z-0.1096 F6.667
N13795 Z-0.1106 F15.
N13800 X7.7121 Z-0.1138 F20.
N13805 X7.7122 Y3.5297 Z-0.1223
N13810 X7.7125 Y3.5314 Z-0.1771
N13815 X7.7123 Y3.5321 Z-0.1905
N13820 Y3.5323 Z-0.1937
N13825 X7.7124 Y3.5336 Z-0.2014
N13830 X7.7125 Y3.5352 Z-0.2068
N13835 X7.7124 Y3.5363 Z-0.2094
N13840 Y3.5402 Z-0.2171
N13845 X7.7125 Y3.544 Z-0.2227
N13850 X7.7124 Y3.5479 Z-0.2271
N13855 Y3.5518 Z-0.2306
N13860 Y3.5595 Z-0.2363
N13865 X7.7125 Y3.5673 Z-0.2402
N13870 X7.7123 Y3.575 Z-0.2426
N13875 Y3.5827 Z-0.244
N13880 X7.7124 Y3.5905 Z-0.2444
N13885 X7.7123 Y3.5982 Z-0.2435
N13890 X7.7124 Y3.606 Z-0.2417
N13895 Y3.6137 Z-0.2386
N13900 X7.7123 Y3.6214 Z-0.234
N13905 X7.7124 Y3.6292 Z-0.2275
N13910 Y3.6331 Z-0.2232
N13915 Y3.6369 Z-0.2177
N13920 X7.7125 Y3.6408 Z-0.2106
N13925 X7.7124 Y3.6427 Z-0.2054
N13930 Y3.6447 Z-0.1977
N13935 X7.7125 Y3.6454 Z-0.1932
N13940 X7.7124 Y3.6456 Z-0.189
N13945 X7.7125 Y3.6473 Z-0.1444
N13950 X7.7122 Y3.6477 Z-0.1251
N13955 X7.7119 Y3.648 Z-0.11
N13960 Z-0.1095 F15.
N13965 G0 Z0.08
N13970 X8.2408 Y3.3879
N13975 Z0.052
N13980 G1 Z-0.1088 F6.667
N13985 X8.2407 Y3.3876 Z-0.1121 F15.
N13990 X8.2403 Y3.3868 Z-0.1154
N13995 X8.2396 Y3.3855 Z-0.1184
N14000 X8.2388 Y3.3837 Z-0.1211
N14005 X8.2377 Y3.3815 Z-0.1234
N14010 X8.2364 Y3.3787 F20.
N14015 X8.2287 Y3.3614
N14020 X8.2244 Y3.3505
N14025 X8.2209 Y3.3413 Z-0.1235
N14030 X8.2164 Y3.3273
N14035 X8.2139 Y3.3196
N14040 X8.21 Y3.3041
N14045 X8.2081 Y3.2963
N14050 X8.205 Y3.2809 Z-0.1234
N14055 X8.2038 Y3.2731 Z-0.1235
N14060 X8.2016 Y3.2576
N14065 X8.2002 Y3.2422 Z-0.1234
N14070 X8.1996 Y3.2344 Z-0.1235
N14075 X8.199 Y3.2112
N14080 Y3.0254 Z-0.1234
N14085 X8.1987 Y3.0177
N14090 X8.1982 Y3.0099
N14095 X8.1977 Y3.0022
N14100 X8.1965 Y2.9945
N14105 X8.1938 Y2.979 Z-0.1235
N14110 X8.1919 Y2.9712
N14115 X8.1873 Y2.9558 Z-0.1234
N14120 X8.1844 Y2.948
N14125 X8.1779 Y2.9325
N14130 X8.1739 Y2.9248
N14135 X8.1673 Y2.9129
N14140 Y2.9128 Z-0.1244
N14145 X8.1676 Y2.9126 Z-0.1378
N14150 X8.1688 Z-0.1724
N14155 X8.1694 Y2.9127 Z-0.1874
N14160 X8.1696 Z-0.1906
N14165 X8.1701 Z-0.1941
N14170 X8.1721 Y2.9128 Z-0.2012
N14175 X8.1745 Z-0.2062
N14180 X8.1783 Y2.9127 Z-0.2119
N14185 X8.1822 Y2.9128 Z-0.2158
N14190 X8.19 Z-0.2212
N14195 X8.1938 Z-0.2229
N14200 X8.1977 Y2.9127 Z-0.2242
N14205 X8.2054 Z-0.2255
N14210 X8.2132 Y2.9128 Z-0.225
N14215 X8.2209 Y2.9127 Z-0.223
N14220 X8.2287 Y2.9128 Z-0.219
N14225 X8.233 Y2.9127 Z-0.2156
N14230 X8.2364 Z-0.2122
N14235 X8.2403 Y2.9128 Z-0.2067
N14240 X8.2422 Y2.9127 Z-0.2029
N14245 X8.2441 Z-0.1976
N14250 X8.2452 Y2.9128 Z-0.1919
N14255 X8.2457 Y2.9126 Z-0.1845
N14260 X8.2465 Z-0.1626
N14265 X8.2476 Y2.9131 Z-0.1235
N14270 X8.2411 Y2.9248
N14275 X8.2371 Y2.9325
N14280 X8.2338 Y2.9403 Z-0.1234
N14285 X8.2306 Y2.948
N14290 X8.2287 Y2.9529
N14295 X8.2277 Y2.9558
N14300 X8.2232 Y2.9712
N14305 X8.2212 Y2.979
N14310 X8.2185 Y2.9945
N14315 X8.2173 Y3.0022
N14320 X8.2168 Y3.0099
N14325 X8.2163 Y3.0177
N14330 X8.216 Y3.0254
N14335 Y3.2112
N14340 X8.2161 Y3.2189
N14345 X8.2167 Y3.2344 Z-0.1235
N14350 X8.2171 Y3.2422
N14355 X8.2197 Y3.2654 Z-0.1234
N14360 X8.2209 Y3.2731
N14365 X8.2238 Y3.2886
N14370 X8.2254 Y3.2963
N14375 X8.2316 Y3.3196
N14380 X8.2341 Y3.3273
N14385 X8.2396 Y3.3428
N14390 X8.2425 Y3.3505
N14395 X8.2519 Y3.3719
N14400 X8.2528 Y3.3737
N14405 X8.2609 Y3.3892
N14410 X8.2651 Y3.397
N14415 X8.2699 Y3.4047
N14420 X8.2797 Y3.4202
N14425 X8.2853 Y3.4279
N14430 X8.291 Y3.4357
N14435 X8.2969 Y3.4434
N14440 X8.3102 Y3.4589
N14445 X8.3138 Y3.463
N14450 X8.3216 Y3.4709
N14455 X8.3329 Y3.4821
N14460 X8.337 Y3.4858
N14465 X8.3525 Y3.4991
N14470 X8.3607 Y3.5053
N14475 X8.3757 Y3.5164
N14480 X8.3835 Y3.5213
N14485 X8.399 Y3.531
N14490 X8.4145 Y3.5393
N14495 X8.4236 Y3.544 Z-0.1235
N14500 X8.4299 Y3.5469
N14505 X8.4454 Y3.5536 Z-0.1234
N14510 X8.4532 Y3.5566
N14515 X8.4686 Y3.562
N14520 X8.4764 Y3.5645
N14525 X8.4996 Y3.5708
N14530 X8.5073 Y3.5723
N14535 X8.5228 Y3.5753
N14540 X8.5306 Y3.5765
N14545 X8.5538 Y3.5791
N14550 X8.5615 Y3.5795
N14555 X8.577 Y3.5801
N14560 X8.5848 Y3.5803
N14565 X8.7705
N14570 X8.7783 Y3.5799 Z-0.1235
N14575 X8.786 Y3.5795
N14580 X8.7938 Y3.579
N14585 X8.8015 Y3.5778
N14590 X8.817 Y3.5751
N14595 X8.8247 Y3.5732 Z-0.1234
N14600 X8.8402 Y3.5687
N14605 X8.8442 Y3.5673
N14610 X8.8557 Y3.5626
N14615 X8.8634 Y3.5593
N14620 X8.8712 Y3.5553
N14625 X8.8833 Y3.5486
N14630 X8.8835 Y3.5487 Z-0.1293
N14635 X8.8836 Y3.5503 Z-0.1793
N14640 X8.8835 Y3.5508 Z-0.1895
N14645 Y3.5518 Z-0.1963
N14650 X8.8836 Y3.5537 Z-0.2022
N14655 X8.8835 Y3.5556 Z-0.2062
N14660 X8.8836 Y3.5595 Z-0.2118
N14665 X8.8835 Y3.5631 Z-0.2156
N14670 Y3.5673 Z-0.2188
N14675 Y3.5711 Z-0.2212
N14680 X8.8836 Y3.575 Z-0.2229
N14685 X8.8835 Y3.5827 Z-0.225
N14690 X8.8836 Y3.5905 Z-0.2255
N14695 X8.8835 Y3.5982 Z-0.2243
N14700 Y3.6021 Z-0.2231
N14705 Y3.606 Z-0.2214
N14710 Y3.6137 Z-0.2161
N14715 Y3.6176 Z-0.2123
N14720 Y3.6214 Z-0.2069
N14725 X8.8836 Y3.6239 Z-0.2021
N14730 X8.8835 Y3.6259 Z-0.1956
N14735 Y3.6263 Z-0.1935
N14740 Y3.6267 Z-0.1893
N14745 Y3.6272 Z-0.1755
N14750 X8.8837 Y3.6285 Z-0.142
N14755 X8.8834 Y3.6288 Z-0.1299
N14760 X8.883 Y3.6287 Z-0.1234
N14765 X8.8698 Y3.6214 Z-0.1235
N14770 X8.8634 Y3.6182
N14775 X8.848 Y3.6117 Z-0.1236
N14780 X8.8402 Y3.6088
N14785 X8.8247 Y3.6043 Z-0.1235
N14790 X8.817 Y3.6024 Z-0.1234
N14795 X8.8015 Y3.5997 Z-0.1235
N14800 X8.7938 Y3.5985
N14805 X8.79 Y3.5982
N14810 X8.7783 Y3.5976
N14815 X8.7705 Y3.5972 Z-0.1234
N14820 X8.5848 Z-0.1235
N14825 X8.5615 Y3.5966 Z-0.1234
N14830 X8.546 Y3.5953 Z-0.1235
N14835 X8.5383 Y3.5946
N14840 X8.5228 Y3.5924
N14845 X8.5151 Y3.5912
N14850 X8.4996 Y3.5881
N14855 X8.4919 Y3.5862
N14860 X8.4764 Y3.5822
N14865 X8.4609 Y3.5773 Z-0.1234
N14870 X8.4532 Y3.5747 Z-0.1235
N14875 X8.4377 Y3.5687
N14880 X8.4341 Y3.5673 Z-0.1234
N14885 X8.4168 Y3.5595 Z-0.1235
N14890 X8.399 Y3.5504
N14895 X8.388 Y3.544 Z-0.1234
N14900 X8.3835 Y3.5414
N14905 X8.3753 Y3.5363 Z-0.1235
N14910 X8.3603 Y3.5262
N14915 X8.3429 Y3.5131 Z-0.1234
N14920 X8.3293 Y3.5016 Z-0.1235
N14925 X8.3248 Y3.4976
N14930 X8.3138 Y3.4872
N14935 X8.3087 Y3.4821
N14940 X8.2983 Y3.4711
N14945 X8.2944 Y3.4666 Z-0.1234
N14950 X8.2829 Y3.453 Z-0.1235
N14955 X8.2698 Y3.4357
N14960 X8.2594 Y3.4202 Z-0.1234
N14965 X8.2547 Y3.4124
N14970 X8.2501 Y3.4047
N14975 X8.2457 Y3.397 Z-0.1235
N14980 X8.2377 Y3.3815 Z-0.1234
N14985 X8.2358 Y3.3774 Z-0.1235
N14990 X8.234 Y3.3733 Z-0.1238
N14995 X8.2322 Y3.3692 Z-0.1243
N15000 X8.2304 Y3.3651 Z-0.1249
N15005 X8.2287 Y3.361 Z-0.1256
N15010 X8.227 Y3.3569 Z-0.1265
N15015 X8.2255 Y3.3528 Z-0.1275
N15020 X8.2239 Y3.3487 Z-0.1286
N15025 X8.2224 Y3.3446 Z-0.1298
N15030 X8.221 Y3.3405 Z-0.1311
N15035 X8.2183 Y3.3322 Z-0.1338
N15040 X8.2158 Y3.324 Z-0.1367
N15045 X8.2135 Y3.3157 Z-0.1397
N15050 X8.2105 Y3.3032 Z-0.1442
N15055 X8.2095 Y3.299 Z-0.1456
N15060 X8.2078 Y3.2905 Z-0.1483
N15065 X8.2062 Y3.2819 Z-0.1508
N15070 X8.2055 Y3.2776 Z-0.1518
N15075 X8.2049 Y3.2732 Z-0.1528
N15080 X8.2042 Y3.2688 Z-0.1537
N15085 X8.2036 Y3.2644 Z-0.1544
N15090 X8.2031 Y3.26 Z-0.155
N15095 X8.2026 Y3.2555 Z-0.1555
N15100 X8.2021 Y3.2511 Z-0.1557
N15105 X8.2017 Y3.2466 Z-0.1558
N15110 X8.2008 Y3.2344
N15115 X8.2001 Y3.2112 Z-0.1559
N15120 Y3.0254 Z-0.1558
N15125 X8.1998 Y3.0177 Z-0.1557
N15130 X8.1994 Y3.0099
N15135 X8.1988 Y3.0022 Z-0.1558
N15140 X8.1977 Y2.9945
N15145 X8.195 Y2.979 Z-0.1559
N15150 X8.193 Y2.9712 Z-0.1558
N15155 X8.1885 Y2.9558
N15160 X8.1855 Y2.948
N15165 X8.1829 Y2.9416
N15170 X8.1833 Y2.9415 Z-0.1697
N15175 X8.1839 Y2.9416 Z-0.1849
N15180 X8.1842 Y2.9417 Z-0.1893
N15185 X8.1845 Y2.9416 Z-0.1917
N15190 X8.1848 Y2.9417 Z-0.193
N15195 X8.1856 Z-0.1958
N15200 X8.1861 Z-0.1969
N15205 X8.1871 Z-0.1989
N15210 X8.1885 Z-0.2012
N15215 X8.19 Z-0.203
N15220 X8.1919 Y2.9418 Z-0.2049
N15225 X8.1938 Z-0.2064
N15230 X8.1958 Z-0.2077
N15235 X8.1977 Y2.9417 Z-0.2087
N15240 X8.1996 Z-0.2095
N15245 X8.2016 Z-0.2101
N15250 X8.2054 Z-0.2108
N15255 X8.2074 Z-0.2109
N15260 X8.2093 Y2.9418 Z-0.2108
N15265 X8.2132 Z-0.2102
N15270 X8.2151 Y2.9417 Z-0.2096
N15275 X8.2171 Z-0.2088
N15280 X8.219 Y2.9418 Z-0.2079
N15285 X8.2209 Y2.9417 Z-0.2067
N15290 X8.2229 Z-0.2052
N15295 X8.2248 Y2.9416 Z-0.2033
N15300 X8.2267 Y2.9417 Z-0.2009
N15305 X8.2287 Z-0.1975
N15310 X8.2296 Z-0.1952
N15315 X8.23 Y2.9416 Z-0.1941
N15320 X8.2308 Y2.9417 Z-0.1899
N15325 X8.2311 Y2.9416 Z-0.1844
N15330 X8.2315 Y2.9415 Z-0.1747
N15335 X8.2319 Z-0.1643
N15340 X8.2321 Y2.9416 Z-0.1566
N15345 X8.232 Y2.9418 Z-0.1558
N15350 X8.2287 Y2.95
N15355 X8.2265 Y2.9558 Z-0.1557
N15360 X8.222 Y2.9712
N15365 X8.2209 Y2.9752
N15370 X8.22 Y2.979 Z-0.1558
N15375 X8.2173 Y2.9945
N15380 X8.2162 Y3.0022
N15385 X8.2156 Y3.0099 Z-0.1557
N15390 X8.2152 Y3.0177
N15395 X8.2149 Y3.0254 Z-0.1558
N15400 Y3.2112
N15405 X8.215 Y3.2189
N15410 X8.2156 Y3.2344 Z-0.1559
N15415 X8.216 Y3.2422 Z-0.1558
N15420 X8.2185 Y3.2654
N15425 X8.2198 Y3.2731
N15430 X8.2227 Y3.2886
N15435 X8.2243 Y3.2963
N15440 X8.2304 Y3.3196
N15445 X8.2329 Y3.3273
N15450 X8.2384 Y3.3428
N15455 X8.2413 Y3.3505
N15460 X8.248 Y3.366
N15465 X8.2519 Y3.3745 Z-0.1557
N15470 X8.2638 Y3.397
N15475 X8.2685 Y3.4047
N15480 X8.2783 Y3.4202 Z-0.1558
N15485 X8.2839 Y3.4279
N15490 X8.2906 Y3.437
N15495 X8.2954 Y3.4434 Z-0.1557
N15500 X8.3087 Y3.4589 Z-0.1558
N15505 X8.3138 Y3.4647 Z-0.1557
N15510 X8.3312 Y3.4821 Z-0.1558
N15515 X8.337 Y3.4873
N15520 X8.3525 Y3.5006
N15525 X8.3603 Y3.5064
N15530 X8.3693 Y3.5131
N15535 X8.3757 Y3.5177
N15540 X8.3929 Y3.5286 Z-0.1557
N15545 X8.399 Y3.5323
N15550 X8.4211 Y3.544 Z-0.1558
N15555 X8.4222 Y3.5446
N15560 X8.4299 Y3.5481 Z-0.1559
N15565 X8.4454 Y3.5548 Z-0.1558
N15570 X8.4532 Y3.5578 Z-0.1557
N15575 X8.4686 Y3.5632 Z-0.1558
N15580 X8.4764 Y3.5657 Z-0.1557
N15585 X8.4996 Y3.5719 Z-0.1558
N15590 X8.5073 Y3.5735
N15595 X8.5228 Y3.5764 Z-0.1557
N15600 X8.5306 Y3.5777 Z-0.1558
N15605 X8.5538 Y3.5803
N15610 X8.5615 Y3.5807
N15615 X8.577 Y3.5812
N15620 X8.5848 Y3.5814
N15625 X8.7705
N15630 X8.7783 Y3.5811
N15635 X8.786 Y3.5806
N15640 X8.7938 Y3.5801 Z-0.1559
N15645 X8.8015 Y3.579
N15650 X8.817 Y3.5763 Z-0.1558
N15655 X8.8223 Y3.575
N15660 X8.8402 Y3.5698
N15665 X8.848 Y3.5669
N15670 X8.8546 Y3.5642
N15675 X8.8547 Y3.5644 Z-0.1653
N15680 Y3.565 Z-0.1812
N15685 X8.8546 Y3.5654 Z-0.1887
N15690 Y3.5657 Z-0.1914
N15695 Y3.5662 Z-0.1938
N15700 Y3.5673 Z-0.1968
N15705 Y3.5682 Z-0.1988
N15710 Y3.5692 Z-0.2004
N15715 Y3.5711 Z-0.2029
N15720 Y3.5731 Z-0.2049
N15725 Y3.575 Z-0.2065
N15730 Y3.5769 Z-0.2077
N15735 Y3.5789 Z-0.2087
N15740 Y3.5808 Z-0.2095
N15745 Y3.5827 Z-0.2101
N15750 Y3.5866 Z-0.2108
N15755 Y3.5885 Z-0.2109
N15760 Y3.5905 Z-0.2108
N15765 X8.8545 Y3.5943 Z-0.2102
N15770 X8.8546 Y3.5963 Z-0.2097
N15775 Y3.5982 Z-0.2089
N15780 X8.8545 Y3.6002 Z-0.2079
N15785 Y3.6021 Z-0.2067
N15790 X8.8546 Y3.604 Z-0.2052
N15795 Y3.606 Z-0.2034
N15800 Y3.6079 Z-0.201
N15805 Y3.6089 Z-0.1995
N15810 Y3.6103 Z-0.1967
N15815 Y3.6112 Z-0.1943
N15820 Y3.6118 Z-0.1919
N15825 Y3.6122 Z-0.1869
N15830 X8.8547 Y3.6131 Z-0.163
N15835 X8.8544 Y3.6133 Z-0.1559
N15840 X8.848 Y3.6106 Z-0.156
N15845 X8.8402 Y3.6077 Z-0.1559
N15850 X8.8247 Y3.6032 Z-0.1558
N15855 X8.817 Y3.6012
N15860 X8.7997 Y3.5982 Z-0.1559
N15865 X8.7938 Y3.5974
N15870 X8.786 Y3.5969 Z-0.1558
N15875 X8.7783 Y3.5964
N15880 X8.7705 Y3.5961
N15885 X8.5848
N15890 X8.5615 Y3.5955
N15895 X8.546 Y3.5942
N15900 X8.5383 Y3.5935 Z-0.1559
N15905 X8.5175 Y3.5905
N15910 X8.4996 Y3.5869 Z-0.1558
N15915 X8.4919 Y3.5851 Z-0.1559
N15920 X8.4764 Y3.581
N15925 X8.4574 Y3.575 Z-0.1558
N15930 X8.4532 Y3.5734
N15935 X8.4369 Y3.5673
N15940 X8.4195 Y3.5595
N15945 X8.4145 Y3.5571
N15950 X8.399 Y3.5491
N15955 X8.3902 Y3.544
N15960 X8.3835 Y3.5401
N15965 X8.3773 Y3.5363
N15970 X8.3657 Y3.5286
N15975 X8.3603 Y3.5248
N15980 X8.3447 Y3.5131
N15985 X8.3293 Y3.5001
N15990 X8.3264 Y3.4976
N15995 X8.3138 Y3.4857
N16000 X8.3103 Y3.4821
N16005 X8.2983 Y3.4695
N16010 X8.2958 Y3.4666
N16015 X8.2829 Y3.4511 Z-0.1559
N16020 X8.2712 Y3.4357 Z-0.1558
N16025 X8.2596 Y3.4184
N16030 X8.256 Y3.4124
N16035 X8.2514 Y3.4047
N16040 X8.247 Y3.397
N16045 X8.2388 Y3.381
N16050 X8.2354 Y3.3737
N16055 X8.2319 Y3.366
N16060 X8.2286 Y3.3583
N16065 X8.2227 Y3.3428
N16070 X8.2209 Y3.3378
N16075 X8.2151 Y3.3196
N16080 X8.2111 Y3.3041
N16085 X8.2093 Y3.2963
N16090 X8.2062 Y3.2809
N16095 X8.2054 Y3.2768
N16100 X8.2027 Y3.2576
N16105 X8.2017 Y3.2466
N16110 X8.2014 Y3.2421 Z-0.1559
N16115 X8.2011 Y3.2376 Z-0.1562
N16120 X8.2009 Y3.2332 Z-0.1566
N16125 X8.2007 Y3.2287 Z-0.1572
N16130 X8.2005 Y3.2243 Z-0.1579
N16135 Y3.2199 Z-0.1588
N16140 X8.2004 Y3.2155 Z-0.1598
N16145 X8.2003 Y3.2111 Z-0.1609
N16150 X8.2004 Y3.2024 Z-0.1633
N16155 X8.2005 Y3.1937 Z-0.166
N16160 X8.2006 Y3.1809 Z-0.1704
N16165 X8.2009 Y3.1637 Z-0.1764
N16170 X8.2011 Y3.1551 Z-0.1792
N16175 X8.2012 Y3.1464 Z-0.1818
N16180 X8.2013 Y3.142 Z-0.183
N16185 Y3.1376 Z-0.1841
N16190 Y3.1332 Z-0.1851
N16195 X8.2014 Y3.1288 Z-0.186
N16200 Y3.1244 Z-0.1867
N16205 Y3.1199 Z-0.1873
N16210 X8.2015 Y3.1154 Z-0.1878
N16215 Y3.1109 Z-0.1881
N16220 Y3.1064 Z-0.1882
N16225 Y3.0254 Z-0.1881
N16230 X8.2011 Y3.0177
N16235 X8.2 Y3.0022
N16240 X8.1989 Y2.9945 Z-0.1882
N16245 X8.1962 Y2.979 Z-0.1883
N16250 X8.1949 Y2.9738 Z-0.1882
N16255 X8.1946 Y2.9726
N16260 X8.1947 Y2.9723 Z-0.1898
N16265 X8.1949 Y2.9724 Z-0.1908
N16270 X8.1953 Z-0.1922
N16275 X8.1961 Z-0.1938
N16280 X8.1969 Z-0.1951
N16285 X8.1977 Z-0.1961
N16290 X8.1987 Y2.9725 Z-0.197
N16295 X8.1996 Z-0.1978
N16300 X8.2016 Z-0.1991
N16305 X8.2025 Y2.9724 Z-0.1995
N16310 X8.2035 Z-0.1999
N16315 X8.2054 Z-0.2004
N16320 X8.2074 Z-0.2005
N16325 X8.2093 Y2.9725 Z-0.2004
N16330 X8.2112 Y2.9724 Z-0.2
N16335 X8.2132 Z-0.1992
N16340 X8.2141 Z-0.1987
N16345 X8.2151 Z-0.1981
N16350 X8.2161 Z-0.1973
N16355 X8.217 Y2.9723 Z-0.1964
N16360 X8.218 Y2.9724 Z-0.1952
N16365 X8.219 Z-0.1937
N16370 X8.2195 Y2.9723 Z-0.1927
N16375 X8.22 Z-0.1914
N16380 X8.2202 Z-0.1905
N16385 X8.2204 Y2.9727 Z-0.1881
N16390 X8.2197 Y2.9752
N16395 X8.2189 Y2.979
N16400 X8.2161 Y2.9945
N16405 X8.215 Y3.0022
N16410 X8.2139 Y3.0177
N16415 X8.2135 Y3.0254
N16420 Y3.2112
N16425 X8.2136 Y3.2189
N16430 X8.2141 Y3.2344 Z-0.1882
N16435 X8.2147 Y3.2422
N16440 X8.2154 Y3.2499
N16445 X8.2162 Y3.2576 Z-0.1881
N16450 X8.2172 Y3.2654
N16455 X8.2184 Y3.2731
N16460 X8.2209 Y3.2868
N16465 X8.2229 Y3.2963
N16470 X8.2249 Y3.3041
N16475 X8.229 Y3.3196
N16480 X8.2315 Y3.3273
N16485 X8.2364 Y3.3415
N16490 X8.2399 Y3.3505
N16495 X8.2441 Y3.3608
N16500 X8.2465 Y3.366
N16505 X8.2519 Y3.3775
N16510 X8.2596 Y3.3921
N16515 X8.2622 Y3.397
N16520 X8.2674 Y3.4054
N16525 X8.2751 Y3.4178
N16530 X8.2767 Y3.4202
N16535 X8.2829 Y3.4289
N16540 X8.2906 Y3.4394
N16545 X8.2983 Y3.449
N16550 X8.3069 Y3.4589
N16555 X8.3138 Y3.4666
N16560 X8.3293 Y3.4821
N16565 X8.3379 Y3.4899
N16570 X8.3448 Y3.4959
N16575 X8.3525 Y3.5022
N16580 X8.3565 Y3.5053
N16585 X8.3669 Y3.5131
N16590 X8.378 Y3.5208
N16595 X8.3912 Y3.5291
N16600 X8.399 Y3.5338
N16605 X8.4145 Y3.5422
N16610 X8.4181 Y3.544 Z-0.1882
N16615 X8.4222 Y3.546
N16620 X8.4299 Y3.5496
N16625 X8.4377 Y3.5531
N16630 X8.4454 Y3.5562 Z-0.1881
N16635 X8.4538 Y3.5595
N16640 X8.4686 Y3.5646
N16645 X8.4769 Y3.5673
N16650 X8.4919 Y3.5713
N16655 X8.4996 Y3.5733
N16660 X8.5078 Y3.575
N16665 X8.5151 Y3.5764
N16670 X8.5228 Y3.5778
N16675 X8.5306 Y3.579
N16680 X8.5383 Y3.58
N16685 X8.546 Y3.5809
N16690 X8.5538 Y3.5815
N16695 X8.5615 Y3.5821
N16700 X8.577 Y3.5826
N16705 X8.5848 Y3.5827
N16710 X8.7705
N16715 X8.7783 Y3.5824 Z-0.1882
N16720 X8.7938 Y3.5813
N16725 X8.8015 Y3.5802
N16730 X8.817 Y3.5775
N16735 X8.8224 Y3.5762 Z-0.1881
N16740 X8.8237 Y3.5758
N16745 X8.8239 Y3.576 Z-0.19
N16750 Y3.5762 Z-0.191
N16755 Y3.5766 Z-0.1922
N16760 Y3.5771 Z-0.1934
N16765 Y3.5777 Z-0.1943
N16770 Y3.5784 Z-0.1954
N16775 Y3.5798 Z-0.197
N16780 Y3.5813 Z-0.1982
N16785 Y3.5827 Z-0.1991
N16790 Y3.5837 Z-0.1995
N16795 Y3.5847 Z-0.1999
N16800 Y3.5866 Z-0.2003
N16805 Y3.5885 Z-0.2005
N16810 Y3.5905 Z-0.2004
N16815 Y3.5924 Z-0.2
N16820 Y3.5943 Z-0.1993
N16825 X8.8238 Y3.5953 Z-0.1987
N16830 Y3.5963 Z-0.1981
N16835 X8.8239 Y3.5973 Z-0.1974
N16840 Y3.5982 Z-0.1965
N16845 Y3.5992 Z-0.1953
N16850 Y3.6001 Z-0.1939
N16855 Y3.6006 Z-0.1929
N16860 Y3.6013 Z-0.191
N16865 Y3.6015 Z-0.1903
N16870 X8.8238 Y3.6017 Z-0.1882
N16875 X8.8209 Y3.6009
N16880 X8.817 Y3.6
N16885 X8.8015 Y3.5973
N16890 X8.7938 Y3.5962
N16895 X8.7783 Y3.5951
N16900 X8.7705 Y3.5948
N16905 X8.5848
N16910 X8.5615 Y3.5941
N16915 X8.546 Y3.5929
N16920 X8.5383 Y3.5921
N16925 X8.5228 Y3.5899
N16930 X8.5151 Y3.5887
N16935 X8.4996 Y3.5855
N16940 X8.4919 Y3.5837
N16945 X8.4764 Y3.5796
N16950 X8.4686 Y3.5772
N16955 X8.4532 Y3.5721
N16960 X8.4408 Y3.5673
N16965 X8.4377 Y3.566 Z-0.1881
N16970 X8.4299 Y3.5628
N16975 X8.4145 Y3.5556 Z-0.1882
N16980 X8.4067 Y3.5517
N16985 X8.3927 Y3.544
N16990 X8.3799 Y3.5363
N16995 X8.3757 Y3.5337
N17000 X8.368 Y3.5285
N17005 X8.357 Y3.5208
N17010 X8.3525 Y3.5174 Z-0.1881
N17015 X8.3448 Y3.5113
N17020 X8.337 Y3.505
N17025 X8.3286 Y3.4976 Z-0.1882
N17030 X8.3201 Y3.4899
N17035 X8.3123 Y3.4821
N17040 X8.3047 Y3.4744
N17045 X8.2977 Y3.4666 Z-0.1881
N17050 X8.2906 Y3.4585 Z-0.1882
N17055 X8.2829 Y3.4488
N17060 X8.2786 Y3.4434
N17065 X8.2751 Y3.4388
N17070 X8.2674 Y3.4277 Z-0.1881
N17075 X8.2623 Y3.4202
N17080 X8.2576 Y3.4124
N17085 X8.2519 Y3.403
N17090 X8.2441 Y3.3887 Z-0.1882
N17095 X8.24 Y3.3804
N17100 X8.2333 Y3.366 Z-0.1881
N17105 X8.2301 Y3.3583
N17110 X8.227 Y3.3505
N17115 X8.2241 Y3.3428 Z-0.1882
N17120 X8.2189 Y3.3273
N17125 X8.2166 Y3.3196
N17130 X8.2125 Y3.3041
N17135 X8.2107 Y3.2963
N17140 X8.2075 Y3.2809 Z-0.1881
N17145 X8.2063 Y3.2731 Z-0.1882
N17150 X8.2041 Y3.2576
N17155 X8.2027 Y3.2422
N17160 X8.2021 Y3.2344
N17165 X8.2015 Y3.2112
N17170 Y3.1064
N17175 Y3.1032 Z-0.1879 F15.
N17180 Y3.1 Z-0.187
N17185 Y3.0971 Z-0.1856
N17190 Y3.0944 Z-0.1838
N17195 Y3.0921 Z-0.1815
N17200 Y3.0902 Z-0.1788
N17205 Y3.0888 Z-0.1758
N17210 Y3.088 Z-0.1727
N17215 Y3.0877 Z-0.1694
N17220 G0 Z0.08
N17225 X8.9093 Y3.5296
N17230 Z0.0522
N17235 G1 Z-0.1089 F6.667
N17240 Z-0.1103 F15.
N17245 X8.9095 Y3.5295 Z-0.113 F20.
N17250 X8.9098 Y3.5298 Z-0.1285
N17255 X8.91 Y3.5314 Z-0.1783
N17260 X8.9099 Y3.5318 Z-0.1867
N17265 Y3.5323 Z-0.1942
N17270 Y3.5333 Z-0.1999
N17275 Y3.5346 Z-0.2048
N17280 Y3.5363 Z-0.2094
N17285 Y3.5402 Z-0.2171
N17290 Y3.544 Z-0.2227
N17295 Y3.5451 Z-0.2239
N17300 Y3.5481 Z-0.2273
N17305 Y3.5518 Z-0.2307
N17310 Y3.5569 Z-0.2346
N17315 Y3.5595 Z-0.2363
N17320 X8.91 Y3.5673 Z-0.2402
N17325 X8.9099 Y3.5694 Z-0.2409
N17330 X8.9098 Y3.575 Z-0.2426
N17335 X8.9099 Y3.5775 Z-0.2432
N17340 Y3.5811 Z-0.2438
N17345 X8.9098 Y3.5827 Z-0.244
N17350 X8.9099 Y3.589 Z-0.2444
N17355 Y3.5905
N17360 Y3.5982 Z-0.2435
N17365 Y3.606 Z-0.2417
N17370 Y3.612 Z-0.2394
N17375 Y3.6149 Z-0.238
N17380 Y3.6193 Z-0.2354
N17385 X8.9098 Y3.6214 Z-0.234
N17390 X8.9099 Y3.6245 Z-0.2317
N17395 Y3.6283 Z-0.2283
N17400 Y3.6308 Z-0.2257
N17405 Y3.6326 Z-0.2237
N17410 Y3.6369 Z-0.2177
N17415 X8.91 Y3.6408 Z-0.2106
N17420 X8.9099 Y3.6429 Z-0.2048
N17425 Y3.6447 Z-0.1977
N17430 Y3.6453 Z-0.1933
N17435 X8.9098 Y3.6457 Z-0.1849
N17440 X8.91 Y3.6474 Z-0.1418
N17445 X8.9094 Y3.6479 Z-0.112
N17450 Z-0.1115 F15.
N17455 G0 Z0.08
N17460 X9.4366 Y3.3846
N17465 Z0.0519
N17470 G1 Z-0.1152 F6.667
N17475 Y3.3844 Z-0.1175 F15.
N17480 X9.4363 Y3.3838 Z-0.1197
N17485 X9.4358 Y3.3828 Z-0.1217
N17490 X9.4352 Y3.3815 Z-0.1235
N17495 X9.4317 Y3.3737 Z-0.1234 F20.
N17500 X9.4282 Y3.366
N17505 X9.4249 Y3.3583
N17510 X9.419 Y3.3428 Z-0.1235
N17515 X9.4164 Y3.335
N17520 X9.4114 Y3.3196 Z-0.1236
N17525 X9.4075 Y3.3041 Z-0.1235
N17530 X9.4056 Y3.2963
N17535 X9.4025 Y3.2809 Z-0.1234
N17540 X9.4013 Y3.2731
N17545 X9.3991 Y3.2576 Z-0.1235
N17550 X9.3976 Y3.2403 Z-0.1234
N17555 X9.3971 Y3.2344 Z-0.1235
N17560 X9.3965 Y3.2112 Z-0.1236
N17565 Y3.0254 Z-0.1234
N17570 X9.3962 Y3.0177
N17575 X9.3957 Y3.0099
N17580 X9.3952 Y3.0022
N17585 X9.394 Y2.9945
N17590 X9.3913 Y2.979
N17595 X9.3898 Y2.9729
N17600 X9.3848 Y2.9558
N17605 X9.3819 Y2.948
N17610 X9.3787 Y2.9403 Z-0.1235
N17615 X9.3754 Y2.9325
N17620 X9.3744 Y2.9304
N17625 X9.3714 Y2.9248 Z-0.1234
N17630 X9.3648 Y2.9129
N17635 X9.3649 Y2.9127 Z-0.1306
N17640 X9.3666 Y2.9126 Z-0.1807
N17645 X9.3669 Z-0.187
N17650 X9.3672 Y2.9127 Z-0.1918
N17655 X9.3678 Z-0.1953
N17660 X9.3685 Z-0.1982
N17665 X9.3705 Y2.9128 Z-0.2034
N17670 X9.3744 Y2.9126 Z-0.2101
N17675 X9.3782 Y2.9127 Z-0.2145
N17680 X9.3821 Y2.9128 Z-0.2178
N17685 X9.3898 Y2.9127 Z-0.2223
N17690 X9.3937 Y2.9128 Z-0.2237
N17695 X9.3976 Z-0.2247
N17700 X9.4053 Y2.9127 Z-0.2255
N17705 X9.4131 Y2.9128 Z-0.2246
N17710 X9.4208 Y2.9127 Z-0.2221
N17715 X9.424 Y2.9128 Z-0.2204
N17720 X9.4285 Y2.9127 Z-0.2173
N17725 X9.4324 Z-0.2139
N17730 X9.4363 Z-0.209
N17735 X9.4402 Y2.9128 Z-0.2018
N17740 X9.4421 Y2.9127 Z-0.1959
N17745 X9.4426 Z-0.1934
N17750 X9.4431 Z-0.1878
N17755 X9.4451 Z-0.1295
N17760 X9.4452 Y2.9129 Z-0.1234
N17765 X9.4363 Y2.9291
N17770 X9.4346 Y2.9325
N17775 X9.4281 Y2.948
N17780 X9.4252 Y2.9558
N17785 X9.4207 Y2.9712
N17790 X9.4187 Y2.979
N17795 X9.416 Y2.9945 Z-0.1235
N17800 X9.4148 Y3.0022
N17805 X9.4143 Y3.0099
N17810 X9.4138 Y3.0177 Z-0.1234
N17815 X9.4135 Y3.0254
N17820 Y3.2112
N17825 X9.4136 Y3.2189
N17830 X9.4142 Y3.2344
N17835 X9.4146 Y3.2422
N17840 X9.4172 Y3.2654
N17845 X9.4184 Y3.2731
N17850 X9.4213 Y3.2886
N17855 X9.4229 Y3.2963
N17860 X9.4291 Y3.3196
N17865 X9.4316 Y3.3273
N17870 X9.4371 Y3.3428
N17875 X9.44 Y3.3505
N17880 X9.4468 Y3.366
N17885 X9.4503 Y3.3737
N17890 X9.4595 Y3.3913
N17895 X9.4626 Y3.397
N17900 X9.4722 Y3.4124 Z-0.1235
N17905 X9.4772 Y3.4202
N17910 X9.4905 Y3.4383
N17915 X9.4944 Y3.4434
N17920 X9.5077 Y3.4589 Z-0.1234
N17925 X9.5137 Y3.4655
N17930 X9.5304 Y3.4821
N17935 X9.5393 Y3.4899
N17940 X9.5482 Y3.4976
N17945 X9.5524 Y3.501
N17950 X9.5687 Y3.5131 Z-0.1235
N17955 X9.5756 Y3.518 Z-0.1236
N17960 X9.5925 Y3.5286 Z-0.1234
N17965 X9.5988 Y3.5323
N17970 X9.6143 Y3.5405
N17975 X9.6221 Y3.5445
N17980 X9.6453 Y3.5546 Z-0.1235
N17985 X9.653 Y3.5574 Z-0.1234
N17990 X9.6685 Y3.5628
N17995 X9.6763 Y3.5652
N18000 X9.6917 Y3.5693
N18005 X9.6995 Y3.5713
N18010 X9.7227 Y3.5757
N18015 X9.7304 Y3.5768
N18020 X9.7459 Y3.5785
N18025 X9.7537 Y3.5793
N18030 X9.7769 Y3.5802 Z-0.1235
N18035 X9.8156 Y3.5803
N18040 X9.9627
N18045 X9.9704 Y3.5802 Z-0.1234
N18050 X9.9859 Y3.5794
N18055 X9.9936 Y3.5787
N18060 X10.0091 Y3.5761
N18065 X10.0152 Y3.575
N18070 X10.0169 Y3.5746
N18075 X10.0246 Y3.5725
N18080 X10.0324 Y3.5703
N18085 X10.0401 Y3.5679
N18090 X10.0417 Y3.5673
N18095 X10.0556 Y3.5616
N18100 X10.0604 Y3.5595
N18105 X10.0633 Y3.5581
N18110 X10.075 Y3.5518
N18115 X10.0808 Y3.5486
N18120 X10.0809 Y3.5487 Z-0.1306
N18125 X10.0811 Y3.5506 Z-0.1849
N18130 Y3.5508 Z-0.19
N18135 Y3.5518 Z-0.1965
N18140 Y3.5537 Z-0.2022
N18145 X10.081 Y3.5556 Z-0.2062
N18150 X10.0811 Y3.5595 Z-0.2118
N18155 X10.081 Y3.5625 Z-0.2149
N18160 Y3.5673 Z-0.2188
N18165 Y3.5711 Z-0.2212
N18170 X10.0811 Y3.575 Z-0.2229
N18175 X10.0809 Y3.5827 Z-0.225
N18180 X10.0811 Y3.5905 Z-0.2255
N18185 X10.081 Y3.5982 Z-0.2243
N18190 Y3.6021 Z-0.223
N18195 Y3.606 Z-0.2213
N18200 X10.0809 Y3.6137 Z-0.2161
N18205 X10.081 Y3.6176 Z-0.2123
N18210 Y3.6214 Z-0.2069
N18215 Y3.6248 Z-0.1994
N18220 Y3.6261 Z-0.1944
N18225 Y3.6265 Z-0.1919
N18230 Y3.6269 Z-0.1856
N18235 X10.0812 Y3.6285 Z-0.143
N18240 X10.0809 Y3.6287 Z-0.1312
N18245 X10.0805 Y3.6288 Z-0.1234
N18250 X10.0673 Y3.6214 Z-0.1235
N18255 X10.0633 Y3.6194 Z-0.1236
N18260 X10.0556 Y3.6159
N18265 X10.0478 Y3.6127
N18270 X10.0401 Y3.6096
N18275 X10.0324 Y3.6072 Z-0.1235
N18280 X10.0246 Y3.605
N18285 X10.0169 Y3.6029 Z-0.1234
N18290 X10.0091 Y3.6014
N18295 X9.9936 Y3.5988 Z-0.1235
N18300 X9.9875 Y3.5982
N18305 X9.9704 Y3.5973
N18310 X9.893 Y3.5972
N18315 X9.7846
N18320 X9.7769 Y3.5971
N18325 X9.7614 Y3.5967 Z-0.1234
N18330 X9.7537 Y3.5962
N18335 X9.7382 Y3.5949 Z-0.1235
N18340 X9.7227 Y3.5928 Z-0.1234
N18345 X9.715 Y3.5916 Z-0.1235
N18350 X9.6995 Y3.5885
N18355 X9.6917 Y3.5868
N18360 X9.6759 Y3.5827
N18365 X9.6685 Y3.5805
N18370 X9.653 Y3.5756
N18375 X9.6376 Y3.5697
N18380 X9.6316 Y3.5673 Z-0.1234
N18385 X9.6143 Y3.5595 Z-0.1235
N18390 X9.5988 Y3.5516
N18395 X9.5911 Y3.5473 Z-0.1234
N18400 X9.5756 Y3.5382
N18405 X9.5601 Y3.5278 Z-0.1235
N18410 X9.5506 Y3.5208
N18415 X9.5404 Y3.5131
N18420 X9.5292 Y3.5036
N18425 X9.5214 Y3.4968
N18430 X9.5137 Y3.4895
N18435 X9.506 Y3.4818
N18440 X9.4982 Y3.4736 Z-0.1234
N18445 X9.4919 Y3.4666
N18450 X9.4827 Y3.4558
N18455 X9.4789 Y3.4512 Z-0.1235
N18460 X9.4672 Y3.4356 Z-0.1234
N18465 X9.4569 Y3.4202
N18470 X9.4518 Y3.4117
N18475 X9.444 Y3.3985 Z-0.1235
N18480 X9.4352 Y3.3815
N18485 X9.4334 Y3.3774
N18490 X9.4316 Y3.3733 Z-0.1238
N18495 X9.4298 Y3.3692 Z-0.1243
N18500 X9.4281 Y3.365 Z-0.1249
N18505 X9.4264 Y3.3609 Z-0.1256
N18510 X9.4248 Y3.3568 Z-0.1265
N18515 X9.4232 Y3.3527 Z-0.1274
N18520 X9.4217 Y3.3486 Z-0.1285
N18525 X9.4202 Y3.3444 Z-0.1297
N18530 X9.4188 Y3.3403 Z-0.131
N18535 X9.4161 Y3.3321 Z-0.1337
N18540 X9.4136 Y3.3239 Z-0.1366
N18545 X9.4113 Y3.3156 Z-0.1396
N18550 X9.4091 Y3.3073 Z-0.1426
N18555 X9.4072 Y3.2989 Z-0.1455
N18560 X9.4054 Y3.2905 Z-0.1482
N18565 X9.4046 Y3.2862 Z-0.1495
N18570 X9.4038 Y3.2819 Z-0.1507
N18575 X9.4031 Y3.2775 Z-0.1518
N18580 X9.4024 Y3.2732 Z-0.1528
N18585 X9.4017 Y3.2688 Z-0.1537
N18590 X9.4012 Y3.2644 Z-0.1544
N18595 X9.4006 Y3.26 Z-0.155
N18600 X9.4001 Y3.2555 Z-0.1554
N18605 X9.3996 Y3.2511 Z-0.1557
N18610 X9.3992 Y3.2466 Z-0.1558
N18615 X9.3983 Y3.2344
N18620 X9.3976 Y3.2112 Z-0.1559
N18625 Y3.0254 Z-0.1558
N18630 Y3.0229
N18635 X9.3969 Y3.0099 Z-0.1557
N18640 X9.3963 Y3.0022 Z-0.1558
N18645 X9.3952 Y2.9945
N18650 X9.3925 Y2.979
N18655 X9.3905 Y2.9712
N18660 X9.386 Y2.9558
N18665 X9.383 Y2.948
N18670 X9.3804 Y2.9417
N18675 X9.3805 Y2.9416 Z-0.1605
N18680 X9.3812 Y2.9415 Z-0.1808
N18685 X9.3815 Y2.9416 Z-0.1874
N18690 X9.3821 Y2.9417 Z-0.1924
N18695 X9.3831 Z-0.1956
N18700 X9.384 Z-0.1979
N18705 X9.3858 Y2.9416 Z-0.201
N18710 X9.3872 Z-0.2027
N18715 X9.3898 Y2.9417 Z-0.2053
N18720 X9.3918 Y2.9418 Z-0.2068
N18725 X9.3937 Z-0.208
N18730 X9.3956 Y2.9417 Z-0.209
N18735 X9.3976 Z-0.2097
N18740 X9.4014 Y2.9418 Z-0.2106
N18745 X9.4034 Z-0.2108
N18750 X9.4053 Y2.9417 Z-0.2109
N18755 X9.4092 Z-0.2105
N18760 X9.4111 Y2.9418 Z-0.2101
N18765 X9.4131 Y2.9417 Z-0.2095
N18770 X9.415 Z-0.2087
N18775 X9.4169 Z-0.2076
N18780 X9.4189 Z-0.2063
N18785 X9.4208 Z-0.2048
N18790 X9.4227 Z-0.2028
N18795 X9.4247 Y2.9418 Z-0.2002
N18800 X9.4256 Z-0.1985
N18805 X9.4266 Z-0.1964
N18810 X9.4276 Y2.9417 Z-0.1937
N18815 X9.4281 Y2.9416 Z-0.1917
N18820 X9.4285 Z-0.1864
N18825 X9.4294 Z-0.1631
N18830 X9.4295 Y2.9419 Z-0.1558
